;FLAVOR:Marlin
;TIME:14149
;Filament used: 16.4527m
;Layer height: 0.2
;MINX:66.85
;MINY:69.903
;MINZ:0.2
;MAXX:143.15
;MAXY:140.101
;MAXZ:79.2
;Generated with Cura_SteamEngine 4.4.1
M140 S60
M105
M190 S60
M104 S200
M105
M109 S200
M82 ;absolute extrusion mode
G21 ;metric values
G90 ;absolute positioning
M82 ;set extruder to absolute mode
M107 ;start with the fan off
G28 X0 Y0 ;move X/Y to min endstops
G28 Z0 ;move Z to min endstops
G1 Z15.0 F100 ;move the platform down 15mm
G92 E0 ;zero the extruded length
G1 F200 E3 ;extrude 3mm of feed stock
G92 E0 ;zero the extruded length again
G1 F100
G0 Y20 F100
M117 Printing...
G5
G92 E0
G92 E0
G1 F2400 E-6
;LAYER_COUNT:396
;LAYER:0
M106 S255
M204 S3000
M205 X10 Y10
G1 F600 Z0.275
G0 F3000 X68.791 Y71.733 Z0.275
M204 S1800
M205 X8 Y8
;TYPE:SKIRT
G1 F600 Z0.2
G1 F2400 E0
G1 X69.33 Y71.263 E0.0333
G1 X69.918 Y70.856 E0.0666
G1 X70.548 Y70.517 E0.09991
G1 X71.212 Y70.251 E0.13322
G1 X71.901 Y70.06 E0.16651
G1 X72.608 Y69.947 E0.19985
G1 X73.08 Y69.917 E0.22187
G1 X73.4 Y69.908 E0.23678
G1 X73.579 Y69.905 E0.24512
G1 X86.949 Y69.903 E0.86768
G1 X86.95 Y69.903 E0.86773
G1 X123.453 Y69.905 E2.56746
G1 X123.543 Y69.906 E2.57165
G1 X123.969 Y69.912 E2.59149
G1 X126.705 Y69.912 E2.71889
G1 X127.316 Y69.905 E2.74734
G1 X135.926 Y69.905 E3.14826
G1 X136.018 Y69.906 E3.15254
G1 X136.716 Y69.916 E3.18505
G1 X137.429 Y69.966 E3.21833
G1 X138.133 Y70.095 E3.25166
G1 X138.817 Y70.303 E3.28494
G1 X139.474 Y70.585 E3.31824
G1 X140.096 Y70.939 E3.35156
G1 X140.674 Y71.36 E3.38486
G1 X141.069 Y71.711 E3.40946
G1 X141.185 Y71.823 E3.41697
G1 X141.671 Y72.348 E3.45028
G1 X142.096 Y72.923 E3.48358
G1 X142.453 Y73.543 E3.51689
G1 X142.739 Y74.198 E3.55017
G1 X142.951 Y74.882 E3.58352
G1 X143.084 Y75.584 E3.61679
G1 X143.139 Y76.307 E3.65055
G1 X143.149 Y76.839 E3.67533
G1 X143.15 Y76.959 E3.68091
G1 X143.15 Y78.655 E3.75989
G1 X143.149 Y78.747 E3.76417
G1 X143.139 Y79.445 E3.79668
G1 X143.089 Y80.158 E3.82996
G1 X142.959 Y80.864 E3.86339
G1 X142.728 Y81.815 E3.90896
G1 X142.704 Y81.909 E3.91347
G1 X142.473 Y82.8 E3.95633
G1 X141.881 Y85.385 E4.07982
G1 X141.352 Y88.02 E4.20496
G1 X140.918 Y90.583 E4.32601
G1 X140.546 Y93.216 E4.44983
G1 X140.248 Y95.868 E4.57409
G1 X140.029 Y98.473 E4.69582
G1 X139.882 Y101.111 E4.81885
G1 X139.809 Y103.79 E4.94364
G1 X139.811 Y106.432 E5.06666
G1 X139.888 Y109.074 E5.18974
G1 X140.039 Y111.682 E5.31138
G1 X140.27 Y114.371 E5.43705
G1 X140.571 Y116.99 E5.55981
G1 X140.944 Y119.595 E5.68234
G1 X141.393 Y122.202 E5.80552
G1 X141.915 Y124.79 E5.92846
G1 X142.514 Y127.378 E6.05215
G1 X142.94 Y129.051 E6.13254
G1 X143.077 Y129.753 E6.16584
G1 X143.137 Y130.497 E6.2006
G1 X143.149 Y131.065 E6.22705
G1 X143.15 Y131.2 E6.23334
G1 X143.15 Y132.844 E6.30989
G1 X143.149 Y132.932 E6.31399
G1 X143.139 Y133.657 E6.34775
G1 X143.09 Y134.371 E6.38108
G1 X142.96 Y135.074 E6.41437
G1 X142.754 Y135.759 E6.44767
G1 X142.472 Y136.416 E6.48097
G1 X142.118 Y137.038 E6.51429
G1 X141.697 Y137.617 E6.54763
G1 X141.344 Y138.014 E6.57236
G1 X141.232 Y138.13 E6.57987
G1 X140.707 Y138.616 E6.61318
G1 X140.132 Y139.041 E6.64648
G1 X139.512 Y139.398 E6.67979
G1 X138.857 Y139.684 E6.71307
G1 X138.173 Y139.896 E6.74642
G1 X137.471 Y140.029 E6.77969
G1 X136.743 Y140.084 E6.81368
G1 X136.186 Y140.094 E6.83962
G1 X136.071 Y140.095 E6.84498
G1 X127.784 Y140.095 E7.23085
G1 X127.692 Y140.094 E7.23514
G1 X127.273 Y140.088 E7.25465
G1 X124.538 Y140.088 E7.382
G1 X123.909 Y140.095 E7.41129
G1 X87.006 Y140.095 E9.12965
G1 X86.305 Y140.101 E9.1623
G1 X86.247 Y140.101 E9.165
G1 X73.954 Y140.095 E9.73741
G1 X73.865 Y140.094 E9.74155
G1 X73.167 Y140.084 E9.77406
G1 X72.454 Y140.034 E9.80734
G1 X71.75 Y139.905 E9.84067
G1 X71.066 Y139.697 E9.87396
G1 X70.409 Y139.415 E9.90725
G1 X69.787 Y139.061 E9.94058
G1 X69.209 Y138.64 E9.97387
G1 X68.681 Y138.157 E10.00719
G1 X68.211 Y137.619 E10.04046
G1 X67.803 Y137.031 E10.07378
G1 X67.464 Y136.401 E10.1071
G1 X67.197 Y135.738 E10.14038
G1 X67.006 Y135.048 E10.17371
G1 X66.893 Y134.342 E10.20701
G1 X66.861 Y133.858 E10.22959
G1 X66.852 Y133.526 E10.24506
G1 X66.85 Y133.353 E10.25312
G1 X66.85 Y76.979 E12.87812
G1 X66.851 Y76.883 E12.8826
G1 X66.861 Y76.218 E12.91356
G1 X66.911 Y75.504 E12.94689
G1 X67.041 Y74.801 E12.98018
G1 X67.249 Y74.117 E13.01347
G1 X67.532 Y73.46 E13.04678
G1 X67.886 Y72.838 E13.08011
G1 X68.308 Y72.26 E13.11343
G1 X68.791 Y71.733 E13.14672
M204 S3000
M205 X10 Y10
G0 F3000 X69.338 Y71.987
M204 S1800
M205 X8 Y8
G1 F2400 X69.87 Y71.559 E13.17851
G1 X70.449 Y71.195 E13.21036
G1 X71.066 Y70.902 E13.24216
G1 X71.713 Y70.683 E13.27397
G1 X72.381 Y70.541 E13.30577
G1 X73.096 Y70.476 E13.3392
G1 X73.416 Y70.467 E13.35411
G1 X73.579 Y70.465 E13.3617
G1 X86.949 Y70.463 E13.98426
G1 X86.95 Y70.463 E13.98431
G1 X123.453 Y70.465 E15.68404
G1 X123.535 Y70.466 E15.68786
G1 X123.961 Y70.472 E15.7077
G1 X126.711 Y70.472 E15.83575
G1 X127.322 Y70.465 E15.8642
G1 X135.926 Y70.465 E16.26484
G1 X136.01 Y70.466 E16.26875
G1 X136.708 Y70.476 E16.30125
G1 X137.389 Y70.525 E16.33305
G1 X138.06 Y70.654 E16.36486
G1 X138.711 Y70.861 E16.39667
G1 X139.334 Y71.142 E16.4285
G1 X139.92 Y71.494 E16.46033
G1 X140.68 Y72.114 E16.506
G1 X140.796 Y72.226 E16.51351
G1 X141.259 Y72.728 E16.54531
G1 X141.66 Y73.281 E16.57711
G1 X141.994 Y73.878 E16.60897
G1 X142.256 Y74.509 E16.64078
G1 X142.442 Y75.166 E16.67258
G1 X142.55 Y75.841 E16.70441
G1 X142.579 Y76.317 E16.72661
G1 X142.589 Y76.849 E16.75139
G1 X142.59 Y76.959 E16.75651
G1 X142.59 Y78.655 E16.83548
G1 X142.589 Y78.739 E16.8394
G1 X142.579 Y79.437 E16.8719
G1 X142.53 Y80.118 E16.90369
G1 X142.415 Y80.731 E16.93273
G1 X142.184 Y81.682 E16.9783
G1 X142.162 Y81.769 E16.98248
G1 X141.926 Y82.679 E17.02626
G1 X141.333 Y85.266 E17.14984
G1 X140.803 Y87.907 E17.27527
G1 X140.361 Y90.521 E17.39872
G1 X139.989 Y93.148 E17.52226
G1 X139.692 Y95.793 E17.6462
G1 X139.47 Y98.43 E17.76942
G1 X139.322 Y101.1 E17.89394
G1 X139.249 Y103.775 E18.01855
G1 X139.251 Y106.45 E18.14311
G1 X139.328 Y109.086 E18.2659
G1 X139.481 Y111.727 E18.38908
G1 X139.712 Y114.413 E18.51462
G1 X140.016 Y117.059 E18.63864
G1 X140.394 Y119.7 E18.76286
G1 X140.841 Y122.298 E18.88562
G1 X141.365 Y124.898 E19.00912
G1 X141.976 Y127.54 E19.13539
G1 X142.397 Y129.189 E19.21463
G1 X142.527 Y129.86 E19.24646
G1 X142.577 Y130.509 E19.27677
G1 X142.589 Y131.077 E19.30322
G1 X142.59 Y131.2 E19.30895
G1 X142.59 Y132.844 E19.3855
G1 X142.589 Y132.925 E19.38927
G1 X142.579 Y133.65 E19.42304
G1 X142.53 Y134.331 E19.45483
G1 X142.401 Y135.002 E19.48665
G1 X142.195 Y135.653 E19.51844
G1 X141.915 Y136.276 E19.55025
G1 X141.563 Y136.862 E19.58208
G1 X140.941 Y137.625 E19.62791
G1 X140.829 Y137.741 E19.63542
G1 X140.327 Y138.204 E19.66722
G1 X139.774 Y138.605 E19.69903
G1 X139.177 Y138.939 E19.73088
G1 X138.546 Y139.201 E19.7627
G1 X137.889 Y139.387 E19.79449
G1 X137.214 Y139.495 E19.82632
G1 X136.733 Y139.524 E19.84876
G1 X136.176 Y139.534 E19.8747
G1 X136.071 Y139.535 E19.87959
G1 X127.784 Y139.535 E20.26547
G1 X127.7 Y139.534 E20.26938
G1 X127.281 Y139.528 E20.28889
G1 X124.532 Y139.528 E20.4169
G1 X123.903 Y139.535 E20.44619
G1 X87.001 Y139.535 E22.1645
G1 X86.3 Y139.541 E22.19714
G1 X86.247 Y139.541 E22.19961
G1 X73.954 Y139.535 E22.77202
G1 X73.873 Y139.534 E22.7758
G1 X73.175 Y139.524 E22.8083
G1 X72.494 Y139.475 E22.84009
G1 X71.823 Y139.346 E22.87191
G1 X71.172 Y139.139 E22.90372
G1 X70.549 Y138.858 E22.93554
G1 X69.963 Y138.506 E22.96737
G1 X69.423 Y138.088 E22.99917
G1 X68.935 Y137.61 E23.03098
G1 X68.506 Y137.078 E23.0628
G1 X68.142 Y136.5 E23.09461
G1 X67.848 Y135.883 E23.12643
G1 X67.629 Y135.236 E23.15824
G1 X67.486 Y134.568 E23.19005
G1 X67.421 Y133.843 E23.22394
G1 X67.412 Y133.511 E23.23941
G1 X67.41 Y133.353 E23.24677
G1 X67.41 Y76.979 E25.87178
G1 X67.411 Y76.891 E25.87587
G1 X67.421 Y76.226 E25.90684
G1 X67.471 Y75.545 E25.93864
G1 X67.6 Y74.874 E25.97046
G1 X67.807 Y74.223 E26.00226
G1 X68.089 Y73.6 E26.03411
G1 X68.441 Y73.015 E26.0659
G1 X68.859 Y72.475 E26.0977
G1 X69.338 Y71.987 E26.12954
M204 S3000
M205 X10 Y10
G0 F3000 X69.41 Y72.701
M204 S1800
M205 X8 Y8
G1 F2400 X69.883 Y72.255 E26.15981
G1 X70.407 Y71.871 E26.19006
G1 X70.974 Y71.555 E26.22028
G1 X71.576 Y71.31 E26.25055
G1 X72.203 Y71.141 E26.28079
G1 X73.112 Y71.036 E26.32339
G1 X73.432 Y71.027 E26.3383
G1 X73.579 Y71.025 E26.34515
G1 X86.949 Y71.023 E26.96771
G1 X86.95 Y71.023 E26.96776
G1 X123.453 Y71.025 E28.66749
G1 X123.527 Y71.026 E28.67093
G1 X123.953 Y71.032 E28.69077
G1 X126.718 Y71.032 E28.81952
G1 X127.329 Y71.025 E28.84798
G1 X135.926 Y71.025 E29.24829
G1 X136.002 Y71.026 E29.25183
G1 X136.7 Y71.036 E29.28433
G1 X137.347 Y71.085 E29.31455
G1 X137.984 Y71.213 E29.3448
G1 X138.6 Y71.419 E29.37504
G1 X139.187 Y71.699 E29.40533
G1 X139.734 Y72.048 E29.43554
G1 X140.291 Y72.517 E29.46945
G1 X140.407 Y72.629 E29.47696
G1 X140.846 Y73.108 E29.50721
G1 X141.223 Y73.637 E29.53746
G1 X141.531 Y74.209 E29.56771
G1 X141.768 Y74.814 E29.59796
G1 X141.928 Y75.443 E29.62819
G1 X142.019 Y76.328 E29.66961
G1 X142.029 Y76.86 E29.69439
G1 X142.03 Y76.959 E29.699
G1 X142.03 Y78.655 E29.77797
G1 X142.029 Y78.731 E29.78151
G1 X142.019 Y79.429 E29.81402
G1 X141.97 Y80.076 E29.84423
G1 X141.871 Y80.599 E29.86901
G1 X141.64 Y81.55 E29.91459
G1 X141.62 Y81.628 E29.91833
G1 X141.39 Y82.516 E29.96105
G1 X140.78 Y85.176 E30.08812
G1 X140.253 Y87.807 E30.21307
G1 X139.81 Y90.423 E30.33661
G1 X139.435 Y93.072 E30.46119
G1 X139.133 Y95.757 E30.58701
G1 X138.912 Y98.387 E30.7099
G1 X138.762 Y101.089 E30.83591
G1 X138.689 Y103.761 E30.96038
G1 X138.691 Y106.431 E31.0847
G1 X138.77 Y109.137 E31.21076
G1 X138.922 Y111.771 E31.33361
G1 X139.156 Y114.49 E31.46069
G1 X139.455 Y117.093 E31.58269
G1 X139.843 Y119.805 E31.71026
G1 X140.291 Y122.4 E31.83288
G1 X140.819 Y125.025 E31.95756
G1 X141.434 Y127.679 E32.08442
G1 X141.854 Y129.328 E32.16365
G1 X141.976 Y129.966 E32.1939
G1 X142.017 Y130.52 E32.21977
G1 X142.029 Y131.088 E32.24622
G1 X142.03 Y131.2 E32.25144
G1 X142.03 Y132.844 E32.32799
G1 X142.029 Y132.917 E32.33139
G1 X142.019 Y133.642 E32.36515
G1 X141.971 Y134.29 E32.39541
G1 X141.843 Y134.926 E32.42562
G1 X141.637 Y135.543 E32.4559
G1 X141.358 Y136.129 E32.48613
G1 X141.008 Y136.677 E32.5164
G1 X140.538 Y137.236 E32.55041
G1 X140.426 Y137.352 E32.55792
G1 X139.947 Y137.791 E32.58817
G1 X139.418 Y138.168 E32.61842
G1 X138.846 Y138.476 E32.64867
G1 X138.241 Y138.713 E32.67893
G1 X137.612 Y138.873 E32.70915
G1 X136.723 Y138.964 E32.75076
G1 X136.166 Y138.974 E32.7767
G1 X136.071 Y138.975 E32.78113
G1 X127.784 Y138.975 E33.167
G1 X127.708 Y138.974 E33.17054
G1 X127.289 Y138.968 E33.19005
G1 X124.526 Y138.968 E33.31871
G1 X123.897 Y138.975 E33.348
G1 X86.996 Y138.975 E35.06627
G1 X86.295 Y138.981 E35.09891
G1 X86.247 Y138.981 E35.10114
G1 X73.954 Y138.975 E35.67356
G1 X73.881 Y138.974 E35.67696
G1 X73.183 Y138.964 E35.70946
G1 X72.536 Y138.915 E35.73968
G1 X71.899 Y138.787 E35.76993
G1 X71.283 Y138.581 E35.80018
G1 X70.696 Y138.301 E35.83046
G1 X70.149 Y137.952 E35.86067
G1 X69.648 Y137.538 E35.89094
G1 X69.203 Y137.065 E35.92118
G1 X68.818 Y136.541 E35.95145
G1 X68.501 Y135.974 E35.9817
G1 X68.256 Y135.373 E36.01192
G1 X68.087 Y134.746 E36.04216
G1 X67.981 Y133.828 E36.08519
G1 X67.972 Y133.496 E36.10065
G1 X67.97 Y133.353 E36.10731
G1 X67.97 Y76.979 E38.73232
G1 X67.971 Y76.9 E38.736
G1 X67.981 Y76.235 E38.76697
G1 X68.03 Y75.587 E38.79723
G1 X68.159 Y74.95 E38.82749
G1 X68.365 Y74.334 E38.85774
G1 X68.645 Y73.748 E38.88798
G1 X68.995 Y73.201 E38.91822
G1 X69.41 Y72.701 E38.94848
M204 S3000
M205 X10 Y10
G1 F2400 E32.94848
G0 F3000 X86.36 Y75.644
G0 X90.53 Y76.585
M204 S1800
M205 X8 Y8
;TYPE:SUPPORT
G1 F2400 E38.94848
G1 F1500 X111.244 Y76.585 E39.91301
G1 X111.245 Y78.179 E39.98723
G1 X111.244 Y79.199 E40.03473
G1 X90.53 Y79.199 E40.99926
G1 X90.53 Y76.585 E41.12097
M204 S3000
M205 X10 Y10
G0 F3000 X90.75 Y76.931
M204 S1800
M205 X8 Y8
G1 F1500 X90.97 Y76.804 E41.1328
M204 S3000
M205 X10 Y10
G0 F3000 X96 Y76.805
M204 S1800
M205 X8 Y8
G1 F1500 X96 Y78.979 E41.23403
M204 S3000
M205 X10 Y10
G0 F3000 X101.03 Y76.804
M204 S1800
M205 X8 Y8
G1 F1500 X104.793 Y78.977 E41.43637
M204 S3000
M205 X10 Y10
G0 F3000 X104 Y78.979
M204 S1800
M205 X8 Y8
G1 F1500 X104 Y76.805 E41.5376
M204 S3000
M205 X10 Y10
G0 F3000 X103.205 Y78.978
M204 S1800
M205 X8 Y8
G1 F1500 X106.97 Y76.804 E41.74004
M204 S3000
M205 X10 Y10
G1 F2400 E35.74004
G0 F3000 X114.214 Y75.644
G0 X124.261 Y75.644
G0 X127.331 Y76.585
M204 S1800
M205 X8 Y8
G1 F2400 E41.74004
G1 F1500 X136.47 Y76.585 E42.16559
G1 X136.47 Y79.199 E42.28731
G1 X133.675 Y79.199 E42.41746
G1 X133.229 Y79.645 E42.44683
G1 X133.229 Y81.302 E42.52399
G1 X130.56 Y79.199 E42.68221
G1 X127.33 Y79.199 E42.83261
G1 X127.331 Y76.585 E42.95433
M204 S3000
M205 X10 Y10
G0 F3000 X128 Y76.805
M204 S1800
M205 X8 Y8
G1 F1500 X128 Y78.979 E43.05556
M204 S3000
M205 X10 Y10
G0 F3000 X132.566 Y80.501
M204 S1800
M205 X8 Y8
G1 F1500 X133.008 Y80.246 E43.07932
M204 S3000
M205 X10 Y10
G0 F3000 X135.204 Y78.978
M204 S1800
M205 X8 Y8
G1 F1500 X136.248 Y78.375 E43.13546
M204 S3000
M205 X10 Y10
G0 F3000 X136.25 Y78.664
M204 S1800
M205 X8 Y8
G1 F1500 X133.031 Y76.805 E43.30855
M204 S3000
M205 X10 Y10
G0 F3000 X136 Y76.805
M204 S1800
M205 X8 Y8
G1 F1500 X136 Y78.979 E43.40978
M204 S3000
M205 X10 Y10
G0 F3000 X133.229 Y128.698
M204 S1800
M205 X8 Y8
G1 F1500 X133.229 Y130.355 E43.48694
G1 X133.675 Y130.801 E43.51631
G1 X136.47 Y130.801 E43.64646
G1 X136.47 Y133.415 E43.76817
G1 X127.33 Y133.415 E44.19377
G1 X127.331 Y130.801 E44.31549
G1 X130.56 Y130.801 E44.46585
G1 X133.229 Y128.698 E44.62407
M204 S3000
M205 X10 Y10
G0 F3000 X130.762 Y130.921
M204 S1800
M205 X8 Y8
G1 F1500 X134.699 Y133.194 E44.83575
M204 S3000
M205 X10 Y10
G0 F3000 X136 Y133.195
M204 S1800
M205 X8 Y8
G1 F1500 X136 Y131.021 E44.93698
M204 S3000
M205 X10 Y10
G0 F3000 X128 Y131.021
M204 S1800
M205 X8 Y8
G1 F1500 X128 Y133.195 E45.03821
M204 S3000
M205 X10 Y10
G1 F2400 E39.03821
G0 F3000 X124.261 Y134.356
G0 X114.214 Y134.356
G0 X111.244 Y133.415
M204 S1800
M205 X8 Y8
G1 F2400 E45.03821
G1 F1500 X90.53 Y133.415 E46.00274
G1 X90.53 Y130.801 E46.12446
G1 X111.244 Y130.801 E47.08899
G1 X111.244 Y133.415 E47.21071
M204 S3000
M205 X10 Y10
G0 F3000 X109.066 Y131.02
M204 S1800
M205 X8 Y8
G1 F1500 X105.299 Y133.195 E47.41326
M204 S3000
M205 X10 Y10
G0 F3000 X104 Y133.195
M204 S1800
M205 X8 Y8
G1 F1500 X104 Y131.021 E47.51449
M204 S3000
M205 X10 Y10
G0 F3000 X102.699 Y133.194
M204 S1800
M205 X8 Y8
G1 F1500 X98.934 Y131.02 E47.71693
M204 S3000
M205 X10 Y10
G0 F3000 X96 Y131.021
M204 S1800
M205 X8 Y8
G1 F1500 X96 Y133.195 E47.81816
M204 S3000
M205 X10 Y10
G0 F3000 X93.065 Y131.02
M204 S1800
M205 X8 Y8
G1 F1500 X90.749 Y132.357 E47.94268
M204 S3000
M205 X10 Y10
G0 F3000 X90.05 Y133.495
M204 S1800
M205 X8 Y8
;TYPE:SUPPORT-INTERFACE
G1 F1500 X87.151 Y133.495 E48.07767
G1 X87.15 Y130.721 E48.20684
G1 X90.05 Y130.721 E48.34188
G1 X90.05 Y133.495 E48.47105
M204 S3000
M205 X10 Y10
G0 F3000 X111.724 Y133.495
M204 S1800
M205 X8 Y8
G1 F1500 X111.724 Y130.721 E48.60022
G1 X113.424 Y130.721 E48.67938
G1 X113.424 Y133.495 E48.80854
G1 X111.724 Y133.495 E48.8877
M204 S3000
M205 X10 Y10
G0 F3000 X111.724 Y79.279
M204 S1800
M205 X8 Y8
G1 F1500 X111.725 Y78.179 E48.93892
G1 X111.724 Y76.505 E49.01687
G1 X113.424 Y76.505 E49.09603
G1 X113.424 Y79.279 E49.2252
G1 X111.724 Y79.279 E49.30436
M204 S3000
M205 X10 Y10
G0 F3000 X90.05 Y79.279
M204 S1800
M205 X8 Y8
