;FLAVOR:Marlin
;TIME:16199
;Filament used: 15.7714m
;Layer height: 0.2
;MINX:63.083
;MINY:73.148
;MINZ:0.3
;MAXX:156.296
;MAXY:181.357
;MAXZ:85.7
;POSTPROCESSED
;ChangeAtZ instances: 1
;Generated with Cura_SteamEngine 4.5.0
M140 S80
M105
M190 S80
M104 S265
M105
M109 S265
M82 ;absolute extrusion mode
G21 ;metric values
G90 ;absolute positioning
M82 ;set extruder to absolute mode
M107 ;start with the fan off
G28 X0 Y0 ;move X/Y to min endstops
G28 Z0 ;move Z to min endstops
G1 Z15.0 F250 ;move the platform down 15mm
G92 E0 ;zero the extruded length
G1 F200 E3 ;extrude 3mm of feed stock
G92 E0 ;zero the extruded length again
G1 F250
G0 Y20 F250
M117 Printing...
G5
G92 E0
G92 E0
G1 F2700 E-6
;LAYER_COUNT:428
;LAYER:0
M107
G0 F4800 X81.783 Y75.35 Z0.3
;TYPE:SKIRT
G1 F2700 E0
G1 F1200 X82.314 Y74.837 E0.04549
G1 X82.897 Y74.384 E0.09098
G1 X83.526 Y73.997 E0.13649
G1 X84.193 Y73.681 E0.18196
G1 X84.89 Y73.438 E0.22744
G1 X85.61 Y73.272 E0.27297
G1 X86.343 Y73.185 E0.31845
G1 X87.081 Y73.178 E0.36392
G1 X87.739 Y73.239 E0.40464
G1 X88.555 Y73.355 E0.45542
G1 X91.195 Y73.691 E0.61939
G1 X93.828 Y73.95 E0.78241
G1 X96.452 Y74.134 E0.94448
G1 X99.094 Y74.243 E1.10741
G1 X101.719 Y74.279 E1.26916
G1 X104.332 Y74.24 E1.43017
G1 X106.991 Y74.124 E1.59416
G1 X109.633 Y73.935 E1.75736
G1 X112.252 Y73.673 E1.91954
G1 X115.156 Y73.296 E2.09997
G1 X116.183 Y73.186 E2.16361
G1 X116.92 Y73.148 E2.20908
G1 X117.863 Y73.198 E2.26726
G1 X118.552 Y73.247 E2.30982
G1 X120.672 Y73.448 E2.44103
G1 X121.293 Y73.494 E2.4794
G1 X122.348 Y73.629 E2.54493
G1 X123.073 Y73.772 E2.59046
G1 X123.777 Y73.992 E2.63591
G1 X124.579 Y74.333 E2.6896
G1 X125.238 Y74.666 E2.7351
G1 X125.825 Y75.044 E2.77811
G1 X126.761 Y75.767 E2.85099
G1 X127.179 Y76.177 E2.88706
G1 X127.546 Y76.569 E2.92015
G1 X128.02 Y77.134 E2.96559
G1 X128.308 Y77.548 E2.99666
G1 X128.993 Y78.757 E3.08228
G1 X129.26 Y79.353 E3.12252
G1 X129.589 Y80.252 E3.1815
G1 X129.771 Y80.884 E3.22203
G1 X130.539 Y83.507 E3.39042
G1 X131.354 Y86.028 E3.55367
G1 X132.216 Y88.448 E3.71195
G1 X133.186 Y90.951 E3.87735
G1 X134.201 Y93.367 E4.03881
G1 X135.296 Y95.778 E4.20197
G1 X136.461 Y98.161 E4.3654
G1 X137.669 Y100.464 E4.52564
G1 X138.983 Y102.808 E4.69121
G1 X140.313 Y105.028 E4.85066
G1 X141.736 Y107.26 E5.01375
G1 X143.214 Y109.439 E5.17598
G1 X144.771 Y111.598 E5.33999
G1 X146.359 Y113.676 E5.50113
G1 X148.016 Y115.722 E5.66335
G1 X149.728 Y117.716 E5.82528
G1 X151.495 Y119.661 E5.98719
G1 X154.288 Y122.53 E6.2339
G1 X154.782 Y123.079 E6.2794
G1 X155.212 Y123.679 E6.32488
G1 X155.576 Y124.322 E6.37041
G1 X155.868 Y125 E6.41589
G1 X156.084 Y125.706 E6.46138
G1 X156.224 Y126.431 E6.50688
G1 X156.283 Y127.142 E6.55084
G1 X156.296 Y127.677 E6.58381
G1 X156.296 Y173.601 E9.41339
G1 X156.286 Y174.412 E9.46336
G1 X156.237 Y175.149 E9.50887
G1 X156.109 Y175.876 E9.55436
G1 X155.903 Y176.585 E9.59985
G1 X155.621 Y177.268 E9.64538
G1 X155.267 Y177.916 E9.69087
G1 X154.845 Y178.522 E9.73637
G1 X154.36 Y179.079 E9.78188
G1 X153.818 Y179.58 E9.82735
G1 X153.225 Y180.019 E9.87281
G1 X152.587 Y180.392 E9.91835
G1 X151.914 Y180.694 E9.9638
G1 X151.211 Y180.921 E10.00932
G1 X150.488 Y181.071 E10.05481
G1 X149.658 Y181.145 E10.10615
G1 X149.146 Y181.157 E10.13771
G1 X78.938 Y181.157 E14.46353
G1 X76.296 Y181.194 E14.62633
G1 X74.092 Y181.282 E14.76224
G1 X73.213 Y181.327 E14.81647
G1 X71.84 Y181.356 E14.90109
G1 X70.844 Y181.357 E14.96245
G1 X70.044 Y181.346 E15.01175
G1 X69.307 Y181.296 E15.05726
G1 X68.58 Y181.166 E15.10277
G1 X67.872 Y180.958 E15.14824
G1 X67.19 Y180.675 E15.19373
G1 X66.542 Y180.32 E15.23926
G1 X65.937 Y179.897 E15.28474
G1 X65.319 Y179.349 E15.33563
G1 X64.6 Y178.575 E15.40072
G1 X64.17 Y177.975 E15.4462
G1 X63.806 Y177.332 E15.49173
G1 X63.514 Y176.654 E15.53721
G1 X63.298 Y175.948 E15.5827
G1 X63.158 Y175.223 E15.6282
G1 X63.098 Y174.451 E15.67591
G1 X63.085 Y173.856 E15.71258
G1 X63.083 Y128.073 E18.53347
G1 X63.094 Y127.29 E18.58172
G1 X63.144 Y126.554 E18.62717
G1 X63.275 Y125.827 E18.67269
G1 X63.482 Y125.118 E18.7182
G1 X63.766 Y124.436 E18.76372
G1 X64.195 Y123.674 E18.81759
G1 X64.789 Y122.76 E18.88476
G1 X66.468 Y120.144 E19.07628
G1 X67.813 Y117.893 E19.23785
G1 X69.11 Y115.575 E19.40151
G1 X70.317 Y113.268 E19.56193
G1 X71.483 Y110.878 E19.72578
G1 X72.566 Y108.485 E19.88762
G1 X73.594 Y106.035 E20.05133
G1 X74.549 Y103.565 E20.21449
G1 X75.42 Y101.105 E20.37529
G1 X76.219 Y98.627 E20.53571
G1 X76.967 Y96.065 E20.70015
G1 X77.631 Y93.528 E20.86173
G1 X78.23 Y90.937 E21.02559
G1 X78.755 Y88.34 E21.18884
G1 X79.192 Y85.801 E21.34758
G1 X79.571 Y83.159 E21.51203
G1 X79.888 Y80.381 E21.6843
G1 X79.993 Y79.32 E21.75
G1 X80.105 Y78.591 E21.79544
G1 X80.296 Y77.877 E21.84098
G1 X80.562 Y77.189 E21.88643
G1 X80.902 Y76.533 E21.93195
G1 X81.31 Y75.918 E21.97743
G1 X81.783 Y75.35 E22.02297
G0 F4800 X82.278 Y75.584
G1 F1200 X82.802 Y75.106 E22.06667
G1 X83.377 Y74.689 E22.11043
G1 X83.995 Y74.34 E22.15416
G1 X84.648 Y74.063 E22.19787
G1 X85.328 Y73.861 E22.24158
G1 X86.027 Y73.736 E22.28533
G1 X86.735 Y73.691 E22.32904
G1 X87.666 Y73.754 E22.38653
G1 X88.427 Y73.862 E22.43389
G1 X91.147 Y74.208 E22.60283
G1 X93.777 Y74.467 E22.76566
G1 X96.427 Y74.653 E22.92934
G1 X99.103 Y74.764 E23.09436
G1 X101.719 Y74.799 E23.25556
G1 X104.362 Y74.759 E23.41843
G1 X107.015 Y74.644 E23.58204
G1 X109.653 Y74.455 E23.745
G1 X112.302 Y74.19 E23.90903
G1 X115.223 Y73.811 E24.09052
G1 X116.237 Y73.703 E24.15335
G1 X116.946 Y73.668 E24.19708
G1 X117.817 Y73.716 E24.25083
G1 X118.503 Y73.765 E24.29321
G1 X120.632 Y73.967 E24.42497
G1 X121.255 Y74.013 E24.46346
G1 X122.275 Y74.143 E24.52682
G1 X122.971 Y74.283 E24.57056
G1 X123.921 Y74.612 E24.6325
G1 X125.003 Y75.13 E24.70642
G1 X125.521 Y75.466 E24.74446
G1 X126.433 Y76.172 E24.81552
G1 X126.799 Y76.532 E24.84715
G1 X127.166 Y76.924 E24.88024
G1 X127.621 Y77.469 E24.92398
G1 X128.072 Y78.144 E24.974
G1 X128.518 Y78.969 E25.03179
G1 X128.785 Y79.565 E25.07203
G1 X129.089 Y80.396 E25.12655
G1 X129.272 Y81.03 E25.1672
G1 X130.045 Y83.67 E25.3367
G1 X130.859 Y86.188 E25.49975
G1 X131.738 Y88.654 E25.66105
G1 X132.695 Y91.122 E25.82415
G1 X133.738 Y93.608 E25.99026
G1 X134.827 Y96.003 E26.15236
G1 X135.99 Y98.384 E26.31563
G1 X137.22 Y100.729 E26.47878
G1 X138.517 Y103.042 E26.64218
G1 X139.887 Y105.329 E26.80644
G1 X141.299 Y107.544 E26.96828
G1 X142.778 Y109.722 E27.1305
G1 X144.352 Y111.906 E27.29637
G1 X145.945 Y113.99 E27.45799
G1 X147.62 Y116.058 E27.62196
G1 X149.331 Y118.053 E27.7839
G1 X151.12 Y120.022 E27.94781
G1 X153.882 Y122.858 E28.19173
G1 X154.394 Y123.426 E28.23884
G1 X154.804 Y124.006 E28.28261
G1 X155.146 Y124.627 E28.32629
G1 X155.417 Y125.283 E28.37002
G1 X155.612 Y125.966 E28.41378
G1 X155.728 Y126.665 E28.45744
G1 X155.773 Y127.483 E28.50792
G1 X155.776 Y173.679 E31.35426
G1 X155.767 Y174.406 E31.39905
G1 X155.718 Y175.114 E31.44278
G1 X155.59 Y175.812 E31.48651
G1 X155.384 Y176.491 E31.53023
G1 X155.103 Y177.143 E31.57397
G1 X154.751 Y177.759 E31.61768
G1 X154.331 Y178.331 E31.66141
G1 X153.85 Y178.853 E31.70514
G1 X153.314 Y179.317 E31.74882
G1 X152.728 Y179.718 E31.79257
G1 X152.101 Y180.051 E31.83632
G1 X151.441 Y180.311 E31.88002
G1 X150.756 Y180.495 E31.92373
G1 X150.054 Y180.601 E31.96747
G1 X149.323 Y180.635 E32.01256
G1 X78.931 Y180.637 E36.34972
G1 X76.268 Y180.675 E36.51382
G1 X74.131 Y180.76 E36.64559
G1 X73.186 Y180.808 E36.70389
G1 X71.83 Y180.836 E36.78746
G1 X70.844 Y180.837 E36.84821
G1 X70.051 Y180.826 E36.89707
G1 X69.344 Y180.776 E36.94074
G1 X68.646 Y180.647 E36.98448
G1 X67.967 Y180.44 E37.02822
G1 X67.316 Y180.158 E37.07193
G1 X66.7 Y179.805 E37.11567
G1 X66.129 Y179.384 E37.15938
G1 X65.686 Y178.982 E37.19624
G1 X64.988 Y178.228 E37.25955
G1 X64.578 Y177.648 E37.30331
G1 X64.236 Y177.027 E37.34699
G1 X63.965 Y176.371 E37.39073
G1 X63.77 Y175.688 E37.43449
G1 X63.654 Y174.989 E37.47815
G1 X63.618 Y174.44 E37.51205
G1 X63.605 Y173.845 E37.54872
G1 X63.603 Y128.073 E40.36893
G1 X63.614 Y127.298 E40.41669
G1 X63.664 Y126.59 E40.46042
G1 X63.794 Y125.892 E40.50417
G1 X64.001 Y125.213 E40.5479
G1 X64.283 Y124.562 E40.59162
G1 X64.631 Y123.957 E40.63462
G1 X65.225 Y123.043 E40.70178
G1 X66.895 Y120.443 E40.89218
G1 X68.27 Y118.141 E41.05739
G1 X69.567 Y115.824 E41.221
G1 X70.788 Y113.491 E41.38324
G1 X71.953 Y111.103 E41.54695
G1 X73.042 Y108.696 E41.70973
G1 X74.074 Y106.237 E41.87404
G1 X75.03 Y103.763 E42.03746
G1 X75.904 Y101.295 E42.19878
G1 X76.726 Y98.746 E42.3638
G1 X77.469 Y96.2 E42.52721
G1 X78.138 Y93.643 E42.69006
G1 X78.732 Y91.076 E42.8524
G1 X79.266 Y88.436 E43.01836
G1 X79.71 Y85.854 E43.17978
G1 X80.088 Y83.224 E43.3435
G1 X80.41 Y80.396 E43.51887
G1 X80.511 Y79.371 E43.58233
G1 X80.62 Y78.67 E43.62604
G1 X80.808 Y77.986 E43.66975
G1 X81.071 Y77.327 E43.71346
G1 X81.407 Y76.702 E43.75718
G1 X81.811 Y76.118 E43.80094
G1 X82.278 Y75.584 E43.84465
G0 F4800 X82.772 Y75.827
G1 F1200 X83.288 Y75.385 E43.88651
G1 X83.853 Y75.007 E43.92839
G1 X84.458 Y74.698 E43.97025
G1 X85.096 Y74.462 E44.01216
G1 X85.757 Y74.302 E44.05407
G1 X86.432 Y74.222 E44.09595
G1 X87.111 Y74.22 E44.13779
G1 X91.099 Y74.726 E44.38547
G1 X93.724 Y74.985 E44.548
G1 X96.405 Y75.173 E44.71359
G1 X99.073 Y75.283 E44.87812
G1 X101.72 Y75.319 E45.04123
G1 X104.358 Y75.28 E45.20378
G1 X107.074 Y75.161 E45.37129
G1 X109.708 Y74.973 E45.53399
G1 X112.352 Y74.708 E45.69772
G1 X115.29 Y74.327 E45.88026
G1 X116.292 Y74.22 E45.94234
G1 X117.271 Y74.2 E46.00268
G1 X118.134 Y74.261 E46.05598
G1 X120.595 Y74.486 E46.20825
G1 X121.216 Y74.532 E46.24662
G1 X122.202 Y74.658 E46.30786
G1 X122.868 Y74.793 E46.34973
G1 X123.712 Y75.088 E46.40482
G1 X124.767 Y75.594 E46.47691
G1 X125.217 Y75.888 E46.51003
G1 X126.105 Y76.577 E46.57928
G1 X126.786 Y77.28 E46.63959
G1 X127.221 Y77.802 E46.68146
G1 X127.635 Y78.425 E46.72754
G1 X128.044 Y79.182 E46.78056
G1 X128.311 Y79.778 E46.8208
G1 X128.59 Y80.54 E46.8708
G1 X128.773 Y81.176 E46.91157
G1 X129.541 Y83.801 E47.08009
G1 X130.368 Y86.358 E47.24567
G1 X131.26 Y88.862 E47.40945
G1 X132.215 Y91.324 E47.57216
G1 X133.251 Y93.79 E47.73697
G1 X134.365 Y96.243 E47.90296
G1 X135.521 Y98.608 E48.06516
G1 X136.77 Y100.991 E48.23093
G1 X138.06 Y103.291 E48.39341
G1 X139.436 Y105.587 E48.55833
G1 X140.874 Y107.843 E48.72317
G1 X142.358 Y110.03 E48.88602
G1 X143.933 Y112.214 E49.05193
G1 X145.53 Y114.304 E49.21399
G1 X147.237 Y116.412 E49.38112
G1 X148.936 Y118.391 E49.54182
G1 X150.745 Y120.382 E49.70757
G1 X153.492 Y123.204 E49.95022
G1 X154.005 Y123.773 E49.99743
G1 X154.393 Y124.331 E50.0393
G1 X154.714 Y124.93 E50.08118
G1 X154.962 Y125.563 E50.12306
G1 X155.134 Y126.22 E50.16491
G1 X155.243 Y127.174 E50.22407
G1 X155.256 Y127.677 E50.25507
G1 X155.256 Y173.673 E53.08909
G1 X155.247 Y174.4 E53.13389
G1 X155.198 Y175.078 E53.17577
G1 X155.071 Y175.745 E53.21761
G1 X154.865 Y176.393 E53.2595
G1 X154.586 Y177.013 E53.30139
G1 X154.235 Y177.595 E53.34327
G1 X153.819 Y178.132 E53.38512
G1 X153.342 Y178.617 E53.42704
G1 X152.812 Y179.042 E53.46889
G1 X152.235 Y179.402 E53.5108
G1 X151.62 Y179.692 E53.55269
G1 X150.976 Y179.908 E53.59454
G1 X150.31 Y180.046 E53.63645
G1 X149.629 Y180.106 E53.67857
G1 X78.924 Y180.117 E58.03502
G1 X76.241 Y180.155 E58.20035
G1 X74.084 Y180.241 E58.33335
G1 X73.16 Y180.288 E58.39036
G1 X71.821 Y180.316 E58.47288
G1 X70.844 Y180.317 E58.53308
G1 X70.059 Y180.306 E58.58145
G1 X69.381 Y180.257 E58.62333
G1 X68.714 Y180.128 E58.66519
G1 X68.066 Y179.922 E58.70709
G1 X67.447 Y179.641 E58.74897
G1 X66.865 Y179.289 E58.79088
G1 X66.329 Y178.872 E58.83272
G1 X65.829 Y178.389 E58.87556
G1 X65.377 Y177.881 E58.91745
G1 X64.989 Y177.323 E58.95933
G1 X64.668 Y176.724 E59.0012
G1 X64.42 Y176.091 E59.04309
G1 X64.248 Y175.434 E59.08493
G1 X64.137 Y174.428 E59.14729
G1 X64.124 Y173.833 E59.18396
G1 X64.123 Y128.073 E62.00344
G1 X64.134 Y127.305 E62.05076
G1 X64.184 Y126.628 E62.09259
G1 X64.313 Y125.96 E62.13451
G1 X64.519 Y125.313 E62.17634
G1 X64.8 Y124.694 E62.21823
G1 X65.067 Y124.24 E62.25068
G1 X65.661 Y123.326 E62.31784
G1 X67.346 Y120.701 E62.51004
G1 X68.728 Y118.389 E62.676
G1 X70.009 Y116.1 E62.83762
G1 X71.257 Y113.713 E63.00358
G1 X72.415 Y111.34 E63.16627
G1 X73.522 Y108.894 E63.3317
G1 X74.56 Y106.42 E63.497
G1 X75.52 Y103.938 E63.66097
G1 X76.399 Y101.453 E63.82338
G1 X77.22 Y98.909 E63.98809
G1 X77.969 Y96.343 E64.15279
G1 X78.654 Y93.723 E64.31964
G1 X79.24 Y91.187 E64.48001
G1 X79.779 Y88.525 E64.64736
G1 X80.223 Y85.942 E64.80884
G1 X80.599 Y83.322 E64.97193
G1 X80.928 Y80.439 E65.15071
G1 X81.028 Y79.423 E65.21362
G1 X81.135 Y78.751 E65.25554
G1 X81.319 Y78.097 E65.2974
G1 X81.579 Y77.469 E65.33928
G1 X81.911 Y76.876 E65.38116
G1 X82.311 Y76.326 E65.42306
G1 X82.772 Y75.827 E65.46492
G0 F4800 X82.809 Y76.542
G1 F1200 X83.264 Y76.079 E65.50491
G1 X83.772 Y75.676 E65.54487
G1 X84.325 Y75.339 E65.58477
G1 X84.916 Y75.072 E65.62473
G1 X85.536 Y74.88 E65.66472
G1 X86.174 Y74.766 E65.70465
G1 X86.821 Y74.731 E65.74457
G1 X87.52 Y74.783 E65.78776
G1 X88.35 Y74.901 E65.83941
G1 X91.021 Y75.241 E66.00531
G1 X93.709 Y75.505 E66.17173
G1 X96.38 Y75.693 E66.33671
G1 X99.01 Y75.802 E66.49889
G1 X101.756 Y75.838 E66.6681
G1 X104.387 Y75.799 E66.83023
G1 X107.063 Y75.683 E66.99526
G1 X109.762 Y75.49 E67.16198
G1 X112.436 Y75.222 E67.32757
G1 X115.357 Y74.843 E67.50905
G1 X116.346 Y74.737 E67.57034
G1 X117.237 Y74.719 E67.62525
G1 X118.113 Y74.781 E67.67935
G1 X120.508 Y75.001 E67.82754
G1 X121.178 Y75.05 E67.86893
G1 X122.129 Y75.173 E67.92802
G1 X122.764 Y75.304 E67.96797
G1 X123.503 Y75.564 E68.01624
G1 X124.529 Y76.058 E68.0864
G1 X125.274 Y76.57 E68.1421
G1 X125.776 Y76.98 E68.18203
G1 X126.407 Y77.635 E68.23807
G1 X126.995 Y78.391 E68.29708
G1 X127.569 Y79.395 E68.36834
G1 X127.836 Y79.991 E68.40858
G1 X128.09 Y80.684 E68.45405
G1 X128.274 Y81.322 E68.49497
G1 X129.047 Y83.964 E68.66458
G1 X129.873 Y86.518 E68.82996
G1 X130.775 Y89.05 E68.99557
G1 X131.729 Y91.509 E69.15809
G1 X132.761 Y93.968 E69.3224
G1 X133.897 Y96.468 E69.49159
G1 X135.065 Y98.859 E69.65555
G1 X136.299 Y101.212 E69.81926
G1 X137.619 Y103.565 E69.98549
G1 X139.01 Y105.887 E70.15227
G1 X140.422 Y108.102 E70.31411
G1 X141.938 Y110.337 E70.48051
G1 X143.501 Y112.505 E70.64519
G1 X145.129 Y114.635 E70.81037
G1 X146.838 Y116.745 E70.97767
G1 X148.559 Y118.75 E71.14048
G1 X150.355 Y120.726 E71.305
G1 X153.162 Y123.61 E71.55297
G1 X153.615 Y124.118 E71.59491
G1 X153.981 Y124.653 E71.63485
G1 X154.279 Y125.229 E71.6748
G1 X154.503 Y125.838 E71.71478
G1 X154.651 Y126.469 E71.75472
G1 X154.724 Y127.19 E71.79937
G1 X154.736 Y173.666 E74.66296
G1 X154.727 Y174.393 E74.70776
G1 X154.679 Y175.04 E74.74773
G1 X154.551 Y175.676 E74.7877
G1 X154.347 Y176.291 E74.82763
G1 X154.068 Y176.876 E74.86756
G1 X153.72 Y177.423 E74.90751
G1 X153.307 Y177.923 E74.94746
G1 X152.835 Y178.368 E74.98743
G1 X152.313 Y178.752 E75.02736
G1 X151.747 Y179.068 E75.0673
G1 X151.146 Y179.313 E75.10729
G1 X150.52 Y179.481 E75.14723
G1 X149.614 Y179.586 E75.20342
G1 X78.916 Y179.597 E79.55944
G1 X76.251 Y179.635 E79.72366
G1 X74.036 Y179.723 E79.86024
G1 X73.133 Y179.769 E79.91595
G1 X71.811 Y179.796 E79.99742
G1 X70.844 Y179.797 E80.057
G1 X70.066 Y179.786 E80.10494
G1 X69.42 Y179.737 E80.14486
G1 X68.784 Y179.609 E80.18483
G1 X68.169 Y179.403 E80.2248
G1 X67.584 Y179.124 E80.26473
G1 X67.038 Y178.774 E80.30469
G1 X66.422 Y178.246 E80.35468
G1 X65.767 Y177.536 E80.4142
G1 X65.401 Y177.001 E80.45414
G1 X65.103 Y176.425 E80.49409
G1 X64.879 Y175.816 E80.53407
G1 X64.731 Y175.185 E80.57401
G1 X64.657 Y174.417 E80.62155
