;FLAVOR:Marlin
;TIME:128
;Filament used: 0.0682084m
;Layer height: 0.2
;MINX:97.517
;MINY:97.516
;MINZ:0.2
;MAXX:112.498
;MAXY:112.497
;MAXZ:10
;POSTPROCESSED
;ChangeAtZ instances: 1
;Generated with Cura_SteamEngine 4.5.0
M140 S80
M105
M190 S80
M104 S220
M105
M109 S220
M82 ;absolute extrusion mode
G21 ;metric values
G90 ;absolute positioning
M82 ;set extruder to absolute mode
M107 ;start with the fan off
G28 X0 Y0 ;move X/Y to min endstops
G28 Z0 ;move Z to min endstops
G1 Z15.0 F100 ;move the platform down 15mm
G92 E0 ;zero the extruded length
G1 F200 E3 ;extrude 3mm of feed stock
G92 E0 ;zero the extruded length again
G1 F100
G0 Y20 F100
M117 Printing...
G5
G92 E0
G92 E0
G1 F2400 E-6
;LAYER_COUNT:50
;LAYER:0
M106 S255
G1 F600 Z0.275
G0 F3000 X99.733 Y99.68 Z0.275
;TYPE:SKIRT
G1 F600 Z0.2
G1 F2400 E0
G1 X100.154 Y99.282 E0.02563
G1 X100.99 Y98.679 E0.07123
G1 X101.485 Y98.379 E0.09683
G1 X102.417 Y97.972 E0.14182
G1 X102.965 Y97.784 E0.16745
G1 X103.974 Y97.583 E0.21296
G1 X104.55 Y97.516 E0.23861
G1 X105.58 Y97.535 E0.28418
G1 X106.156 Y97.592 E0.30978
G1 X107.145 Y97.825 E0.35473
G1 X107.697 Y98.004 E0.3804
G1 X108.63 Y98.451 E0.42617
G1 X109.131 Y98.743 E0.45182
G1 X109.939 Y99.372 E0.49711
G1 X110.485 Y99.894 E0.53053
G1 X110.82 Y100.278 E0.55307
G1 X111.273 Y100.905 E0.58729
G1 X111.608 Y101.473 E0.61646
G1 X111.965 Y102.251 E0.65432
G1 X112.195 Y102.925 E0.68583
G1 X112.344 Y103.484 E0.71142
G1 X112.472 Y104.505 E0.75694
G1 X112.498 Y105.084 E0.78258
G1 X112.408 Y106.097 E0.82756
G1 X112.311 Y106.668 E0.85318
G1 X111.997 Y107.666 E0.89947
G1 X111.706 Y108.346 E0.93218
G1 X111.472 Y108.781 E0.95403
G1 X111.033 Y109.439 E0.98903
G1 X110.604 Y109.967 E1.01912
G1 X110.111 Y110.479 E1.05056
G1 X109.733 Y110.81 E1.07279
G1 X109.106 Y111.264 E1.10703
G1 X108.532 Y111.604 E1.13654
G1 X108.015 Y111.864 E1.16214
G1 X107.069 Y112.196 E1.20649
G1 X106.509 Y112.344 E1.23211
G1 X105.492 Y112.471 E1.27745
G1 X104.914 Y112.497 E1.30304
G1 X103.902 Y112.407 E1.34799
G1 X103.331 Y112.31 E1.37361
G1 X102.338 Y111.997 E1.41967
G1 X101.801 Y111.779 E1.4453
G1 X100.913 Y111.272 E1.49054
G1 X100.435 Y110.945 E1.51616
G1 X99.681 Y110.268 E1.56098
G1 X99.283 Y109.847 E1.58661
G1 X98.68 Y109.012 E1.63217
G1 X98.38 Y108.516 E1.65781
G1 X97.972 Y107.581 E1.70294
G1 X97.784 Y107.033 E1.72857
G1 X97.584 Y106.03 E1.77381
G1 X97.517 Y105.455 E1.79942
G1 X97.583 Y104.044 E1.8619
G1 X97.661 Y103.47 E1.88753
G1 X98.001 Y102.345 E1.93952
G1 X98.218 Y101.808 E1.96514
G1 X98.729 Y100.912 E2.01077
G1 X99.056 Y100.434 E2.03639
G1 X99.733 Y99.68 E2.08121
G0 F3000 X100.146 Y100.059
G1 F2400 X100.732 Y99.545 E2.11569
G1 X101.312 Y99.137 E2.14706
G1 X101.989 Y98.761 E2.18132
G1 X102.635 Y98.488 E2.21234
G1 X103.385 Y98.263 E2.24698
G1 X104.077 Y98.134 E2.27812
G1 X104.851 Y98.074 E2.31246
G1 X105.563 Y98.095 E2.34397
G1 X106.335 Y98.201 E2.37844
G1 X107.01 Y98.369 E2.40921
G1 X107.743 Y98.637 E2.44373
G1 X108.383 Y98.953 E2.47531
G1 X109.041 Y99.372 E2.50982
G1 X109.59 Y99.81 E2.54088
G1 X110.063 Y100.262 E2.56982
G1 X110.398 Y100.646 E2.59237
G1 X110.79 Y101.19 E2.62203
G1 X111.125 Y101.758 E2.6512
G1 X111.435 Y102.431 E2.68398
G1 X111.665 Y103.105 E2.71548
G1 X111.837 Y103.871 E2.75021
G1 X111.916 Y104.568 E2.78124
G1 X111.921 Y105.339 E2.81534
G1 X111.851 Y106.041 E2.84655
G1 X111.687 Y106.816 E2.88159
G1 X111.465 Y107.492 E2.91307
G1 X111.213 Y108.08 E2.94137
G1 X110.979 Y108.515 E2.96322
G1 X110.598 Y109.086 E2.99358
G1 X110.169 Y109.614 E3.02368
G1 X109.742 Y110.057 E3.05089
G1 X109.364 Y110.388 E3.07312
G1 X108.821 Y110.782 E3.1028
G1 X108.247 Y111.122 E3.13231
G1 X107.563 Y111.437 E3.16562
G1 X106.889 Y111.666 E3.19711
G1 X106.127 Y111.836 E3.23165
G1 X105.429 Y111.915 E3.26272
G1 X104.657 Y111.92 E3.29687
G1 X103.958 Y111.85 E3.32795
G1 X103.185 Y111.686 E3.3629
G1 X102.512 Y111.465 E3.39424
G1 X101.805 Y111.146 E3.42855
G1 X101.197 Y110.789 E3.45974
G1 X100.577 Y110.33 E3.49386
G1 X100.06 Y109.855 E3.52492
G1 X99.547 Y109.27 E3.55934
G1 X99.138 Y108.689 E3.59077
G1 X98.76 Y108.008 E3.62522
G1 X98.488 Y107.363 E3.65619
G1 X98.264 Y106.62 E3.69052
G1 X98.134 Y105.927 E3.72171
G1 X98.075 Y105.391 E3.74556
G1 X98.142 Y104.081 E3.80359
G1 X98.217 Y103.547 E3.82744
G1 X98.533 Y102.519 E3.87501
G1 X98.855 Y101.804 E3.9097
G1 X99.212 Y101.196 E3.94089
G1 X99.671 Y100.576 E3.97502
G1 X100.146 Y100.059 E4.00607
G0 F3000 X100.558 Y100.438
G1 F2400 X101.054 Y100.003 E4.03526
G1 X101.634 Y99.595 E4.06663
G1 X102.207 Y99.277 E4.09561
G1 X102.853 Y99.004 E4.12664
G1 X103.488 Y98.813 E4.15597
G1 X104.18 Y98.684 E4.18711
G1 X104.835 Y98.633 E4.21617
G1 X105.547 Y98.654 E4.24768
G1 X106.2 Y98.744 E4.27684
G1 X106.875 Y98.912 E4.30761
G1 X107.495 Y99.139 E4.33682
G1 X108.135 Y99.455 E4.36839
G1 X108.692 Y99.809 E4.39759
G1 X109.241 Y100.247 E4.42865
G1 X109.641 Y100.63 E4.45315
G1 X109.976 Y101.014 E4.47569
G1 X110.308 Y101.474 E4.50079
G1 X110.643 Y102.042 E4.52996
G1 X110.905 Y102.612 E4.55771
G1 X111.135 Y103.286 E4.58921
G1 X111.28 Y103.934 E4.61859
G1 X111.359 Y104.631 E4.64962
G1 X111.364 Y105.284 E4.6785
G1 X111.294 Y105.986 E4.70971
G1 X111.155 Y106.641 E4.73933
G1 X110.933 Y107.317 E4.77081
G1 X110.719 Y107.815 E4.79478
G1 X110.485 Y108.25 E4.81663
G1 X110.163 Y108.733 E4.84231
G1 X109.734 Y109.261 E4.87241
G1 X109.373 Y109.636 E4.89543
G1 X108.995 Y109.967 E4.91766
G1 X108.536 Y110.3 E4.94274
G1 X107.962 Y110.64 E4.97225
G1 X107.383 Y110.906 E5.00044
G1 X106.709 Y111.135 E5.03193
G1 X106.064 Y111.279 E5.06116
G1 X105.366 Y111.358 E5.09224
G1 X104.713 Y111.363 E5.12112
G1 X104.014 Y111.293 E5.1522
G1 X103.36 Y111.154 E5.18178
G1 X102.687 Y110.933 E5.21311
G1 X102.088 Y110.663 E5.24218
G1 X101.48 Y110.306 E5.27337
G1 X100.956 Y109.918 E5.30221
G1 X100.439 Y109.443 E5.33327
G1 X100.004 Y108.948 E5.36242
G1 X99.595 Y108.367 E5.39385
G1 X99.276 Y107.791 E5.42297
G1 X99.004 Y107.146 E5.45394
G1 X98.815 Y106.517 E5.48299
G1 X98.685 Y105.824 E5.51418
G1 X98.639 Y105.052 E5.54839
G1 X98.701 Y104.118 E5.5898
G1 X98.846 Y103.368 E5.62359
G1 X99.066 Y102.693 E5.655
G1 X99.338 Y102.087 E5.68438
G1 X99.695 Y101.479 E5.71557
G1 X100.083 Y100.955 E5.74441
G1 X100.558 Y100.438 E5.77547
G0 F3000 X100.97 Y100.817
G1 F2400 X101.376 Y100.461 E5.79936
G1 X101.956 Y100.053 E5.83072
G1 X102.425 Y99.793 E5.85445
G1 X103.071 Y99.52 E5.88547
G1 X103.59 Y99.364 E5.90944
G1 X104.282 Y99.235 E5.94058
G1 X104.818 Y99.193 E5.96436
G1 X105.53 Y99.214 E5.99587
G1 X106.065 Y99.288 E6.01977
G1 X106.74 Y99.456 E6.05054
G1 X107.247 Y99.641 E6.07441
G1 X107.887 Y99.957 E6.10598
G1 X108.343 Y100.247 E6.12989
G1 X108.892 Y100.685 E6.16096
G1 X109.554 Y101.382 E6.20348
G1 X109.826 Y101.759 E6.22404
G1 X110.161 Y102.327 E6.25321
G1 X110.375 Y102.793 E6.2759
G1 X110.605 Y103.467 E6.3074
G1 X110.724 Y103.997 E6.33143
G1 X110.803 Y104.694 E6.36246
G1 X110.807 Y105.228 E6.38608
G1 X110.737 Y105.93 E6.41729
G1 X110.623 Y106.466 E6.44153
G1 X110.401 Y107.142 E6.47301
G1 X109.992 Y107.985 E6.51445
G1 X109.729 Y108.38 E6.53545
G1 X109.3 Y108.908 E6.56554
G1 X108.626 Y109.546 E6.60659
G1 X108.25 Y109.818 E6.62712
G1 X107.676 Y110.158 E6.65663
G1 X107.203 Y110.376 E6.67967
G1 X106.529 Y110.605 E6.71116
G1 X106.001 Y110.723 E6.7351
G1 X105.303 Y110.802 E6.76617
G1 X104.769 Y110.805 E6.78979
G1 X104.07 Y110.735 E6.82087
G1 X103.535 Y110.622 E6.84506
G1 X102.862 Y110.401 E6.87639
G1 X102.372 Y110.18 E6.90017
G1 X101.764 Y109.823 E6.93136
G1 X101.335 Y109.506 E6.95495
G1 X100.818 Y109.031 E6.98601
G1 X100.462 Y108.626 E7.00986
G1 X100.053 Y108.045 E7.04129
G1 X99.792 Y107.573 E7.06515
G1 X99.52 Y106.928 E7.09612
G1 X99.365 Y106.414 E7.11987
G1 X99.235 Y105.721 E7.15106
G1 X99.198 Y105.089 E7.17906
G1 X99.26 Y104.155 E7.22047
G1 X99.378 Y103.541 E7.24813
G1 X99.598 Y102.866 E7.27953
G1 X99.821 Y102.371 E7.30355
G1 X100.178 Y101.763 E7.33474
G1 X100.495 Y101.334 E7.35834
G1 X100.97 Y100.817 E7.38939
G0 F3000 X101.383 Y101.196
G1 F2400 X101.698 Y100.919 E7.40795
G1 X102.278 Y100.511 E7.43932
G1 X102.643 Y100.309 E7.45777
G1 X103.289 Y100.036 E7.48879
G1 X103.693 Y99.914 E7.50746
G1 X104.385 Y99.785 E7.5386
G1 X104.802 Y99.753 E7.5571
G1 X105.929 Y99.831 E7.60708
G1 X106.604 Y99.999 E7.63785
G1 X106.999 Y100.144 E7.65646
G1 X107.639 Y100.46 E7.68803
G1 X107.993 Y100.685 E7.70659
G1 X108.542 Y101.123 E7.73765
G1 X109.132 Y101.751 E7.77577
G1 X109.678 Y102.611 E7.82083
G1 X109.845 Y102.974 E7.83851
G1 X110.075 Y103.648 E7.87001
G1 X110.168 Y104.06 E7.8887
G1 X110.247 Y104.757 E7.91973
G1 X110.249 Y105.172 E7.93808
G1 X110.179 Y105.874 E7.96929
G1 X110.091 Y106.292 E7.98819
G1 X109.869 Y106.968 E8.01966
G1 X109.499 Y107.72 E8.05674
G1 X108.865 Y108.555 E8.10312
G1 X108.257 Y109.125 E8.13998
G1 X107.391 Y109.676 E8.18539
G1 X107.023 Y109.846 E8.20332
G1 X106.349 Y110.075 E8.23481
G1 X105.938 Y110.167 E8.25344
G1 X105.24 Y110.246 E8.28451
G1 X104.825 Y110.248 E8.30287
G1 X104.126 Y110.178 E8.33395
G1 X103.71 Y110.09 E8.35276
G1 X103.037 Y109.869 E8.38409
G1 X102.656 Y109.697 E8.40258
G1 X102.048 Y109.34 E8.43377
G1 X101.714 Y109.093 E8.45215
G1 X101.197 Y108.618 E8.4832
G1 X100.92 Y108.303 E8.50176
G1 X100.511 Y107.722 E8.53319
G1 X100.308 Y107.356 E8.5517
G1 X100.036 Y106.711 E8.58267
G1 X99.916 Y106.31 E8.60119
G1 X99.786 Y105.617 E8.63238
G1 X99.756 Y105.126 E8.65414
G1 X99.818 Y104.192 E8.69554
G1 X99.91 Y103.715 E8.71703
G1 X100.13 Y103.04 E8.74844
G1 X100.304 Y102.655 E8.76713
G1 X100.661 Y102.047 E8.79832
G1 X100.908 Y101.713 E8.81669
G1 X101.383 Y101.196 E8.84775
G0 F3000 X101.795 Y101.575
G1 F2400 X102.601 Y100.969 E8.89236
G1 X103.507 Y100.551 E8.9365
G1 X104.487 Y100.336 E8.98088
G1 X104.785 Y100.313 E8.9941
G1 X105.497 Y100.334 E9.02561
G1 X106.469 Y100.542 E9.06958
G1 X107.391 Y100.962 E9.1144
G1 X108.193 Y101.561 E9.15868
G1 X108.71 Y102.119 E9.19233
G1 X109.196 Y102.896 E9.23287
G1 X109.545 Y103.829 E9.27693
G1 X109.69 Y104.82 E9.32124
G1 X109.622 Y105.819 E9.36553
G1 X109.337 Y106.793 E9.41043
G1 X109.006 Y107.454 E9.44313
G1 X108.431 Y108.202 E9.48486
G1 X107.888 Y108.703 E9.51754
G1 X107.105 Y109.195 E9.55845
G1 X106.168 Y109.545 E9.6027
G1 X105.177 Y109.689 E9.647
G1 X104.181 Y109.621 E9.69116
G1 X103.211 Y109.337 E9.73587
G1 X102.331 Y108.857 E9.78021
G1 X101.576 Y108.206 E9.82431
G1 X100.969 Y107.4 E9.86894
G1 X100.552 Y106.493 E9.9131
G1 X100.336 Y105.514 E9.95745
G1 X100.315 Y105.163 E9.97301
G1 X100.377 Y104.229 E10.01441
G1 X100.443 Y103.888 E10.02978
G1 X100.663 Y103.213 E10.06118
G1 X101.144 Y102.33 E10.10566
G1 X101.795 Y101.575 E10.14976
G0 F3000 X102.207 Y101.954
M104 S200
G1 F2400 X102.923 Y101.427 E10.18909
G1 X103.725 Y101.067 E10.22798
G1 X104.59 Y100.886 E10.26707
G1 X104.769 Y100.872 E10.27501
G1 X105.481 Y100.893 E10.30652
G1 X106.334 Y101.086 E10.34521
G1 X107.143 Y101.464 E10.38471
G1 X107.844 Y101.998 E10.42369
G1 X108.288 Y102.487 E10.45291
G1 X108.714 Y103.18 E10.48889
G1 X109.015 Y104.01 E10.52795
G1 X109.134 Y104.883 E10.56692
G1 X109.065 Y105.763 E10.60597
G1 X108.805 Y106.618 E10.6455
G1 X108.513 Y107.189 E10.67387
G1 X107.996 Y107.849 E10.71096
G1 X107.519 Y108.282 E10.73946
G1 X106.82 Y108.713 E10.77578
G1 X105.988 Y109.014 E10.81492
G1 X105.114 Y109.133 E10.85394
G1 X104.237 Y109.064 E10.89286
G1 X103.386 Y108.805 E10.93221
G1 X102.615 Y108.374 E10.97128
G1 X101.955 Y107.794 E11.01015
G1 X101.427 Y107.078 E11.0495
G1 X101.068 Y106.275 E11.08841
G1 X100.886 Y105.411 E11.12747
G1 X100.936 Y104.266 E11.17817
G1 X101.195 Y103.387 E11.2187
G1 X101.627 Y102.614 E11.25788
G1 X102.207 Y101.954 E11.29674
G0 F3000 X102.62 Y102.333
G1 F2400 X103.245 Y101.885 E11.33076
G1 X103.943 Y101.583 E11.3644
G1 X104.693 Y101.437 E11.3982
G1 X105.464 Y101.453 E11.43231
G1 X106.199 Y101.629 E11.46575
G1 X106.895 Y101.966 E11.49995
G1 X107.495 Y102.436 E11.53367
G1 X107.866 Y102.855 E11.55843
G1 X108.231 Y103.465 E11.58987
G1 X108.485 Y104.191 E11.6239
G1 X108.577 Y104.946 E11.65754
G1 X108.508 Y105.708 E11.69139
G1 X108.273 Y106.443 E11.72552
G1 X108.02 Y106.924 E11.74956
G1 X107.561 Y107.496 E11.78201
G1 X107.15 Y107.861 E11.80632
G1 X106.535 Y108.231 E11.83807
G1 X105.808 Y108.484 E11.87212
G1 X105.051 Y108.576 E11.90585
G1 X104.293 Y108.507 E11.93952
G1 X103.561 Y108.273 E11.97352
G1 X102.898 Y107.891 E12.00737
G1 X102.334 Y107.381 E12.041
G1 X101.885 Y106.755 E12.07508
G1 X101.584 Y106.058 E12.10867
G1 X101.437 Y105.308 E12.14248
G1 X101.495 Y104.303 E12.18701
G1 X101.728 Y103.56 E12.22145
G1 X102.11 Y102.897 E12.2553
G1 X102.62 Y102.333 E12.28894
G1 F2400 E6.28894
;MESH:Fuss-Schneidebrett.stl
G0 F3000 X103.4 Y103.166
G0 X105.82 Y102.791
G0 X106.049 Y102.17
;TYPE:WALL-OUTER
G1 F2400 E12.28894
G1 F1500 X106.63 Y102.46 E12.31766
G1 X107.133 Y102.865 E12.34623
G1 X107.419 Y103.191 E12.36541
G1 X107.742 Y103.739 E12.39355
G1 X107.95 Y104.358 E12.42244
G1 X108.019 Y104.995 E12.45078
G1 X107.952 Y105.635 E12.47925
G1 X107.745 Y106.257 E12.50825
G1 X107.546 Y106.627 E12.52683
G1 X107.136 Y107.132 E12.5556
G1 X106.812 Y107.416 E12.57466
G1 X106.261 Y107.742 E12.60298
G1 X105.643 Y107.949 E12.63181
G1 X105.005 Y108.018 E12.6602
G1 X104.366 Y107.951 E12.68862
G1 X103.752 Y107.747 E12.71724
G1 X103.194 Y107.416 E12.74594
G1 X102.725 Y106.982 E12.77421
G1 X102.354 Y106.448 E12.80297
G1 X102.105 Y105.853 E12.83151
G1 X101.991 Y105.226 E12.8597
G1 X102.052 Y104.36 E12.8981
G1 X102.254 Y103.751 E12.92648
G1 X102.585 Y103.193 E12.95518
G1 X103.019 Y102.724 E12.98345
G1 X103.553 Y102.353 E13.01221
G1 X104.148 Y102.104 E13.04075
G1 X104.778 Y101.99 E13.06907
G1 X105.429 Y102.012 E13.09788
G1 X106.049 Y102.17 E13.12618
G0 F3000 X106.228 Y102.259
G0 X105.854 Y102.698
;TYPE:WALL-INNER
G1 F1500 X106.327 Y102.934 E13.14957
G1 X106.744 Y103.27 E13.17326
G1 X106.965 Y103.522 E13.18808
G1 X107.229 Y103.97 E13.21109
G1 X107.399 Y104.478 E13.23478
G1 X107.456 Y104.995 E13.25779
G1 X107.401 Y105.517 E13.28101
G1 X107.229 Y106.034 E13.30511
G1 X107.079 Y106.313 E13.31913
G1 X106.73 Y106.744 E13.34366
G1 X106.483 Y106.96 E13.35817
G1 X106.027 Y107.23 E13.38162
G1 X105.523 Y107.398 E13.40512
G1 X105.003 Y107.455 E13.42826
G1 X104.484 Y107.4 E13.45134
G1 X103.989 Y107.236 E13.47441
G1 X103.528 Y106.963 E13.49811
G1 X103.152 Y106.614 E13.52081
G1 X102.848 Y106.177 E13.54435
G1 X102.645 Y105.692 E13.56761
G1 X102.555 Y105.197 E13.58987
G1 X102.606 Y104.47 E13.62211
G1 X102.767 Y103.985 E13.64471
G1 X103.038 Y103.527 E13.66825
G1 X103.387 Y103.151 E13.69095
G1 X103.824 Y102.847 E13.71449
G1 X104.309 Y102.644 E13.73775
G1 X104.817 Y102.552 E13.76059
G1 X105.35 Y102.57 E13.78418
G1 X105.854 Y102.698 E13.80718
G0 F3000 X105.659 Y103.227
G1 F1500 X106.024 Y103.408 E13.82521
G1 X106.355 Y103.675 E13.84402
G1 X106.511 Y103.853 E13.85449
G1 X106.716 Y104.201 E13.87235
G1 X106.848 Y104.598 E13.89086
G1 X106.893 Y104.997 E13.90862
G1 X106.85 Y105.4 E13.92655
G1 X106.713 Y105.812 E13.94576
G1 X106.611 Y106.002 E13.9553
G1 X106.329 Y106.35 E13.97511
G1 X106.15 Y106.506 E13.98562
G1 X105.792 Y106.718 E14.00402
G1 X105.405 Y106.847 E14.02207
G1 X105.001 Y106.892 E14.04005
G1 X104.604 Y106.849 E14.05771
G1 X104.221 Y106.722 E14.07556
G1 X103.864 Y106.511 E14.09391
G1 X103.579 Y106.247 E14.11109
G1 X103.342 Y105.906 E14.12946
G1 X103.185 Y105.531 E14.14744
G1 X103.119 Y105.167 E14.16381
G1 X103.16 Y104.576 E14.19002
G1 X103.278 Y104.221 E14.20656
G1 X103.49 Y103.863 E14.22497
G1 X103.754 Y103.578 E14.24215
G1 X104.095 Y103.341 E14.26052
G1 X104.47 Y103.184 E14.27851
G1 X104.856 Y103.114 E14.29586
G1 X105.271 Y103.128 E14.31423
G1 X105.659 Y103.227 E14.33194
G0 F3000 X105.467 Y103.745
