;FLAVOR:Marlin
;TIME:5963
;Filament used: 4.42011m
;Layer height: 0.2
;MINX:61.4
;MINY:76.622
;MINZ:0.2
;MAXX:148.6
;MAXY:133.378
;MAXZ:16.2
;Generated with Cura_SteamEngine 4.4.1
M140 S60
M105
M190 S60
M104 S200
M105
M109 S200
M82 ;absolute extrusion mode
G21 ;metric values
G90 ;absolute positioning
M82 ;set extruder to absolute mode
M107 ;start with the fan off
G28 X0 Y0 ;move X/Y to min endstops
G28 Z0 ;move Z to min endstops
G1 Z15.0 F100 ;move the platform down 15mm
G92 E0 ;zero the extruded length
G1 F200 E3 ;extrude 3mm of feed stock
G92 E0 ;zero the extruded length again
G1 F100
G0 Y20 F100
M117 Printing...
G5
G92 E0
G92 E0
G1 F2400 E-6
;LAYER_COUNT:81
;LAYER:0
M106 S255
M204 S3000
M205 X10 Y10
G1 F600 Z0.275
G0 F3000 X63.879 Y77.983 Z0.275
M204 S1800
M205 X8 Y8
;TYPE:SKIRT
G1 F600 Z0.2
G1 F2400 E0
G1 X64.467 Y77.575 E0.03333
G1 X65.097 Y77.236 E0.06664
G1 X65.761 Y76.97 E0.09995
G1 X66.45 Y76.779 E0.13324
G1 X67.156 Y76.666 E0.16653
G1 X67.625 Y76.636 E0.18841
G1 X67.937 Y76.627 E0.20295
G1 X68.119 Y76.624 E0.21142
G1 X72.161 Y76.622 E0.39964
G1 X72.164 Y76.622 E0.39978
G1 X136.244 Y76.623 E3.38361
G1 X136.245 Y76.623 E3.38366
G1 X141.503 Y76.624 E3.62849
G1 X141.595 Y76.625 E3.63277
G1 X142.283 Y76.635 E3.66481
G1 X142.997 Y76.685 E3.69814
G1 X143.7 Y76.815 E3.73143
G1 X144.384 Y77.022 E3.76471
G1 X145.042 Y77.304 E3.79804
G1 X145.663 Y77.658 E3.83133
G1 X146.241 Y78.08 E3.86465
G1 X146.769 Y78.563 E3.89797
G1 X147.239 Y79.101 E3.93124
G1 X147.646 Y79.689 E3.96454
G1 X147.986 Y80.319 E3.99787
G1 X148.252 Y80.983 E4.03118
G1 X148.443 Y81.672 E4.06447
G1 X148.556 Y82.378 E4.09776
G1 X148.587 Y82.835 E4.11909
G1 X148.597 Y83.156 E4.13405
G1 X148.6 Y83.355 E4.14331
G1 X148.6 Y126.319 E6.1439
G1 X148.591 Y127.046 E6.17775
G1 X148.542 Y127.76 E6.21108
G1 X148.414 Y128.464 E6.2444
G1 X148.208 Y129.149 E6.2777
G1 X147.927 Y129.806 E6.31098
G1 X147.574 Y130.429 E6.34432
G1 X147.154 Y131.008 E6.37763
G1 X146.672 Y131.536 E6.41092
G1 X146.135 Y132.008 E6.44421
G1 X145.547 Y132.416 E6.47753
G1 X144.918 Y132.757 E6.51085
G1 X144.255 Y133.025 E6.54415
G1 X143.566 Y133.217 E6.57745
G1 X142.86 Y133.332 E6.61076
G1 X142.368 Y133.365 E6.63372
G1 X142.042 Y133.374 E6.64891
G1 X141.868 Y133.376 E6.65701
G1 X137.839 Y133.378 E6.84462
G1 X137.836 Y133.378 E6.84476
G1 X73.756 Y133.377 E9.82859
G1 X73.755 Y133.377 E9.82864
G1 X68.497 Y133.376 E10.07347
G1 X68.414 Y133.375 E10.07734
G1 X67.726 Y133.366 E10.10938
G1 X67.013 Y133.317 E10.14265
G1 X66.309 Y133.189 E10.17597
G1 X65.624 Y132.982 E10.20929
G1 X64.967 Y132.701 E10.24257
G1 X64.345 Y132.348 E10.27587
G1 X63.766 Y131.927 E10.3092
G1 X63.238 Y131.445 E10.34249
G1 X62.767 Y130.907 E10.37579
G1 X62.358 Y130.32 E10.4091
G1 X62.018 Y129.69 E10.44244
G1 X61.751 Y129.027 E10.47572
G1 X61.559 Y128.338 E10.50902
G1 X61.445 Y127.632 E10.54232
G1 X61.413 Y127.152 E10.56472
G1 X61.403 Y126.807 E10.5808
G1 X61.4 Y126.622 E10.58941
G1 X61.4 Y83.706 E12.58776
G1 X61.401 Y83.611 E12.59218
G1 X61.411 Y82.938 E12.62352
G1 X61.461 Y82.224 E12.65685
G1 X61.591 Y81.521 E12.69014
G1 X61.799 Y80.837 E12.72343
G1 X62.081 Y80.18 E12.75672
G1 X62.436 Y79.558 E12.79007
G1 X62.857 Y78.98 E12.82337
G1 X63.34 Y78.453 E12.85666
G1 X63.879 Y77.983 E12.88996
M204 S3000
M205 X10 Y10
G0 F3000 X64.419 Y78.278
M204 S1800
M205 X8 Y8
G1 F2400 X64.998 Y77.915 E12.92178
G1 X65.615 Y77.621 E12.9536
G1 X66.262 Y77.402 E12.98541
G1 X66.93 Y77.26 E13.01721
G1 X67.642 Y77.195 E13.0505
G1 X67.954 Y77.186 E13.06503
G1 X68.119 Y77.184 E13.07272
G1 X72.161 Y77.182 E13.26093
G1 X72.164 Y77.182 E13.26107
G1 X136.244 Y77.183 E16.2449
G1 X136.245 Y77.183 E16.24495
G1 X141.503 Y77.184 E16.48978
G1 X141.587 Y77.185 E16.4937
G1 X142.275 Y77.195 E16.52573
G1 X142.956 Y77.244 E16.55753
G1 X143.627 Y77.374 E16.58935
G1 X144.278 Y77.58 E16.62115
G1 X144.901 Y77.861 E16.65297
G1 X145.487 Y78.213 E16.6848
G1 X146.027 Y78.631 E16.7166
G1 X146.515 Y79.11 E16.74844
G1 X146.944 Y79.642 E16.78026
G1 X147.307 Y80.22 E16.81204
G1 X147.601 Y80.837 E16.84387
G1 X147.821 Y81.484 E16.87569
G1 X147.963 Y82.152 E16.90749
G1 X148.027 Y82.852 E16.94022
G1 X148.037 Y83.173 E16.95518
G1 X148.04 Y83.355 E16.96365
G1 X148.04 Y126.312 E18.96391
G1 X148.031 Y127.039 E18.99776
G1 X147.982 Y127.721 E19.0296
G1 X147.854 Y128.392 E19.06141
G1 X147.649 Y129.044 E19.09324
G1 X147.369 Y129.667 E19.12504
G1 X147.019 Y130.253 E19.15682
G1 X146.602 Y130.795 E19.18867
G1 X146.125 Y131.284 E19.22048
G1 X145.594 Y131.713 E19.25226
G1 X145.016 Y132.078 E19.28409
G1 X144.4 Y132.373 E19.3159
G1 X143.753 Y132.594 E19.34773
G1 X143.085 Y132.738 E19.37955
G1 X142.352 Y132.805 E19.41383
G1 X142.026 Y132.814 E19.42901
G1 X141.868 Y132.816 E19.43637
G1 X137.839 Y132.818 E19.62398
G1 X137.836 Y132.818 E19.62412
G1 X73.756 Y132.817 E22.60795
G1 X73.755 Y132.817 E22.608
G1 X68.497 Y132.816 E22.85283
G1 X68.422 Y132.816 E22.85632
G1 X67.734 Y132.807 E22.88836
G1 X67.052 Y132.758 E22.9202
G1 X66.381 Y132.629 E22.95202
G1 X65.729 Y132.424 E22.98384
G1 X65.106 Y132.144 E23.01565
G1 X64.52 Y131.792 E23.04748
G1 X63.979 Y131.375 E23.07928
G1 X63.491 Y130.898 E23.11106
G1 X63.061 Y130.366 E23.14291
G1 X62.697 Y129.788 E23.17472
G1 X62.402 Y129.172 E23.20652
G1 X62.182 Y128.525 E23.23834
G1 X62.038 Y127.857 E23.27016
G1 X61.972 Y127.136 E23.30388
G1 X61.962 Y126.791 E23.31995
G1 X61.96 Y126.622 E23.32782
G1 X61.96 Y83.706 E25.32617
G1 X61.961 Y83.619 E25.33022
G1 X61.971 Y82.946 E25.36156
G1 X62.021 Y82.265 E25.39335
G1 X62.15 Y81.594 E25.42517
G1 X62.357 Y80.943 E25.45698
G1 X62.638 Y80.32 E25.4888
G1 X62.991 Y79.735 E25.52062
G1 X63.409 Y79.194 E25.55245
G1 X63.887 Y78.707 E25.58423
G1 X64.419 Y78.278 E25.61605
M204 S3000
M205 X10 Y10
G0 F3000 X64.432 Y78.975
M204 S1800
M205 X8 Y8
G1 F2400 X64.956 Y78.591 E25.6463
G1 X65.523 Y78.274 E25.67655
G1 X66.125 Y78.029 E25.70681
G1 X66.752 Y77.86 E25.73705
G1 X67.658 Y77.755 E25.77952
G1 X67.97 Y77.746 E25.79405
G1 X68.119 Y77.744 E25.80099
G1 X72.161 Y77.742 E25.9892
G1 X72.164 Y77.742 E25.98934
G1 X136.244 Y77.743 E28.97318
G1 X141.502 Y77.744 E29.21801
G1 X141.579 Y77.745 E29.2216
G1 X142.267 Y77.755 E29.25364
G1 X142.914 Y77.804 E29.28385
G1 X143.551 Y77.932 E29.31411
G1 X144.167 Y78.138 E29.34435
G1 X144.754 Y78.418 E29.37463
G1 X145.301 Y78.768 E29.40487
G1 X145.801 Y79.182 E29.4351
G1 X146.247 Y79.655 E29.46537
G1 X146.631 Y80.179 E29.49562
G1 X146.948 Y80.746 E29.52587
G1 X147.193 Y81.347 E29.55609
G1 X147.363 Y81.974 E29.58634
G1 X147.467 Y82.87 E29.62834
G1 X147.477 Y83.191 E29.6433
G1 X147.48 Y83.355 E29.65093
G1 X147.48 Y126.305 E31.65087
G1 X147.471 Y127.032 E31.68472
G1 X147.423 Y127.68 E31.71498
G1 X147.295 Y128.317 E31.74523
G1 X147.091 Y128.934 E31.77549
G1 X146.812 Y129.521 E31.80575
G1 X146.464 Y130.069 E31.83598
G1 X146.051 Y130.57 E31.86622
G1 X145.579 Y131.017 E31.89649
G1 X145.056 Y131.402 E31.92673
G1 X144.49 Y131.72 E31.95696
G1 X143.888 Y131.967 E31.98725
G1 X143.262 Y132.137 E32.01746
G1 X142.337 Y132.245 E32.06082
G1 X142.011 Y132.254 E32.07601
G1 X141.868 Y132.256 E32.08267
G1 X137.839 Y132.258 E32.27028
G1 X137.836 Y132.258 E32.27042
G1 X73.756 Y132.257 E35.25425
G1 X68.498 Y132.256 E35.49908
G1 X68.429 Y132.256 E35.5023
G1 X67.741 Y132.247 E35.53434
G1 X67.093 Y132.198 E35.5646
G1 X66.456 Y132.07 E35.59485
G1 X65.84 Y131.866 E35.62507
G1 X65.253 Y131.587 E35.65533
G1 X64.705 Y131.238 E35.68558
G1 X64.204 Y130.824 E35.71584
G1 X63.758 Y130.352 E35.74608
G1 X63.373 Y129.829 E35.77632
G1 X63.055 Y129.262 E35.80659
G1 X62.809 Y128.661 E35.83683
G1 X62.639 Y128.034 E35.86708
G1 X62.532 Y127.12 E35.90993
G1 X62.522 Y126.775 E35.926
G1 X62.52 Y126.622 E35.93313
G1 X62.52 Y83.706 E37.93148
G1 X62.521 Y83.628 E37.93511
G1 X62.531 Y82.955 E37.96645
G1 X62.58 Y82.307 E37.99671
G1 X62.709 Y81.67 E38.02697
G1 X62.915 Y81.054 E38.05722
G1 X63.195 Y80.468 E38.08746
G1 X63.545 Y79.921 E38.1177
G1 X63.959 Y79.42 E38.14796
G1 X64.432 Y78.975 E38.1782
M204 S3000
M205 X10 Y10
G1 F2400 E32.1782
;MESH:Wago_Halterung_8er_v4.stl
G0 F3000 X68.653 Y82.359
G0 X68.654 Y83.878
G0 X81.351 Y113.782
G0 X82.203 Y114.686
G0 X84.267 Y115.594
M204 S1800
M205 X8 Y8
;TYPE:WALL-INNER
G1 F2400 E38.1782
G1 F1500 X85.017 Y115.34 E38.21507
G1 X85.683 Y114.912 E38.25194
G1 X86.222 Y114.329 E38.28891
G1 X86.595 Y113.634 E38.32564
G1 X86.788 Y112.863 E38.36264
G1 X86.78 Y112.071 E38.39953
G1 X86.578 Y111.306 E38.43637
G1 X86.191 Y110.616 E38.47321
G1 X85.644 Y110.041 E38.51016
G1 X84.971 Y109.622 E38.54708
G1 X84.218 Y109.384 E38.58385
G1 X83.425 Y109.34 E38.62083
G1 X82.648 Y109.495 E38.65772
G1 X81.934 Y109.838 E38.69461
G1 X81.33 Y110.348 E38.73142
G1 X80.87 Y110.989 E38.76815
G1 X80.581 Y111.731 E38.80523
G1 X80.49 Y112.518 E38.84212
G1 X80.593 Y113.302 E38.87894
G1 X80.893 Y114.04 E38.91604
G1 X81.364 Y114.674 E38.95282
G1 X81.976 Y115.174 E38.98961
G1 X82.695 Y115.505 E39.02647
G1 X83.473 Y115.649 E39.06331
G1 X84.267 Y115.594 E39.10037
M204 S3000
M205 X10 Y10
G0 F3000 X125.477 Y92.509
G0 X127.473 Y91.611
M204 S1800
M205 X8 Y8
G1 F1500 X126.682 Y91.571 E39.13725
G1 X125.907 Y91.723 E39.17403
G1 X125.192 Y92.068 E39.211
G1 X124.586 Y92.577 E39.24785
G1 X124.124 Y93.222 E39.28479
G1 X123.838 Y93.961 E39.32169
G1 X123.747 Y94.746 E39.35849
G1 X123.85 Y95.533 E39.39544
G1 X124.15 Y96.267 E39.43237
G1 X124.618 Y96.903 E39.46914
G1 X125.235 Y97.405 E39.50617
G1 X125.954 Y97.735 E39.54301
G1 X126.731 Y97.879 E39.57981
G1 X127.525 Y97.823 E39.61687
G1 X128.275 Y97.569 E39.65374
G1 X128.937 Y97.142 E39.69042
G1 X129.478 Y96.561 E39.72739
G1 X129.854 Y95.862 E39.76435
G1 X130.045 Y95.093 E39.80124
G1 X130.037 Y94.301 E39.83813
G1 X129.835 Y93.535 E39.87501
G1 X129.448 Y92.843 E39.91193
G1 X128.9 Y92.271 E39.94882
G1 X128.23 Y91.854 E39.98556
G1 X127.473 Y91.611 E40.02259
M204 S3000
M205 X10 Y10
G0 F3000 X140.8 Y84.424
M204 S1800
M205 X8 Y8
G1 F1500 X140.8 Y125.576 E41.93879
G1 X137.836 Y125.578 E42.07681
G1 X73.756 Y125.577 E45.06064
G1 X69.2 Y125.576 E45.27279
G1 X69.2 Y84.424 E47.189
G1 X72.164 Y84.422 E47.32702
G1 X136.244 Y84.423 E50.31085
G1 X140.8 Y84.424 E50.523
M204 S3000
M205 X10 Y10
G0 F3000 X141.36 Y83.864
M204 S1800
M205 X8 Y8
G1 F1500 X141.36 Y126.136 E52.49136
G1 X137.836 Y126.138 E52.65545
G1 X73.756 Y126.137 E55.63928
G1 X68.64 Y126.136 E55.87751
G1 X68.64 Y83.864 E57.84587
G1 X72.164 Y83.862 E58.00996
G1 X136.244 Y83.863 E60.99379
G1 X141.36 Y83.864 E61.23201
M204 S3000
M205 X10 Y10
G0 F3000 X141.29 Y83.934
G0 X127.389 Y92.069
G0 X127.372 Y92.167
M204 S1800
M205 X8 Y8
G1 F1500 X126.722 Y92.134 E61.26232
G1 X126.085 Y92.259 E61.29255
G1 X125.498 Y92.542 E61.32289
G1 X125 Y92.96 E61.35317
G1 X124.621 Y93.49 E61.38351
G1 X124.386 Y94.097 E61.41381
G1 X124.311 Y94.742 E61.44405
G1 X124.396 Y95.388 E61.47439
G1 X124.642 Y95.991 E61.50472
G1 X125.027 Y96.514 E61.53496
G1 X125.533 Y96.926 E61.56534
G1 X126.124 Y97.197 E61.59561
G1 X126.763 Y97.315 E61.62587
G1 X127.414 Y97.269 E61.65626
G1 X128.03 Y97.061 E61.68654
G1 X128.575 Y96.709 E61.71675
G1 X129.019 Y96.232 E61.74709
G1 X129.327 Y95.659 E61.77738
G1 X129.484 Y95.027 E61.8077
G1 X129.478 Y94.376 E61.83802
G1 X129.312 Y93.747 E61.86831
G1 X128.994 Y93.179 E61.89862
G1 X128.544 Y92.709 E61.92892
G1 X127.993 Y92.366 E61.95914
G1 X127.372 Y92.167 E61.98951
M204 S3000
M205 X10 Y10
G0 F3000 X127.389 Y92.069
G0 X126.073 Y92.222
G0 X84.789 Y114.868
G0 X84.156 Y115.04
M204 S1800
M205 X8 Y8
G1 F1500 X84.772 Y114.832 E62.01978
G1 X85.32 Y114.48 E62.05011
G1 X85.762 Y114.001 E62.08046
G1 X86.069 Y113.43 E62.11065
G1 X86.227 Y112.797 E62.14103
G1 X86.221 Y112.146 E62.17134
G1 X86.055 Y111.518 E62.20159
G1 X85.737 Y110.951 E62.23186
G1 X85.288 Y110.479 E62.26219
G1 X84.735 Y110.135 E62.29252
G1 X84.116 Y109.939 E62.32275
G1 X83.465 Y109.903 E62.35311
G1 X82.827 Y110.03 E62.3834
G1 X82.241 Y110.312 E62.41368
G1 X81.744 Y110.731 E62.44395
G1 X81.366 Y111.258 E62.47415
G1 X81.129 Y111.867 E62.50458
G1 X81.054 Y112.514 E62.53491
G1 X81.139 Y113.158 E62.56516
G1 X81.385 Y113.763 E62.59557
G1 X81.772 Y114.284 E62.62579
G1 X82.275 Y114.695 E62.65604
G1 X82.866 Y114.967 E62.68633
G1 X83.505 Y115.085 E62.71659
G1 X84.156 Y115.04 E62.74697
M204 S3000
M205 X10 Y10
G0 F3000 X84.175 Y115.138
G0 X85.313 Y114.603
G0 X84.957 Y114.048
M204 S1800
M205 X8 Y8
;TYPE:WALL-OUTER
G1 F1500 X85.302 Y113.673 E62.7707
G1 X85.543 Y113.226 E62.79435
G1 X85.666 Y112.731 E62.8181
G1 X85.662 Y112.221 E62.84185
G1 X85.532 Y111.73 E62.8655
G1 X85.283 Y111.286 E62.8892
G1 X84.932 Y110.917 E62.91291
G1 X84.499 Y110.648 E62.93665
G1 X84.014 Y110.494 E62.96035
G1 X83.505 Y110.466 E62.98408
G1 X83.006 Y110.565 E63.00777
G1 X82.548 Y110.786 E63.03145
G1 X82.158 Y111.114 E63.05518
G1 X81.862 Y111.527 E63.07884
G1 X81.677 Y112.003 E63.10262
G1 X81.618 Y112.509 E63.12634
G1 X81.685 Y113.013 E63.15001
G1 X81.877 Y113.486 E63.17378
G1 X82.18 Y113.894 E63.19745
G1 X82.574 Y114.216 E63.22114
G1 X83.036 Y114.429 E63.24483
G1 X83.537 Y114.521 E63.26855
G1 X84.045 Y114.486 E63.29226
G1 X84.528 Y114.323 E63.316
G1 X84.957 Y114.048 E63.33973
M204 S3000
M205 X10 Y10
G0 F3000 X85.092 Y113.901
G0 X85.576 Y114.348
G0 X126.073 Y92.222
G0 X127.305 Y92.064
G0 X127.271 Y92.723
M204 S1800
M205 X8 Y8
G1 F1500 X126.762 Y92.697 E63.36346
G1 X126.263 Y92.795 E63.38714
G1 X125.804 Y93.016 E63.41086
G1 X125.414 Y93.343 E63.43456
G1 X125.118 Y93.758 E63.45829
G1 X124.934 Y94.233 E63.48201
G1 X124.875 Y94.738 E63.50569
G1 X124.942 Y95.243 E63.52941
G1 X125.134 Y95.715 E63.55314
G1 X125.436 Y96.125 E63.57685
G1 X125.831 Y96.447 E63.60058
G1 X126.294 Y96.659 E63.62429
G1 X126.794 Y96.751 E63.64796
G1 X127.303 Y96.715 E63.67172
G1 X127.785 Y96.553 E63.6954
G1 X128.212 Y96.277 E63.71907
G1 X128.56 Y95.903 E63.74286
G1 X128.8 Y95.456 E63.76649
G1 X128.923 Y94.961 E63.79024
G1 X128.919 Y94.451 E63.81399
G1 X128.789 Y93.959 E63.83768
G1 X128.54 Y93.515 E63.86138
G1 X128.188 Y93.147 E63.8851
G1 X127.756 Y92.878 E63.90879
G1 X127.271 Y92.723 E63.9325
M204 S3000
M205 X10 Y10
G0 F3000 X127.071 Y92.713
G0 X127.105 Y92.054
G0 X141.29 Y83.934
G0 X141.92 Y83.304
M204 S1800
M205 X8 Y8
G1 F1500 X141.92 Y126.696 E65.95302
G1 X137.836 Y126.698 E66.14318
G1 X73.756 Y126.697 E69.12702
G1 X68.08 Y126.696 E69.39132
G1 X68.08 Y83.304 E71.41183
G1 X72.164 Y83.302 E71.602
G1 X136.244 Y83.303 E74.58583
G1 X141.92 Y83.304 E74.85013
M204 S3000
M205 X10 Y10
G0 F3000 X141.92 Y83.504
G0 X141.29 Y83.934
G0 X140.25 Y84.974
M204 S1800
M205 X8 Y8
;TYPE:SKIN
G1 F1500 X140.25 Y125.026 E76.71512
G1 X137.836 Y125.028 E76.82752
G1 X73.756 Y125.027 E79.81136
G1 X69.75 Y125.026 E79.99789
G1 X69.75 Y84.974 E81.86288
G1 X72.164 Y84.972 E81.97529
G1 X136.244 Y84.973 E84.95912
G1 X140.25 Y84.974 E85.14566
M204 S3000
M205 X10 Y10
G0 F3000 X129.894 Y92.513
M204 S1800
M205 X8 Y8
G1 F1500 X129.249 Y91.841 E85.18903
G1 X128.463 Y91.351 E85.23216
G1 X127.573 Y91.065 E85.27569
G1 X126.643 Y91.019 E85.31905
G1 X125.732 Y91.197 E85.36227
G1 X124.891 Y91.603 E85.40575
G1 X124.179 Y92.2 E85.44902
G1 X123.637 Y92.959 E85.49245
G1 X123.3 Y93.828 E85.53585
G1 X123.193 Y94.75 E85.57907
G1 X123.314 Y95.675 E85.62251
G1 X123.667 Y96.538 E85.66592
G1 X124.217 Y97.286 E85.70916
G1 X124.942 Y97.876 E85.75268
G1 X125.787 Y98.263 E85.79596
G1 X126.7 Y98.433 E85.8392
G1 X127.635 Y98.367 E85.88285
G1 X128.516 Y98.068 E85.92617
G1 X129.293 Y97.567 E85.96922
G1 X129.929 Y96.884 E86.01268
G1 X130.371 Y96.062 E86.05613
G1 X130.595 Y95.158 E86.0995
G1 X130.587 Y94.227 E86.14285
G1 X130.349 Y93.327 E86.1862
G1 X129.894 Y92.513 E86.22962
M204 S3000
