;FLAVOR:Marlin
;TIME:15777
;Filament used: 18.2305m
;Layer height: 0.2
;MINX:58.308
;MINY:63.408
;MINZ:0.24
;MAXX:151.55
;MAXY:146.591
;MAXZ:80.29
;Generated with Cura_SteamEngine 4.4.1
M140 S60
M105
M190 S60
M104 S200
M105
M109 S200
M82 ;absolute extrusion mode
G21 ;metric values
G90 ;absolute positioning
M82 ;set extruder to absolute mode
M107 ;start with the fan off
G28 X0 Y0 ;move X/Y to min endstops
G28 Z0 ;move Z to min endstops
G1 Z15.0 F100 ;move the platform down 15mm
G92 E0 ;zero the extruded length
G1 F200 E3 ;extrude 3mm of feed stock
G92 E0 ;zero the extruded length again
G1 F100
G0 Y20 F100
M117 Printing...
G5
G92 E0
G92 E0
G1 F2400 E-6
;LAYER_COUNT:396
;LAYER:-6
M107
M204 S3000
M205 X10 Y10
G0 F6000 X63.109 Y67.867 Z0.24
M204 S1800
M205 X8 Y8
;TYPE:SUPPORT-INTERFACE
G1 F2400 E0
G1 F1125 X63.805 Y67.221 E0.0758
G1 X63.944 Y67.102 E0.09041
G1 X64.635 Y66.548 E0.1611
G1 X64.774 Y66.444 E0.17496
G1 X65.489 Y65.951 E0.24429
G1 X65.673 Y65.835 E0.26165
G1 X66.429 Y65.392 E0.3316
G1 X66.571 Y65.315 E0.34449
G1 X67.516 Y64.856 E0.42835
G1 X68.366 Y64.513 E0.50152
G1 X68.539 Y64.451 E0.51619
G1 X69.377 Y64.182 E0.58644
G1 X69.541 Y64.136 E0.60004
G1 X70.413 Y63.924 E0.67167
G1 X70.575 Y63.891 E0.68487
G1 X71.468 Y63.743 E0.75713
G1 X71.645 Y63.72 E0.77137
G1 X72.539 Y63.637 E0.84304
G1 X72.681 Y63.63 E0.85439
G1 X73.422 Y63.609 E0.91357
G1 X86.499 Y63.617 E1.95743
G1 X87.01 Y63.609 E1.99822
G1 X113.627 Y63.61 E4.12291
G1 X113.834 Y63.617 E4.13944
G1 X114.173 Y63.618 E4.1665
G1 X114.564 Y63.609 E4.19772
G1 X123.99 Y63.61 E4.95015
G1 X124.982 Y63.646 E5.02938
G1 X125.173 Y63.66 E5.04467
G1 X125.937 Y63.661 E5.10566
G1 X126.581 Y63.618 E5.15718
G1 X127.11 Y63.609 E5.19941
G1 X136.636 Y63.61 E5.95982
G1 X137.76 Y63.655 E6.04961
G1 X138.677 Y63.757 E6.12326
G1 X138.852 Y63.782 E6.13737
G1 X139.741 Y63.946 E6.20953
G1 X139.864 Y63.974 E6.2196
G1 X140.758 Y64.208 E6.29337
G1 X140.921 Y64.257 E6.30696
G1 X141.763 Y64.544 E6.37797
G1 X141.929 Y64.607 E6.39214
G1 X142.732 Y64.948 E6.46178
G1 X142.921 Y65.036 E6.47842
G1 X143.832 Y65.51 E6.5604
G1 X144.611 Y65.985 E6.63323
G1 X144.762 Y66.085 E6.64768
G1 X145.476 Y66.596 E6.71777
G1 X145.624 Y66.709 E6.73264
G1 X146.424 Y67.382 E6.81609
G1 X147.093 Y68.022 E6.88999
G1 X147.738 Y68.717 E6.96568
G1 X147.857 Y68.856 E6.98028
G1 X148.411 Y69.547 E7.05098
G1 X148.515 Y69.686 E7.06484
G1 X149.008 Y70.401 E7.13417
G1 X149.124 Y70.585 E7.15153
G1 X149.567 Y71.341 E7.22147
G1 X149.644 Y71.483 E7.23437
G1 X150.047 Y72.302 E7.30723
G1 X150.103 Y72.428 E7.31824
G1 X150.445 Y73.273 E7.391
G1 X150.504 Y73.438 E7.40499
G1 X150.776 Y74.285 E7.476
G1 X150.822 Y74.447 E7.48945
G1 X151.034 Y75.321 E7.56124
G1 X151.067 Y75.479 E7.57412
G1 X151.215 Y76.371 E7.6463
G1 X151.239 Y76.557 E7.66127
G1 X151.321 Y77.441 E7.73213
G1 X151.329 Y77.593 E7.74428
G1 X151.35 Y78.326 E7.80282
G1 X151.35 Y81.254 E8.03655
G1 X151.314 Y82.26 E8.1169
G1 X151.304 Y82.395 E8.12771
G1 X151.202 Y83.312 E8.20136
G1 X151.177 Y83.487 E8.21547
G1 X151.015 Y84.365 E8.28674
G1 X150.985 Y84.499 E8.2977
G1 X150.754 Y85.384 E8.37071
G1 X150.702 Y85.556 E8.38505
G1 X150.415 Y86.398 E8.45606
G1 X150.352 Y86.564 E8.47023
G1 X150.011 Y87.367 E8.53987
G1 X149.93 Y87.542 E8.55527
G1 X149.449 Y88.467 E8.63849
G1 X148.974 Y89.246 E8.71132
G1 X148.874 Y89.397 E8.72578
G1 X148.363 Y90.111 E8.79587
G1 X148.25 Y90.259 E8.81073
G1 X147.577 Y91.059 E8.89418
G1 X146.938 Y91.727 E8.96797
G1 X146.242 Y92.373 E9.04377
G1 X146.103 Y92.492 E9.05838
G1 X145.412 Y93.046 E9.12908
G1 X145.273 Y93.15 E9.14293
G1 X144.558 Y93.643 E9.21226
G1 X144.374 Y93.759 E9.22962
G1 X143.185 Y94.456 E9.33964
G1 X143.192 Y94.468 E9.34075
G1 X143.146 Y94.497 E9.34509
G1 X143.142 Y94.493 E9.34554
G1 X142.083 Y95.311 E9.45236
G1 X141.924 Y95.424 E9.46793
G1 X141.204 Y95.902 E9.53691
G1 X141.044 Y95.998 E9.55181
G1 X139.9 Y96.625 E9.65594
G1 X139.684 Y96.729 E9.67508
G1 X138.837 Y97.108 E9.74915
G1 X138.659 Y97.179 E9.76445
G1 X137.818 Y97.484 E9.83586
G1 X137.67 Y97.531 E9.84825
G1 X136.819 Y97.77 E9.91881
G1 X136.621 Y97.818 E9.93508
G1 X135.605 Y98.02 E10.01776
G1 X134.529 Y98.153 E10.10431
G1 X133.63 Y98.201 E10.17617
G1 X133.475 Y98.204 E10.18855
G1 X132.579 Y98.188 E10.26008
G1 X132.388 Y98.177 E10.27535
G1 X131.511 Y98.097 E10.34565
G1 X131.355 Y98.077 E10.35821
G1 X130.441 Y97.926 E10.43215
G1 X130.294 Y97.895 E10.44415
G1 X129.271 Y97.643 E10.52825
G1 X128.392 Y97.361 E10.60194
G1 X128.254 Y97.311 E10.61365
G1 X127.406 Y96.969 E10.68664
G1 X127.263 Y96.904 E10.69918
G1 X126.498 Y96.529 E10.76719
G1 X125.879 Y96.273 E10.82066
G1 X125.22 Y96.093 E10.87519
G1 X124.549 Y95.999 E10.92927
G1 X123.979 Y95.985 E10.97479
G1 X114.054 Y95.977 E11.76704
G1 X113.564 Y95.985 E11.80616
G1 X105.937 Y95.985 E12.41498
G1 X105.269 Y96.027 E12.46841
G1 X104.598 Y96.156 E12.52295
G1 X103.949 Y96.369 E12.57748
G1 X103.332 Y96.661 E12.63197
G1 X102.757 Y97.029 E12.68646
G1 X102.233 Y97.467 E12.74098
G1 X101.769 Y97.967 E12.79543
G1 X101.37 Y98.523 E12.85006
G1 X101.046 Y99.123 E12.90449
G1 X100.8 Y99.759 E12.95892
G1 X100.634 Y100.428 E13.01394
G1 X100.55 Y101.367 E13.0892
G1 X100.55 Y108.628 E13.6688
G1 X100.592 Y109.296 E13.72223
G1 X100.721 Y109.967 E13.77677
G1 X100.934 Y110.616 E13.8313
G1 X101.226 Y111.233 E13.88579
G1 X101.594 Y111.808 E13.94028
G1 X102.032 Y112.332 E13.9948
G1 X102.532 Y112.796 E14.04925
G1 X103.088 Y113.195 E14.10388
G1 X103.688 Y113.519 E14.15831
G1 X104.324 Y113.765 E14.21274
G1 X104.993 Y113.931 E14.26776
G1 X105.932 Y114.015 E14.34302
G1 X113.627 Y114.016 E14.95726
G1 X113.834 Y114.023 E14.9738
G1 X114.173 Y114.024 E15.00086
G1 X114.564 Y114.015 E15.03208
G1 X124.076 Y114.017 E15.79137
G1 X124.745 Y113.983 E15.84484
G1 X125.418 Y113.863 E15.89941
G1 X126.068 Y113.661 E15.95374
G1 X126.634 Y113.405 E16.00333
G1 X126.882 Y113.275 E16.02568
G1 X127.034 Y113.202 E16.03914
G1 X127.865 Y112.839 E16.11153
G1 X128.027 Y112.775 E16.12543
G1 X128.873 Y112.477 E16.19703
G1 X129.025 Y112.43 E16.20973
G1 X129.904 Y112.192 E16.28242
G1 X130.042 Y112.16 E16.29373
G1 X131.098 Y111.96 E16.37952
G1 X132.164 Y111.837 E16.46518
G1 X133.065 Y111.797 E16.53717
G1 X133.23 Y111.796 E16.55034
G1 X134.129 Y111.819 E16.62213
G1 X134.288 Y111.829 E16.63485
G1 X135.181 Y111.919 E16.70649
G1 X135.354 Y111.942 E16.72042
G1 X136.245 Y112.098 E16.79263
G1 X136.396 Y112.13 E16.80495
G1 X137.267 Y112.349 E16.87664
G1 X137.429 Y112.396 E16.8901
G1 X138.266 Y112.673 E16.96048
G1 X138.466 Y112.748 E16.97753
G1 X139.777 Y113.315 E17.09155
G1 X139.98 Y113.416 E17.10965
G1 X140.8 Y113.856 E17.18393
G1 X140.954 Y113.947 E17.19821
G1 X141.837 Y114.514 E17.28198
G1 X142.575 Y115.063 E17.3554
G1 X142.756 Y115.208 E17.37391
G1 X143.058 Y115.442 E17.40441
G1 X143.062 Y115.438 E17.40486
G1 X143.265 Y115.592 E17.4252
G1 X143.307 Y115.617 E17.4291
G1 X143.302 Y115.626 E17.42992
G1 X143.864 Y115.942 E17.48139
G1 X144.626 Y116.408 E17.55269
G1 X144.766 Y116.501 E17.5661
G1 X145.507 Y117.032 E17.63887
G1 X145.621 Y117.12 E17.65037
G1 X146.447 Y117.814 E17.73649
G1 X147.092 Y118.434 E17.8079
G1 X147.738 Y119.13 E17.8837
G1 X147.857 Y119.269 E17.89831
G1 X148.411 Y119.96 E17.96901
G1 X148.515 Y120.099 E17.98287
G1 X149.008 Y120.814 E18.05219
G1 X149.124 Y120.998 E18.06955
G1 X149.567 Y121.754 E18.1395
G1 X149.644 Y121.896 E18.15239
G1 X150.047 Y122.715 E18.22526
G1 X150.103 Y122.841 E18.23626
G1 X150.445 Y123.686 E18.30903
G1 X150.504 Y123.851 E18.32302
G1 X150.776 Y124.698 E18.39403
G1 X150.822 Y124.86 E18.40747
G1 X151.034 Y125.734 E18.47926
G1 X151.067 Y125.892 E18.49215
G1 X151.215 Y126.784 E18.56432
G1 X151.239 Y126.97 E18.57929
G1 X151.321 Y127.854 E18.65016
G1 X151.329 Y128.006 E18.66231
G1 X151.35 Y128.739 E18.72085
G1 X151.35 Y131.66 E18.95401
G1 X151.314 Y132.666 E19.03437
G1 X151.304 Y132.801 E19.04517
G1 X151.202 Y133.718 E19.11882
G1 X151.177 Y133.893 E19.13293
G1 X151.015 Y134.771 E19.2042
G1 X150.985 Y134.905 E19.21516
G1 X150.754 Y135.79 E19.28818
G1 X150.702 Y135.962 E19.30252
G1 X150.415 Y136.804 E19.37353
G1 X150.352 Y136.97 E19.3877
G1 X150.011 Y137.773 E19.45734
G1 X149.93 Y137.948 E19.47273
G1 X149.449 Y138.873 E19.55596
G1 X148.974 Y139.652 E19.62879
G1 X148.874 Y139.803 E19.64325
G1 X148.363 Y140.517 E19.71333
G1 X148.25 Y140.665 E19.7282
G1 X147.577 Y141.465 E19.81165
G1 X146.938 Y142.133 E19.88544
G1 X146.253 Y142.769 E19.96005
G1 X146.105 Y142.896 E19.97562
G1 X145.412 Y143.452 E20.04654
G1 X145.273 Y143.556 E20.0604
G1 X144.558 Y144.049 E20.12973
G1 X144.374 Y144.165 E20.14709
G1 X143.618 Y144.608 E20.21703
G1 X143.476 Y144.685 E20.22993
G1 X142.531 Y145.144 E20.31379
G1 X141.676 Y145.489 E20.38739
G1 X141.513 Y145.547 E20.4012
G1 X140.67 Y145.818 E20.47188
G1 X140.506 Y145.864 E20.48548
G1 X139.634 Y146.076 E20.55711
G1 X139.472 Y146.109 E20.57031
G1 X138.579 Y146.257 E20.64256
G1 X138.402 Y146.28 E20.65681
G1 X137.508 Y146.363 E20.72848
G1 X137.366 Y146.37 E20.73983
G1 X136.625 Y146.391 E20.799
G1 X127.047 Y146.39 E21.56356
G1 X126.043 Y146.354 E21.64376
G1 X125.868 Y146.341 E21.65776
G1 X125.01 Y146.348 E21.72626
G1 X124.858 Y146.363 E21.73845
G1 X124.723 Y146.37 E21.74924
G1 X123.979 Y146.391 E21.80865
G1 X114.054 Y146.383 E22.60091
G1 X113.564 Y146.391 E22.64003
G1 X86.948 Y146.39 E24.76463
G1 X86.741 Y146.383 E24.78116
G1 X86.402 Y146.382 E24.80822
G1 X86.011 Y146.391 E24.83944
G1 X73.411 Y146.39 E25.84523
G1 X72.287 Y146.345 E25.93503
G1 X71.37 Y146.243 E26.00868
G1 X71.195 Y146.218 E26.02279
G1 X70.306 Y146.054 E26.09495
G1 X70.183 Y146.026 E26.10502
G1 X69.289 Y145.792 E26.17878
G1 X69.126 Y145.743 E26.19237
G1 X68.284 Y145.456 E26.26338
G1 X68.118 Y145.393 E26.27755
G1 X67.315 Y145.052 E26.34719
G1 X67.126 Y144.964 E26.36383
G1 X66.215 Y144.49 E26.44581
G1 X65.436 Y144.015 E26.51864
G1 X65.285 Y143.915 E26.5331
G1 X64.571 Y143.404 E26.60318
G1 X64.423 Y143.291 E26.61805
G1 X63.623 Y142.618 E26.7015
G1 X63.112 Y142.135 E26.75763
G1 X62.904 Y141.928 E26.78105
G1 X62.26 Y141.234 E26.85663
G1 X62.143 Y141.097 E26.87101
G1 X61.589 Y140.406 E26.94171
G1 X61.485 Y140.267 E26.95556
G1 X60.992 Y139.552 E27.02489
G1 X60.876 Y139.368 E27.04225
G1 X60.433 Y138.612 E27.1122
G1 X60.356 Y138.47 E27.12509
G1 X59.897 Y137.525 E27.20895
G1 X59.549 Y136.664 E27.28308
G1 X59.492 Y136.503 E27.29672
G1 X59.22 Y135.655 E27.3678
G1 X59.174 Y135.491 E27.3814
G1 X58.963 Y134.619 E27.45302
G1 X58.93 Y134.458 E27.46614
G1 X58.783 Y133.568 E27.53814
G1 X58.761 Y133.396 E27.55198
G1 X58.678 Y132.497 E27.62405
G1 X58.671 Y132.36 E27.635
G1 X58.65 Y131.627 E27.69354
G1 X58.65 Y78.388 E31.9433
G1 X58.696 Y77.246 E32.03454
G1 X58.798 Y76.329 E32.10819
G1 X58.823 Y76.154 E32.1223
G1 X58.985 Y75.276 E32.19357
G1 X59.015 Y75.142 E32.20453
G1 X59.246 Y74.257 E32.27754
G1 X59.298 Y74.085 E32.29188
G1 X59.585 Y73.243 E32.36289
G1 X59.648 Y73.077 E32.37707
G1 X59.989 Y72.274 E32.4467
G1 X60.07 Y72.099 E32.4621
G1 X60.551 Y71.174 E32.54532
G1 X61.017 Y70.409 E32.61682
G1 X61.141 Y70.223 E32.63467
G1 X61.637 Y69.53 E32.7027
G1 X61.75 Y69.382 E32.71756
G1 X62.423 Y68.582 E32.80101
G1 X62.906 Y68.071 E32.85714
G1 X63.109 Y67.867 E32.88011
M204 S3000
M205 X10 Y10
G0 F6000 X62.4 Y68.609
M204 S1800
M205 X8 Y8
G1 F1125 X62.4 Y141.384 E38.68933
M204 S3000
M205 X10 Y10
G0 F6000 X64 Y142.935
M204 S1800
M205 X8 Y8
G1 F1125 X64 Y67.057 E44.74624
M204 S3000
M205 X10 Y10
G0 F6000 X65.6 Y65.881
M204 S1800
M205 X8 Y8
G1 F1125 X65.6 Y144.115 E50.99121
M204 S3000
M205 X10 Y10
G0 F6000 X67.2 Y144.998
M204 S1800
M205 X8 Y8
G1 F1125 X67.2 Y65.009 E57.37628
M204 S3000
M205 X10 Y10
G0 F6000 X68.8 Y64.367
M204 S1800
M205 X8 Y8
G1 F1125 X68.8 Y145.631 E63.86312
M204 S3000
M205 X10 Y10
G0 F6000 X70.4 Y146.071
M204 S1800
M205 X8 Y8
G1 F1125 X70.4 Y63.927 E70.42021
M204 S3000
M205 X10 Y10
G0 F6000 X72 Y63.687
M204 S1800
M205 X8 Y8
G1 F1125 X72 Y146.313 E77.01578
M204 S3000
M205 X10 Y10
G0 F6000 X73.6 Y146.39
M204 S1800
M205 X8 Y8
G1 F1125 X73.6 Y63.61 E83.62364
M204 S3000
M205 X10 Y10
G0 F6000 X75.2 Y63.611
M204 S1800
M205 X8 Y8
G1 F1125 X75.2 Y146.39 E90.23141
M204 S3000
M205 X10 Y10
G0 F6000 X76.8 Y146.39
M204 S1800
M205 X8 Y8
G1 F1125 X76.8 Y63.612 E96.83911
M204 S3000
M205 X10 Y10
G0 F6000 X78.4 Y63.613
M204 S1800
M205 X8 Y8
G1 F1125 X78.4 Y146.39 E103.44673
M204 S3000
M205 X10 Y10
G0 F6000 X80 Y146.39
M204 S1800
M205 X8 Y8
G1 F1125 X80 Y63.614 E110.05427
M204 S3000
M205 X10 Y10
G0 F6000 X81.6 Y63.615
M204 S1800
M205 X8 Y8
G1 F1125 X81.6 Y146.39 E116.66173
M204 S3000
M205 X10 Y10
G0 F6000 X83.2 Y146.39
M204 S1800
M205 X8 Y8
G1 F1125 X83.2 Y63.615 E123.26918
M204 S3000
M205 X10 Y10
G0 F6000 X84.8 Y63.616
M204 S1800
M205 X8 Y8
G1 F1125 X84.8 Y146.39 E129.87656
M204 S3000
M205 X10 Y10
G0 F6000 X86.4 Y146.383
M204 S1800
M205 X8 Y8
G1 F1125 X86.4 Y63.617 E136.4833
M204 S3000
M205 X10 Y10
G0 F6000 X88 Y63.61
M204 S1800
M205 X8 Y8
G1 F1125 X88 Y146.39 E143.09116
M204 S3000
M205 X10 Y10
G0 F6000 X89.6 Y146.39
M204 S1800
M205 X8 Y8
G1 F1125 X89.6 Y63.61 E149.69902
M204 S3000
M205 X10 Y10
G0 F6000 X91.2 Y63.61
M204 S1800
M205 X8 Y8
G1 F1125 X91.2 Y146.39 E156.30688
M204 S3000
M205 X10 Y10
G0 F6000 X92.8 Y146.39
M204 S1800
M205 X8 Y8
G1 F1125 X92.8 Y63.61 E162.91473
M204 S3000
M205 X10 Y10
G0 F6000 X94.4 Y63.61
M204 S1800
M205 X8 Y8
G1 F1125 X94.4 Y146.39 E169.52259
M204 S3000
M205 X10 Y10
G0 F6000 X96 Y146.39
M204 S1800
M205 X8 Y8
G1 F1125 X96 Y63.61 E176.13045
M204 S3000
M205 X10 Y10
G0 F6000 X97.6 Y63.61
M204 S1800
M205 X8 Y8
G1 F1125 X97.6 Y146.39 E182.73831
M204 S3000
M205 X10 Y10
G0 F6000 X99.2 Y146.39
M204 S1800
M205 X8 Y8
G1 F1125 X99.2 Y63.61 E189.34616
M204 S3000
M205 X10 Y10
G0 F6000 X100.8 Y63.61
M204 S1800
M205 X8 Y8
G1 F1125 X100.8 Y99.759 E192.23173
M204 S3000
M205 X10 Y10
G0 F6000 X102.4 Y97.328
M204 S1800
M205 X8 Y8
G1 F1125 X102.4 Y63.61 E194.92325
M204 S3000
M205 X10 Y10
G0 F6000 X104 Y63.61
M204 S1800
M205 X8 Y8
G1 F1125 X104 Y96.353 E197.53694
M204 S3000
M205 X10 Y10
G0 F6000 X105.6 Y96.007
M204 S1800
M205 X8 Y8
G1 F1125 X105.6 Y63.61 E200.12301
M204 S3000
M205 X10 Y10
G0 F6000 X107.2 Y63.61
M204 S1800
M205 X8 Y8
G1 F1125 X107.2 Y95.985 E202.70732
M204 S3000
M205 X10 Y10
G0 F6000 X108.8 Y95.985
M204 S1800
M205 X8 Y8
G1 F1125 X108.8 Y63.61 E205.29163
M204 S3000
M205 X10 Y10
G0 F6000 X110.4 Y63.61
M204 S1800
M205 X8 Y8
G1 F1125 X110.4 Y95.985 E207.87594
M204 S3000
M205 X10 Y10
G0 F6000 X112 Y95.985
M204 S1800
M205 X8 Y8
G1 F1125 X112 Y63.61 E210.46026
M204 S3000
M205 X10 Y10
G0 F6000 X113.6 Y63.61
M204 S1800
M205 X8 Y8
G1 F1125 X113.6 Y95.985 E213.04457
M204 S3000
M205 X10 Y10
G0 F6000 X115.2 Y95.977
M204 S1800
M205 X8 Y8
G1 F1125 X115.2 Y63.61 E215.62824
M204 S3000
M205 X10 Y10
G0 F6000 X116.8 Y63.61
M204 S1800
M205 X8 Y8
G1 F1125 X116.8 Y95.979 E218.21208
M204 S3000
M205 X10 Y10
G0 F6000 X118.4 Y95.98
M204 S1800
M205 X8 Y8
G1 F1125 X118.4 Y63.61 E220.79599
M204 S3000
M205 X10 Y10
G0 F6000 X120 Y63.61
M204 S1800
M205 X8 Y8
G1 F1125 X120 Y95.981 E223.37998
M204 S3000
M205 X10 Y10
G0 F6000 X121.6 Y95.983
M204 S1800
M205 X8 Y8
G1 F1125 X121.6 Y63.61 E225.96414
M204 S3000
M205 X10 Y10
G0 F6000 X123.2 Y63.61
M204 S1800
M205 X8 Y8
G1 F1125 X123.2 Y95.984 E228.54837
M204 S3000
M205 X10 Y10
G0 F6000 X124.8 Y96.034
M204 S1800
M205 X8 Y8
G1 F1125 X124.8 Y63.64 E231.1342
M204 S3000
M205 X10 Y10
G0 F6000 X126.4 Y63.63
M204 S1800
M205 X8 Y8
G1 F1125 X126.4 Y96.488 E233.75707
M204 S3000
M205 X10 Y10
G0 F6000 X128 Y97.208
M204 S1800
M205 X8 Y8
G1 F1125 X128 Y63.61 E236.439
