;FLAVOR:Marlin
;TIME:3513
;Filament used: 3.21096m
;Layer height: 0.2
;MINX:62.581
;MINY:62.456
;MINZ:0.24
;MAXX:122.82
;MAXY:127.195
;MAXZ:41.09
;POSTPROCESSED
;ChangeAtZ instances: 1
;Generated with Cura_SteamEngine 4.4.1
M140 S80
M105
M190 S80
M104 S200
M105
M109 S200
M82 ;absolute extrusion mode
G21 ;metric values
G90 ;absolute positioning
M82 ;set extruder to absolute mode
M107 ;start with the fan off
G28 X0 Y0 ;move X/Y to min endstops
G28 Z0 ;move Z to min endstops
G1 Z15.0 F100 ;move the platform down 15mm
G92 E0 ;zero the extruded length
G1 F200 E3 ;extrude 3mm of feed stock
G92 E0 ;zero the extruded length again
G1 F100
G0 Y20 F100
M117 Printing...
G5
G92 E0
G92 E0
G1 F4200 E-6
;LAYER_COUNT:200
;LAYER:-6
M107
M204 S3000
M205 X10 Y10
G0 F6000 X81.044 Y70.96 Z0.24
M204 S1800
M205 X8 Y8
;TYPE:SUPPORT-INTERFACE
G1 F4200 E0
G1 F1012.5 X81.551 Y70.383 E0.06131
G1 X82.434 Y69.464 E0.16305
G1 X82.983 Y68.938 E0.22374
G1 X84.037 Y68.019 E0.33536
G1 X84.604 Y67.567 E0.39324
G1 X85.701 Y66.771 E0.50144
G1 X86.337 Y66.351 E0.56228
G1 X87.443 Y65.686 E0.66529
G1 X88.155 Y65.303 E0.72983
G1 X89.335 Y64.732 E0.83447
G1 X90.058 Y64.422 E0.89726
G1 X91.264 Y63.964 E1.00024
G1 X92.037 Y63.711 E1.06516
G1 X93.287 Y63.361 E1.16878
G1 X94.05 Y63.183 E1.23132
G1 X95.345 Y62.941 E1.33649
G1 X96.108 Y62.833 E1.398
G1 X97.448 Y62.706 E1.50544
G1 X98.203 Y62.668 E1.56579
G1 X99.52 Y62.659 E1.67092
G1 X100.286 Y62.686 E1.7321
G1 X101.634 Y62.797 E1.84007
G1 X102.436 Y62.902 E1.90463
G1 X103.722 Y63.125 E2.00882
G1 X104.448 Y63.285 E2.06816
G1 X105.768 Y63.636 E2.17719
G1 X106.499 Y63.868 E2.23841
G1 X107.672 Y64.295 E2.33806
G1 X108.401 Y64.597 E2.40104
G1 X109.644 Y65.178 E2.51057
G1 X110.326 Y65.537 E2.57209
G1 X111.463 Y66.198 E2.67707
G1 X112.098 Y66.606 E2.73732
G1 X113.191 Y67.379 E2.84419
G1 X113.823 Y67.872 E2.90817
G1 X114.825 Y68.725 E3.01321
G1 X115.41 Y69.272 E3.07714
G1 X116.32 Y70.2 E3.18089
G1 X116.852 Y70.795 E3.2446
G1 X117.678 Y71.799 E3.34838
G1 X118.13 Y72.402 E3.40854
G1 X118.863 Y73.475 E3.51227
G1 X119.284 Y74.153 E3.57598
G1 X119.938 Y75.322 E3.6829
G1 X120.308 Y76.064 E3.74909
G1 X120.817 Y77.205 E3.84882
G1 X121.102 Y77.921 E3.91033
G1 X121.534 Y79.171 E4.0159
G1 X121.756 Y79.924 E4.07857
G1 X122.079 Y81.224 E4.1855
G1 X122.234 Y82 E4.24866
G1 X122.433 Y83.288 E4.3527
G1 X122.518 Y84.054 E4.41422
G1 X122.604 Y85.345 E4.5175
G1 X122.621 Y86.137 E4.58073
G1 X122.592 Y87.447 E4.68533
G1 X122.54 Y88.231 E4.74805
G1 X122.385 Y89.595 E4.85763
G1 X122.261 Y90.367 E4.92005
G1 X122.008 Y91.609 E5.02122
G1 X121.808 Y92.399 E5.08627
G1 X121.436 Y93.647 E5.19023
G1 X121.177 Y94.387 E5.25281
G1 X120.711 Y95.562 E5.35371
G1 X120.361 Y96.335 E5.42144
G1 X119.767 Y97.509 E5.52647
G1 X119.399 Y98.162 E5.5863
G1 X118.968 Y98.856 E5.65152
G1 X118.651 Y99.448 E5.70512
G1 X118.408 Y100.085 E5.75954
G1 X118.245 Y100.753 E5.81443
G1 X118.164 Y101.674 E5.88823
G1 X118.164 Y112.381 E6.74291
G1 X118.128 Y113.387 E6.82327
G1 X118.118 Y113.522 E6.83407
G1 X118.016 Y114.439 E6.90772
G1 X117.991 Y114.614 E6.92183
G1 X117.829 Y115.492 E6.9931
G1 X117.799 Y115.626 E7.00406
G1 X117.568 Y116.511 E7.07707
G1 X117.516 Y116.683 E7.09142
G1 X117.229 Y117.525 E7.16243
G1 X117.166 Y117.691 E7.1766
G1 X116.825 Y118.494 E7.24624
G1 X116.744 Y118.669 E7.26163
G1 X116.328 Y119.477 E7.33418
G1 X115.788 Y120.373 E7.41768
G1 X115.688 Y120.524 E7.43214
G1 X115.177 Y121.238 E7.50223
G1 X115.064 Y121.386 E7.51709
G1 X114.488 Y122.077 E7.5889
G1 X114.387 Y122.19 E7.601
G1 X113.762 Y122.839 E7.67292
G1 X113.637 Y122.959 E7.68675
G1 X112.967 Y123.561 E7.75865
G1 X112.85 Y123.658 E7.77079
G1 X112.138 Y124.208 E7.8426
G1 X111.979 Y124.321 E7.85817
G1 X111.241 Y124.811 E7.92889
G1 X111.115 Y124.887 E7.94063
G1 X110.321 Y125.333 E8.01333
G1 X110.17 Y125.411 E8.02689
G1 X109.356 Y125.794 E8.0987
G1 X109.213 Y125.854 E8.11108
G1 X108.354 Y126.183 E8.18451
G1 X108.204 Y126.235 E8.19718
G1 X107.354 Y126.49 E8.26802
G1 X107.181 Y126.536 E8.28231
G1 X106.286 Y126.737 E8.35553
G1 X106.156 Y126.76 E8.36607
G1 X105.251 Y126.894 E8.4391
G1 X105.083 Y126.912 E8.45259
G1 X104.009 Y126.987 E8.53853
G1 X103.504 Y126.995 E8.57884
G1 X94.63 Y126.994 E9.2872
G1 X93.506 Y126.949 E9.377
G1 X92.589 Y126.847 E9.45065
G1 X92.414 Y126.822 E9.46476
G1 X91.525 Y126.658 E9.53692
G1 X91.402 Y126.63 E9.54699
G1 X90.508 Y126.396 E9.62076
G1 X90.345 Y126.347 E9.63434
G1 X89.503 Y126.06 E9.70535
G1 X89.337 Y125.997 E9.71953
G1 X88.534 Y125.656 E9.78917
G1 X88.345 Y125.568 E9.80581
G1 X87.434 Y125.094 E9.88778
G1 X86.655 Y124.619 E9.96061
G1 X86.504 Y124.519 E9.97507
G1 X85.79 Y124.008 E10.04516
G1 X85.642 Y123.895 E10.06002
G1 X84.951 Y123.319 E10.13183
G1 X84.838 Y123.218 E10.14393
G1 X84.188 Y122.592 E10.21596
G1 X84.053 Y122.452 E10.23149
G1 X83.426 Y121.753 E10.30644
G1 X82.948 Y121.284 E10.3599
G1 X82.405 Y120.87 E10.4144
G1 X81.813 Y120.53 E10.4689
G1 X81.183 Y120.265 E10.52346
G1 X80.531 Y120.085 E10.57745
G1 X80.008 Y119.997 E10.61978
G1 X78.668 Y119.75 E10.72855
G1 X78.172 Y119.634 E10.76921
G1 X76.923 Y119.286 E10.87271
G1 X76.457 Y119.132 E10.91189
G1 X75.162 Y118.639 E11.0225
G1 X74.698 Y118.437 E11.06289
G1 X73.533 Y117.867 E11.16642
G1 X73.093 Y117.626 E11.20647
G1 X71.909 Y116.908 E11.317
G1 X71.492 Y116.625 E11.35723
G1 X70.343 Y115.769 E11.4716
G1 X69.962 Y115.454 E11.51106
G1 X69 Y114.589 E11.61433
G1 X68.64 Y114.233 E11.65475
G1 X67.729 Y113.254 E11.7615
G1 X67.399 Y112.862 E11.8024
G1 X66.591 Y111.815 E11.90797
G1 X66.325 Y111.433 E11.94513
G1 X65.608 Y110.314 E12.05121
G1 X65.361 Y109.881 E12.09101
G1 X64.728 Y108.66 E12.20079
G1 X64.517 Y108.196 E12.24148
G1 X64.02 Y106.971 E12.347
G1 X63.854 Y106.496 E12.38717
G1 X63.469 Y105.239 E12.49211
G1 X63.352 Y104.778 E12.53008
G1 X63.078 Y103.461 E12.63746
G1 X63.001 Y102.974 E12.67681
G1 X62.845 Y101.628 E12.78498
G1 X62.812 Y101.122 E12.82545
G1 X62.781 Y99.801 E12.93093
G1 X62.796 Y99.261 E12.97405
G1 X62.886 Y97.927 E13.08078
G1 X62.946 Y97.422 E13.12137
G1 X63.152 Y96.145 E13.22463
G1 X63.253 Y95.659 E13.26425
G1 X63.597 Y94.312 E13.37523
G1 X63.737 Y93.857 E13.41323
G1 X64.207 Y92.537 E13.52507
G1 X64.397 Y92.077 E13.5648
G1 X64.962 Y90.864 E13.67162
G1 X65.189 Y90.43 E13.71071
G1 X65.85 Y89.288 E13.81604
G1 X66.105 Y88.892 E13.85364
G1 X66.9 Y87.768 E13.96354
G1 X67.224 Y87.356 E14.00538
G1 X68.074 Y86.361 E14.10984
G1 X68.387 Y86.027 E14.14637
G1 X69.053 Y85.36 E14.22161
G1 X69.17 Y85.25 E14.23443
G1 X69.801 Y84.699 E14.3013
G1 X70.521 Y84.105 E14.37581
G1 X71.295 Y83.512 E14.45364
G1 X71.445 Y83.404 E14.4684
G1 X72.129 Y82.95 E14.53393
G1 X72.602 Y82.66 E14.57822
G1 X73.718 Y82.036 E14.68028
G1 X73.956 Y81.916 E14.70156
G1 X74.534 Y81.576 E14.75509
G1 X75.074 Y81.159 E14.80955
G1 X75.556 Y80.676 E14.86402
G1 X75.976 Y80.137 E14.91856
G1 X76.324 Y79.546 E14.97331
G1 X76.632 Y78.805 E15.03737
G1 X76.824 Y78.228 E15.08591
G1 X77.105 Y77.492 E15.1488
G1 X77.629 Y76.279 E15.25427
G1 X77.966 Y75.587 E15.31571
G1 X78.595 Y74.429 E15.4209
G1 X79.03 Y73.71 E15.48799
G1 X79.711 Y72.681 E15.58648
G1 X80.172 Y72.048 E15.64899
G1 X81.044 Y70.96 E15.76029
M204 S3000
M205 X10 Y10
G0 F6000 X81.6 Y70.332
M204 S1800
M205 X8 Y8
G1 F1012.5 X81.6 Y120.44 E19.76013
M204 S3000
M205 X10 Y10
G0 F6000 X80 Y119.995
M204 S1800
M205 X8 Y8
G1 F1012.5 X80 Y72.284 E23.56863
M204 S3000
M205 X10 Y10
G0 F6000 X78.4 Y74.787
M204 S1800
M205 X8 Y8
G1 F1012.5 X78.4 Y119.687 E27.15274
M204 S3000
M205 X10 Y10
G0 F6000 X76.8 Y119.245
M204 S1800
M205 X8 Y8
G1 F1012.5 X76.8 Y78.3 E30.42115
M204 S3000
M205 X10 Y10
G0 F6000 X75.2 Y81.032
M204 S1800
M205 X8 Y8
G1 F1012.5 X75.2 Y118.653 E33.42422
M204 S3000
M205 X10 Y10
G0 F6000 X73.6 Y117.899
M204 S1800
M205 X8 Y8
G1 F1012.5 X73.6 Y82.101 E36.28177
M204 S3000
M205 X10 Y10
G0 F6000 X72 Y83.035
M204 S1800
M205 X8 Y8
G1 F1012.5 X72 Y116.963 E38.99005
M204 S3000
M205 X10 Y10
G0 F6000 X70.4 Y115.811
M204 S1800
M205 X8 Y8
G1 F1012.5 X70.4 Y84.204 E41.51306
M204 S3000
M205 X10 Y10
G0 F6000 X68.8 Y85.613
M204 S1800
M205 X8 Y8
G1 F1012.5 X68.8 Y114.391 E43.81024
M204 S3000
M205 X10 Y10
G0 F6000 X67.2 Y112.604
M204 S1800
M205 X8 Y8
G1 F1012.5 X67.2 Y87.386 E45.82325
M204 S3000
M205 X10 Y10
G0 F6000 X65.6 Y89.719
M204 S1800
M205 X8 Y8
G1 F1012.5 X65.6 Y110.299 E47.46604
M204 S3000
M205 X10 Y10
G0 F6000 X64 Y106.913
M204 S1800
M205 X8 Y8
G1 F1012.5 X64 Y93.118 E48.56721
M204 S3000
M205 X10 Y10
G0 F6000 X75.593 Y79.879
G0 X83.2 Y68.748
M204 S1800
M205 X8 Y8
G1 F1012.5 X83.2 Y121.531 E52.78058
M204 S3000
M205 X10 Y10
G0 F6000 X84.8 Y123.181
M204 S1800
M205 X8 Y8
G1 F1012.5 X84.8 Y67.424 E57.23134
M204 S3000
M205 X10 Y10
G0 F6000 X86.4 Y66.313
M204 S1800
M205 X8 Y8
G1 F1012.5 X86.4 Y124.444 E61.87161
M204 S3000
M205 X10 Y10
G0 F6000 X88 Y125.388
M204 S1800
M205 X8 Y8
G1 F1012.5 X88 Y65.386 E66.66123
M204 S3000
M205 X10 Y10
G0 F6000 X89.6 Y64.618
M204 S1800
M205 X8 Y8
G1 F1012.5 X89.6 Y126.093 E71.56843
M204 S3000
M205 X10 Y10
G0 F6000 X91.2 Y126.577
M204 S1800
M205 X8 Y8
G1 F1012.5 X91.2 Y63.988 E76.56456
M204 S3000
M205 X10 Y10
G0 F6000 X92.8 Y63.497
M204 S1800
M205 X8 Y8
G1 F1012.5 X92.8 Y126.87 E81.62326
M204 S3000
M205 X10 Y10
G0 F6000 X94.4 Y126.984
M204 S1800
M205 X8 Y8
G1 F1012.5 X94.4 Y63.117 E86.7214
M204 S3000
M205 X10 Y10
G0 F6000 X96 Y62.848
M204 S1800
M205 X8 Y8
G1 F1012.5 X96 Y126.994 E91.84181
M204 S3000
M205 X10 Y10
G0 F6000 X97.6 Y126.994
M204 S1800
M205 X8 Y8
G1 F1012.5 X97.6 Y62.698 E96.9742
M204 S3000
M205 X10 Y10
G0 F6000 X99.2 Y62.661
M204 S1800
M205 X8 Y8
G1 F1012.5 X99.2 Y126.994 E102.10954
M204 S3000
M205 X10 Y10
G0 F6000 X100.8 Y126.994
M204 S1800
M205 X8 Y8
G1 F1012.5 X100.8 Y62.729 E107.23945
M204 S3000
M205 X10 Y10
G0 F6000 X102.4 Y62.898
M204 S1800
M205 X8 Y8
G1 F1012.5 X102.4 Y126.994 E112.35587
M204 S3000
M205 X10 Y10
G0 F6000 X104 Y126.988
M204 S1800
M205 X8 Y8
G1 F1012.5 X104 Y63.187 E117.44874
M204 S3000
M205 X10 Y10
G0 F6000 X105.6 Y63.592
M204 S1800
M205 X8 Y8
G1 F1012.5 X105.6 Y126.843 E122.49771
M204 S3000
M205 X10 Y10
G0 F6000 X107.2 Y126.531
M204 S1800
M205 X8 Y8
G1 F1012.5 X107.2 Y64.124 E127.4793
M204 S3000
M205 X10 Y10
G0 F6000 X108.8 Y64.784
M204 S1800
M205 X8 Y8
G1 F1012.5 X108.8 Y126.013 E132.36687
M204 S3000
M205 X10 Y10
G0 F6000 X110.4 Y125.289
M204 S1800
M205 X8 Y8
G1 F1012.5 X110.4 Y65.581 E137.13302
M204 S3000
M205 X10 Y10
G0 F6000 X112 Y66.544
M204 S1800
M205 X8 Y8
G1 F1012.5 X112 Y124.307 E141.74391
M204 S3000
M205 X10 Y10
G0 F6000 X113.6 Y122.993
M204 S1800
M205 X8 Y8
G1 F1012.5 X113.6 Y67.699 E146.15772
M204 S3000
M205 X10 Y10
G0 F6000 X115.2 Y69.076
M204 S1800
M205 X8 Y8
G1 F1012.5 X115.2 Y121.206 E150.31896
M204 S3000
M205 X10 Y10
G0 F6000 X116.8 Y118.549
M204 S1800
M205 X8 Y8
G1 F1012.5 X116.8 Y70.737 E154.13552
M204 S3000
M205 X10 Y10
G0 F6000 X118.4 Y72.798
M104 S180
M204 S1800
M205 X8 Y8
G1 F1012.5 X118.4 Y100.118 E156.31632
M204 S3000
M205 X10 Y10
G0 F6000 X120 Y97.049
M204 S1800
M205 X8 Y8
G1 F1012.5 X120 Y75.447 E158.04068
M204 S3000
M205 X10 Y10
G0 F6000 X121.6 Y79.395
M204 S1800
M205 X8 Y8
G1 F1012.5 X121.6 Y93.097 E159.13444
M204 S3000
M205 X10 Y10
G0 F600 X121.6 Y93.097 Z0.54
G0 F6000 X118.862 Y73.474
;TIME_ELAPSED:123.828002
;LAYER:-5
M140 S70
M204 S1800
M205 X8 Y8
;TYPE:SUPPORT
G1 F1012.5 X118.129 Y72.402 E159.26402
G1 X117.677 Y71.798 E159.33929
G1 X116.851 Y70.794 E159.46902
G1 X116.319 Y70.2 E159.54858
G1 X115.409 Y69.271 E159.67834
G1 X114.824 Y68.725 E159.75819
G1 X113.822 Y67.871 E159.88955
G1 X113.19 Y67.379 E159.96947
G1 X112.096 Y66.605 E160.10319
G1 X111.462 Y66.197 E160.17842
G1 X111.439 Y66.184 E160.18105
G1 X119.08 Y73.825 E161.25928
G1 X119.283 Y74.152 E161.29768
G1 X119.937 Y75.321 E161.43134
G1 X120.307 Y76.063 E161.51407
G1 X120.632 Y76.791 E161.59362
G1 X108.47 Y64.629 E163.30981
G1 X108.4 Y64.597 E163.31749
G1 X107.671 Y64.295 E163.39623
G1 X106.498 Y63.868 E163.52078
G1 X106.2 Y63.773 E163.55199
G1 X121.5 Y79.073 E165.71099
G1 X121.533 Y79.17 E165.72121
G1 X121.755 Y79.924 E165.79964
G1 X122.026 Y81.013 E165.91161
G1 X104.255 Y63.242 E168.41929
G1 X103.721 Y63.124 E168.47386
G1 X102.514 Y62.916 E168.59607
G1 X122.349 Y82.751 E171.395
G1 X122.432 Y83.287 E171.44912
G1 X122.517 Y84.053 E171.52602
G1 X122.538 Y84.354 E171.55613
G1 X100.922 Y62.738 E174.60638
G1 X100.285 Y62.685 E174.67016
G1 X99.518 Y62.658 E174.74674
G1 X99.429 Y62.659 E174.75562
G1 X122.615 Y85.845 E178.02742
G1 X122.62 Y86.136 E178.05646
G1 X122.596 Y87.241 E178.16674
G1 X98.031 Y62.676 E181.63313
G1 X97.447 Y62.705 E181.69147
G1 X96.716 Y62.775 E181.76474
G1 X122.502 Y88.56 E185.40336
G1 X122.384 Y89.594 E185.5072
G1 X122.348 Y89.821 E185.53013
G1 X95.453 Y62.926 E189.32531
G1 X95.344 Y62.94 E189.33627
G1 X94.257 Y63.144 E189.44663
G1 X122.128 Y91.015 E193.37953
G1 X122.007 Y91.609 E193.44001
G1 X121.866 Y92.167 E193.49744
G1 X93.109 Y63.411 E197.55529
G1 X92.036 Y63.711 E197.66646
G1 X92.005 Y63.721 E197.66971
G1 X121.549 Y93.265 E201.83869
G1 X121.434 Y93.647 E201.8785
G1 X121.197 Y94.327 E201.95035
G1 X90.952 Y64.082 E206.21825
G1 X90.057 Y64.421 E206.31374
G1 X89.931 Y64.476 E206.32746
G1 X120.798 Y95.342 E210.68306
G1 X120.71 Y95.561 E210.70661
G1 X120.365 Y96.324 E210.79016
G1 X88.956 Y64.915 E215.22231
G1 X88.154 Y65.303 E215.31121
G1 X88.009 Y65.381 E215.32763
G1 X119.891 Y97.263 E219.82653
G1 X119.766 Y97.509 E219.85406
G1 X119.397 Y98.161 E219.92882
G1 X119.389 Y98.176 E219.93051
G1 X87.103 Y65.89 E224.48641
G1 X86.336 Y66.35 E224.57566
G1 X86.223 Y66.424 E224.58913
G1 X118.858 Y99.06 E229.19435
G1 X118.65 Y99.448 E229.23828
G1 X118.424 Y100.04 E229.30151
G1 X85.385 Y67 E233.96374
G1 X84.603 Y67.567 E234.06012
G1 X84.567 Y67.596 E234.06473
G1 X118.202 Y101.231 E238.81099
G1 X118.163 Y101.673 E238.85527
G1 X118.163 Y102.606 E238.94836
G1 X83.79 Y68.233 E243.79877
G1 X83.034 Y68.892 E243.89884
G1 X118.163 Y104.021 E248.85592
G1 X118.163 Y105.435 E248.99701
G1 X82.315 Y69.587 E254.05555
G1 X81.621 Y70.307 E254.15533
G1 X118.163 Y106.849 E259.3118
G1 X118.163 Y108.263 E259.45289
G1 X80.961 Y71.062 E264.70242
G1 X80.331 Y71.846 E264.80278
G1 X118.163 Y109.677 E270.14121
G1 X118.163 Y111.092 E270.2824
G1 X79.727 Y72.656 E275.70614
G1 X79.71 Y72.681 E275.70915
G1 X79.163 Y73.506 E275.80792
G1 X118.158 Y112.502 E281.31061
G1 X118.127 Y113.386 E281.39887
G1 X118.117 Y113.522 E281.41247
G1 X118.082 Y113.839 E281.4443
G1 X78.623 Y74.38 E287.01239
G1 X78.594 Y74.429 E287.01807
G1 X78.123 Y75.294 E287.11635
G1 X117.905 Y115.076 E292.73002
G1 X117.828 Y115.491 E292.77213
G1 X117.798 Y115.626 E292.78593
G1 X117.641 Y116.227 E292.84791
G1 X77.649 Y76.235 E298.49121
G1 X77.628 Y76.279 E298.49608
G1 X77.221 Y77.221 E298.59847
G1 X117.304 Y117.304 E304.25461
G1 X117.229 Y117.524 E304.27781
G1 X117.165 Y117.69 E304.29556
G1 X116.901 Y118.315 E304.36326
G1 X76.821 Y78.235 E310.01898
G1 X76.631 Y78.804 E310.07883
G1 X76.438 Y79.267 E310.12888
G1 X116.437 Y119.265 E315.77311
G1 X116.328 Y119.476 E315.7968
G1 X115.916 Y120.159 E315.87639
G1 X75.939 Y80.182 E321.51758
G1 X75.555 Y80.675 E321.57993
G1 X75.287 Y80.943 E321.61775
G1 X115.345 Y121.002 E327.27044
G1 X115.177 Y121.236 E327.29918
G1 X115.063 Y121.385 E327.3179
G1 X114.723 Y121.794 E327.37097
G1 X74.515 Y81.586 E333.04475
G1 X73.956 Y81.915 E333.10947
G1 X73.718 Y82.034 E333.13602
G1 X73.61 Y82.095 E333.1484
G1 X114.052 Y122.538 E338.85527
G1 X113.762 Y122.838 E338.89691
G1 X113.637 Y122.958 E338.9142
G1 X113.332 Y123.231 E338.95504
G1 X72.703 Y82.602 E344.68823
