;FLAVOR:Marlin
;TIME:9171
;Filament used: 6.86879m
;Layer height: 0.2
;MINX:79.101
;MINY:84.541
;MINZ:0.2
;MAXX:134.729
;MAXY:125.459
;MAXZ:91.4
;POSTPROCESSED
;ChangeAtZ instances: 1
;Generated with Cura_SteamEngine 4.4.1
M140 S70
M105
M190 S70
M104 S235
M105
M109 S235
M82 ;absolute extrusion mode
G21 ;metric values
G90 ;absolute positioning
M82 ;set extruder to absolute mode
M107 ;start with the fan off
G28 X0 Y0 ;move X/Y to min endstops
G28 Z0 ;move Z to min endstops
G1 Z15.0 F100 ;move the platform down 15mm
G92 E0 ;zero the extruded length
G1 F200 E3 ;extrude 3mm of feed stock
G92 E0 ;zero the extruded length again
G1 F100
G0 Y20 F100
M117 Printing...
G5
G92 E0
G92 E0
G1 F2400 E-4
;LAYER_COUNT:457
;LAYER:0
M106 S127.5
M204 S3000
M205 X10 Y10
G1 F600 Z0.275
G0 F3000 X80.966 Y86.739 Z0.275
M204 S1800
M205 X8 Y8
;TYPE:SKIRT
G1 F600 Z0.2
G1 F2400 E0
G1 X81.489 Y86.251 E0.03231
G1 X82.33 Y85.656 E0.07884
G1 X82.563 Y85.518 E0.09107
G1 X83.197 Y85.189 E0.12333
G1 X83.865 Y84.932 E0.15566
G1 X84.802 Y84.707 E0.19919
G1 X85.043 Y84.668 E0.21021
G1 X86.065 Y84.586 E0.25652
G1 X86.688 Y84.586 E0.28466
G1 X87.614 Y84.653 E0.3266
G1 X88.004 Y84.71 E0.3444
G1 X88.279 Y84.757 E0.357
G1 X90.332 Y85.149 E0.4514
G1 X92.953 Y85.58 E0.57138
G1 X95.558 Y85.932 E0.69011
G1 X98.208 Y86.216 E0.81048
G1 X100.864 Y86.423 E0.93081
G1 X103.476 Y86.554 E1.04894
G1 X106.153 Y86.611 E1.16988
G1 X108.794 Y86.594 E1.28917
G1 X111.437 Y86.501 E1.40862
G1 X114.079 Y86.333 E1.52819
G1 X116.697 Y86.094 E1.64693
G1 X119.348 Y85.774 E1.76754
G1 X121.953 Y85.385 E1.8865
G1 X125.528 Y84.731 E2.05066
G1 X125.656 Y84.708 E2.05653
G1 X125.909 Y84.667 E2.06811
G1 X126.172 Y84.63 E2.0801
G1 X126.573 Y84.582 E2.09834
G1 X127.565 Y84.541 E2.14319
G1 X128.064 Y84.559 E2.16574
G1 X128.776 Y84.625 E2.19804
G1 X129.476 Y84.77 E2.23033
G1 X129.928 Y84.907 E2.25166
G1 X130.133 Y84.978 E2.26146
G1 X130.352 Y85.059 E2.272
G1 X130.45 Y85.097 E2.27675
G1 X131.101 Y85.392 E2.30903
G1 X131.716 Y85.759 E2.34138
G1 X132.285 Y86.191 E2.37365
G1 X132.814 Y86.696 E2.40668
G1 X132.955 Y86.847 E2.41601
G1 X133.413 Y87.396 E2.44831
G1 X133.807 Y87.993 E2.48061
G1 X134.132 Y88.63 E2.51291
G1 X134.384 Y89.3 E2.54525
G1 X134.599 Y90.219 E2.58788
G1 X134.639 Y90.473 E2.59949
G1 X134.711 Y91.185 E2.63181
G1 X134.679 Y92.161 E2.67592
G1 X134.628 Y92.63 E2.69723
G1 X134.616 Y92.738 E2.70214
G1 X134.384 Y94.58 E2.78599
G1 X134.128 Y97.209 E2.9053
G1 X133.945 Y99.852 E3.02496
G1 X133.838 Y102.493 E3.14435
G1 X133.805 Y105.159 E3.26477
G1 X133.846 Y107.778 E3.38308
G1 X133.965 Y110.454 E3.50407
G1 X134.156 Y113.086 E3.62326
G1 X134.423 Y115.717 E3.7427
G1 X134.591 Y117.036 E3.80276
G1 X134.602 Y117.123 E3.80672
G1 X134.676 Y117.773 E3.83627
G1 X134.691 Y117.918 E3.84285
G1 X134.704 Y118.061 E3.84934
G1 X134.729 Y118.775 E3.88161
G1 X134.673 Y119.489 E3.91396
G1 X134.539 Y120.191 E3.94624
G1 X134.327 Y120.874 E3.97854
G1 X134.159 Y121.281 E3.99843
G1 X134.072 Y121.473 E4.00795
G1 X133.741 Y122.107 E4.04025
G1 X133.341 Y122.701 E4.0726
G1 X132.878 Y123.245 E4.10486
G1 X132.357 Y123.735 E4.13717
G1 X131.643 Y124.254 E4.17704
G1 X131.391 Y124.412 E4.19047
G1 X130.764 Y124.758 E4.22282
G1 X130.104 Y125.031 E4.25508
G1 X129.416 Y125.229 E4.28741
G1 X128.999 Y125.31 E4.3066
G1 X128.698 Y125.358 E4.32037
G1 X127.986 Y125.431 E4.35269
G1 X127.601 Y125.437 E4.37008
G1 X127.099 Y125.43 E4.39276
G1 X126.106 Y125.339 E4.4378
G1 X124.818 Y125.118 E4.49683
G1 X124.693 Y125.095 E4.50257
G1 X123.348 Y124.837 E4.56442
G1 X120.695 Y124.404 E4.68584
G1 X118.103 Y124.057 E4.80396
G1 X115.448 Y123.777 E4.92454
G1 X112.806 Y123.574 E5.04422
G1 X110.202 Y123.448 E5.16198
G1 X107.524 Y123.394 E5.28296
G1 X104.882 Y123.415 E5.4023
G1 X102.241 Y123.511 E5.52166
G1 X99.562 Y123.685 E5.64292
G1 X96.972 Y123.926 E5.76041
G1 X94.32 Y124.249 E5.88108
G1 X91.739 Y124.639 E5.99898
G1 X88.092 Y125.305 E6.16643
G1 X87.705 Y125.363 E6.1841
G1 X87.255 Y125.417 E6.20457
G1 X86.271 Y125.459 E6.24906
G1 X85.779 Y125.442 E6.27129
G1 X85.067 Y125.378 E6.30358
G1 X84.366 Y125.234 E6.3359
G1 X83.849 Y125.074 E6.36035
G1 X83.538 Y124.963 E6.37526
G1 X82.879 Y124.685 E6.40757
G1 X82.254 Y124.335 E6.43992
G1 X81.673 Y123.918 E6.47222
G1 X81 Y123.291 E6.51377
G1 X80.856 Y123.136 E6.52333
G1 X80.399 Y122.586 E6.55562
G1 X80.007 Y121.988 E6.58792
G1 X79.684 Y121.35 E6.62022
G1 X79.433 Y120.68 E6.65254
G1 X79.205 Y119.658 E6.69983
G1 X79.169 Y119.398 E6.71169
G1 X79.111 Y118.685 E6.744
G1 X79.156 Y117.744 E6.78655
G1 X79.481 Y115.078 E6.90786
G1 X79.729 Y112.44 E7.02753
G1 X79.898 Y109.842 E7.14513
G1 X79.998 Y107.158 E7.26644
G1 X80.021 Y104.518 E7.38568
G1 X79.969 Y101.872 E7.50522
G1 X79.841 Y99.208 E7.62568
G1 X79.641 Y96.588 E7.74437
G1 X79.365 Y93.946 E7.86435
G1 X79.216 Y92.797 E7.91668
G1 X79.201 Y92.676 E7.92219
G1 X79.142 Y92.14 E7.94654
G1 X79.126 Y91.964 E7.95453
G1 X79.12 Y91.891 E7.95783
G1 X79.101 Y91.176 E7.99014
G1 X79.162 Y90.464 E8.02242
G1 X79.302 Y89.762 E8.05475
G1 X79.52 Y89.081 E8.08704
G1 X79.675 Y88.712 E8.10512
G1 X79.768 Y88.508 E8.11525
G1 X80.1 Y87.875 E8.14753
G1 X80.501 Y87.283 E8.17983
G1 X80.966 Y86.739 E8.21215
M204 S3000
M205 X10 Y10
G0 F3000 X81.435 Y87.06
M204 S1800
M205 X8 Y8
G1 F2400 X81.942 Y86.603 E8.24298
G1 X82.615 Y86.138 E8.27993
G1 X82.848 Y86 E8.29216
G1 X83.455 Y85.687 E8.32301
G1 X84.095 Y85.447 E8.35388
G1 X84.891 Y85.26 E8.39081
G1 X85.132 Y85.221 E8.40184
G1 X86.065 Y85.146 E8.44412
G1 X86.688 Y85.146 E8.47226
G1 X87.533 Y85.207 E8.51052
G1 X87.923 Y85.264 E8.52832
G1 X88.174 Y85.307 E8.53983
G1 X90.216 Y85.697 E8.63373
G1 X92.891 Y86.137 E8.75617
G1 X95.497 Y86.489 E8.87495
G1 X98.174 Y86.776 E8.99655
G1 X100.792 Y86.98 E9.11516
G1 X103.471 Y87.114 E9.23631
G1 X106.144 Y87.171 E9.35707
G1 X108.818 Y87.153 E9.47785
G1 X111.455 Y87.061 E9.59703
G1 X114.098 Y86.893 E9.71665
G1 X116.777 Y86.648 E9.83816
G1 X119.423 Y86.329 E9.95853
G1 X122.02 Y85.942 E10.07713
G1 X125.629 Y85.281 E10.24285
G1 X125.746 Y85.261 E10.24821
G1 X125.999 Y85.22 E10.25979
G1 X126.239 Y85.186 E10.27074
G1 X126.64 Y85.138 E10.28898
G1 X127.545 Y85.101 E10.32989
G1 X128.044 Y85.119 E10.35244
G1 X128.724 Y85.183 E10.38329
G1 X129.392 Y85.327 E10.41415
G1 X129.744 Y85.437 E10.43081
G1 X129.949 Y85.508 E10.44061
G1 X130.149 Y85.581 E10.45023
G1 X130.247 Y85.619 E10.45497
G1 X130.869 Y85.903 E10.48586
G1 X131.453 Y86.257 E10.5167
G1 X131.992 Y86.678 E10.5476
G1 X132.404 Y87.078 E10.57353
G1 X132.545 Y87.229 E10.58286
G1 X132.982 Y87.755 E10.61375
G1 X133.354 Y88.328 E10.64461
G1 X133.656 Y88.941 E10.67547
G1 X133.885 Y89.585 E10.70634
G1 X134.046 Y90.307 E10.73976
G1 X134.086 Y90.561 E10.75137
G1 X134.153 Y91.24 E10.78219
G1 X134.123 Y92.1 E10.82106
G1 X134.072 Y92.569 E10.84236
G1 X134.06 Y92.668 E10.84687
G1 X133.83 Y94.491 E10.92986
G1 X133.568 Y97.186 E11.05216
G1 X133.385 Y99.828 E11.17178
G1 X133.278 Y102.463 E11.29089
G1 X133.245 Y105.174 E11.41335
G1 X133.287 Y107.812 E11.53252
G1 X133.403 Y110.447 E11.65165
G1 X133.6 Y113.148 E11.77397
G1 X133.865 Y115.77 E11.893
G1 X134.036 Y117.107 E11.95388
G1 X134.046 Y117.186 E11.95748
G1 X134.12 Y117.836 E11.98702
G1 X134.133 Y117.968 E11.99302
G1 X134.146 Y118.111 E11.9995
G1 X134.168 Y118.794 E12.03037
G1 X134.11 Y119.475 E12.06124
G1 X133.973 Y120.144 E12.09208
G1 X133.649 Y121.05 E12.13554
G1 X133.562 Y121.242 E12.14506
G1 X133.244 Y121.847 E12.17593
G1 X132.858 Y122.411 E12.2068
G1 X132.409 Y122.925 E12.23763
G1 X131.902 Y123.384 E12.26852
G1 X131.345 Y123.78 E12.29939
G1 X131.093 Y123.938 E12.31282
G1 X130.494 Y124.266 E12.34367
G1 X129.861 Y124.523 E12.37452
G1 X128.911 Y124.757 E12.41872
G1 X128.61 Y124.805 E12.43248
G1 X127.609 Y124.877 E12.47781
G1 X127.107 Y124.87 E12.50049
G1 X126.2 Y124.787 E12.54163
G1 X124.912 Y124.566 E12.60065
G1 X124.799 Y124.545 E12.60584
G1 X123.441 Y124.284 E12.6683
G1 X120.785 Y123.851 E12.78985
G1 X118.167 Y123.5 E12.90916
G1 X115.515 Y123.221 E13.0296
G1 X112.841 Y123.015 E13.15074
G1 X110.205 Y122.888 E13.26994
G1 X107.531 Y122.834 E13.39074
G1 X104.857 Y122.855 E13.51152
G1 X102.22 Y122.952 E13.6307
G1 X99.544 Y123.125 E13.75182
G1 X96.887 Y123.372 E13.87235
G1 X94.277 Y123.69 E13.99111
G1 X91.615 Y124.092 E14.11271
G1 X87.991 Y124.754 E14.2791
G1 X87.638 Y124.807 E14.29523
G1 X87.188 Y124.861 E14.3157
G1 X86.29 Y124.9 E14.3563
G1 X85.798 Y124.883 E14.37853
G1 X85.118 Y124.819 E14.40938
G1 X84.45 Y124.677 E14.44023
G1 X84.037 Y124.546 E14.4598
G1 X83.726 Y124.435 E14.47471
G1 X83.097 Y124.168 E14.50558
G1 X82.504 Y123.83 E14.5364
G1 X81.954 Y123.424 E14.56728
G1 X81.41 Y122.91 E14.60109
G1 X81.266 Y122.755 E14.61064
G1 X80.832 Y122.228 E14.64148
G1 X80.461 Y121.654 E14.67235
G1 X80.16 Y121.04 E14.70323
G1 X79.933 Y120.396 E14.73408
G1 X79.76 Y119.581 E14.77171
G1 X79.724 Y119.321 E14.78356
G1 X79.67 Y118.64 E14.81442
G1 X79.712 Y117.812 E14.85186
G1 X80.035 Y115.164 E14.97235
G1 X80.286 Y112.494 E15.09348
G1 X80.459 Y109.826 E15.21424
G1 X80.558 Y107.184 E15.33366
G1 X80.581 Y104.512 E15.45435
G1 X80.528 Y101.835 E15.57528
G1 X80.403 Y99.206 E15.69416
G1 X80.197 Y96.52 E15.81584
G1 X79.923 Y93.9 E15.93482
G1 X79.771 Y92.725 E15.98834
G1 X79.758 Y92.615 E15.99334
G1 X79.699 Y92.079 E16.0177
G1 X79.684 Y91.918 E16.025
G1 X79.678 Y91.845 E16.02831
G1 X79.662 Y91.162 E16.05917
G1 X79.725 Y90.482 E16.09001
G1 X79.868 Y89.814 E16.12087
G1 X80.184 Y88.945 E16.16263
G1 X80.277 Y88.741 E16.17276
G1 X80.596 Y88.136 E16.20365
G1 X80.984 Y87.574 E16.23449
G1 X81.435 Y87.06 E16.26538
M204 S3000
M205 X10 Y10
G0 F3000 X81.901 Y87.386
M204 S1800
M205 X8 Y8
G1 F2400 X82.393 Y86.962 E16.29472
G1 X82.9 Y86.62 E16.32234
G1 X83.133 Y86.482 E16.33457
G1 X83.712 Y86.186 E16.36394
G1 X84.322 Y85.963 E16.39328
G1 X84.981 Y85.813 E16.4238
G1 X85.222 Y85.774 E16.43483
G1 X86.065 Y85.706 E16.47303
G1 X86.688 Y85.706 E16.50117
G1 X87.452 Y85.762 E16.53577
G1 X87.842 Y85.819 E16.55357
G1 X88.069 Y85.857 E16.56397
G1 X90.131 Y86.251 E16.65879
G1 X92.8 Y86.69 E16.78096
G1 X95.432 Y87.046 E16.90092
G1 X98.106 Y87.332 E17.02239
G1 X100.794 Y87.542 E17.14417
G1 X103.431 Y87.673 E17.26342
G1 X106.136 Y87.731 E17.38563
G1 X108.805 Y87.714 E17.50618
G1 X111.512 Y87.619 E17.62852
G1 X114.148 Y87.452 E17.74782
G1 X116.825 Y87.206 E17.86924
G1 X119.504 Y86.883 E17.99112
G1 X122.106 Y86.495 E18.10995
G1 X125.729 Y85.832 E18.27631
G1 X125.835 Y85.814 E18.28116
G1 X126.088 Y85.773 E18.29274
G1 X126.305 Y85.742 E18.30264
G1 X126.706 Y85.694 E18.32088
G1 X127.524 Y85.66 E18.35786
G1 X128.023 Y85.678 E18.38041
G1 X128.67 Y85.742 E18.40978
G1 X129.561 Y85.966 E18.45128
G1 X129.766 Y86.037 E18.46107
G1 X129.947 Y86.103 E18.46978
G1 X130.045 Y86.141 E18.47452
G1 X130.635 Y86.413 E18.50387
G1 X131.187 Y86.755 E18.5332
G1 X131.693 Y87.162 E18.56253
G1 X131.995 Y87.46 E18.58169
G1 X132.136 Y87.611 E18.59102
G1 X132.549 Y88.113 E18.62038
G1 X132.898 Y88.661 E18.64973
G1 X133.177 Y89.248 E18.67909
G1 X133.381 Y89.864 E18.70839
G1 X133.493 Y90.394 E18.73286
G1 X133.533 Y90.648 E18.74448
G1 X133.594 Y91.294 E18.77378
G1 X133.566 Y92.04 E18.8075
G1 X133.515 Y92.509 E18.82881
G1 X133.505 Y92.598 E18.83286
G1 X133.269 Y94.471 E18.91812
G1 X133.01 Y97.131 E19.03884
G1 X132.828 Y99.765 E19.15809
G1 X132.718 Y102.469 E19.28032
G1 X132.685 Y105.176 E19.4026
G1 X132.727 Y107.811 E19.52163
G1 X132.846 Y110.513 E19.64379
G1 X133.04 Y113.176 E19.76439
G1 X133.311 Y115.856 E19.88606
G1 X133.48 Y117.178 E19.94625
G1 X133.489 Y117.25 E19.94953
G1 X133.563 Y117.9 E19.97908
G1 X133.575 Y118.019 E19.98448
G1 X133.588 Y118.162 E19.99097
G1 X133.607 Y118.811 E20.02029
G1 X133.546 Y119.458 E20.04965
G1 X133.406 Y120.092 E20.07897
G1 X133.139 Y120.819 E20.11395
G1 X133.052 Y121.011 E20.12347
G1 X132.748 Y121.585 E20.15281
G1 X132.376 Y122.118 E20.18217
G1 X131.941 Y122.6 E20.21149
G1 X131.451 Y123.026 E20.24082
G1 X131.048 Y123.305 E20.26296
G1 X130.796 Y123.463 E20.27639
G1 X130.225 Y123.774 E20.30576
G1 X129.621 Y124.012 E20.33508
G1 X128.822 Y124.204 E20.3722
G1 X128.521 Y124.252 E20.38597
G1 X127.616 Y124.317 E20.42695
G1 X127.114 Y124.31 E20.44963
G1 X126.295 Y124.235 E20.48677
G1 X125.007 Y124.014 E20.5458
G1 X124.904 Y123.995 E20.55053
G1 X123.527 Y123.731 E20.61386
G1 X120.88 Y123.299 E20.735
G1 X118.23 Y122.944 E20.85576
G1 X115.543 Y122.661 E20.97779
G1 X112.911 Y122.459 E21.09702
G1 X110.208 Y122.327 E21.21926
G1 X107.538 Y122.274 E21.33988
G1 X104.832 Y122.296 E21.4621
G1 X102.2 Y122.392 E21.58106
G1 X99.49 Y122.567 E21.70372
G1 X96.841 Y122.814 E21.82389
G1 X94.191 Y123.137 E21.94447
G1 X91.534 Y123.538 E22.06584
G1 X87.891 Y124.203 E22.2331
G1 X87.571 Y124.251 E22.24771
G1 X87.121 Y124.305 E22.26819
G1 X86.31 Y124.34 E22.30485
G1 X85.818 Y124.323 E22.32709
G1 X85.171 Y124.261 E22.35644
G1 X84.537 Y124.119 E22.38579
G1 X84.225 Y124.019 E22.40059
G1 X83.914 Y123.908 E22.4155
G1 X83.317 Y123.652 E22.44484
G1 X82.756 Y123.325 E22.47417
G1 X82.239 Y122.932 E22.5035
G1 X81.821 Y122.529 E22.52973
G1 X81.677 Y122.374 E22.53928
G1 X81.265 Y121.872 E22.56862
G1 X80.917 Y121.322 E22.59801
G1 X80.64 Y120.735 E22.62733
G1 X80.437 Y120.118 E22.65667
G1 X80.315 Y119.504 E22.68494
G1 X80.279 Y119.244 E22.6968
G1 X80.23 Y118.596 E22.72615
G1 X80.268 Y117.88 E22.75854
G1 X80.593 Y115.214 E22.87984
G1 X80.844 Y112.545 E23.00093
G1 X81.019 Y109.849 E23.12295
G1 X81.117 Y107.21 E23.24223
G1 X81.141 Y104.506 E23.36437
G1 X81.088 Y101.832 E23.48517
G1 X80.961 Y99.171 E23.6055
G1 X80.753 Y96.457 E23.72844
G1 X80.477 Y93.814 E23.84847
G1 X80.327 Y92.654 E23.9013
G1 X80.315 Y92.554 E23.90585
G1 X80.256 Y92.018 E23.9302
G1 X80.242 Y91.873 E23.93678
G1 X80.236 Y91.8 E23.94009
G1 X80.222 Y91.15 E23.96946
G1 X80.289 Y90.504 E23.99879
G1 X80.434 Y89.871 E24.02812
G1 X80.694 Y89.177 E24.0616
G1 X80.787 Y88.973 E24.07172
G1 X81.092 Y88.399 E24.10108
G1 X81.465 Y87.868 E24.13039
G1 X81.901 Y87.386 E24.15975
M204 S3000
M205 X10 Y10
G1 F2400 E20.15975
;MESH:SmartTemperatureTower_PLA_Plus_195-235.stl
G0 F3000 X89.317 Y98.05
G0 X93.346 Y107.253
M204 S1800
M205 X8 Y8
;TYPE:WALL-INNER
G1 F2400 E24.15975
G1 F1350 X94.249 Y107.847 E24.20857
G1 X95.028 Y108.039 E24.2448
G1 X95.869 Y108.055 E24.2828
G1 X96.671 Y107.872 E24.31995
G1 X97.245 Y107.56 E24.34946
G1 X97.681 Y107.847 E24.37304
G1 X98.46 Y108.039 E24.40927
G1 X99.301 Y108.055 E24.44727
G1 X99.744 Y107.954 E24.46779
G1 X99.744 Y108.055
G1 X99.744 Y108.815 E24.50212
G1 X99.435 Y108.839 E24.51612
G1 X98.896 Y108.887 E24.54056
G1 X98.367 Y108.944 E24.56459
G1 X97.676 Y109.029 E24.59603
G1 X97.018 Y109.13 E24.6261
G1 X96.407 Y109.241 E24.65415
G1 X95.836 Y109.367 E24.68056
G1 X95.15 Y109.556 E24.7127
G1 X94.525 Y109.772 E24.74257
G1 X93.948 Y110.02 E24.77094
G1 X93.315 Y110.368 E24.80356
G1 X92.752 Y110.764 E24.83465
G1 X92.258 Y111.2 E24.86441
G1 X91.755 Y111.759 E24.89838
G1 X91.319 Y112.37 E24.93228
G1 X90.95 Y113.024 E24.9662
G1 X90.646 Y113.712 E25.00017
G1 X90.203 Y114.974 E25.06058
G1 X90.035 Y115.381 E25.08047
G1 X89.872 Y115.692 E25.09633
G1 X89.662 Y116.01 E25.11354
G1 X89.411 Y116.305 E25.13104
G1 X89.322 Y116.387 E25.1365
G1 X89.286 Y116.42 E25.13871
G1 X89.073 Y116.615 E25.15175
G1 X88.8 Y116.814 E25.16701
G1 X88.729 Y116.856 E25.17074
G1 X88.452 Y117.024 E25.18537
G1 X88.196 Y117.152 E25.1983
G1 X88.068 Y117.216 E25.20476
G1 X87.998 Y117.244 E25.20817
G1 X88.038 Y117.193
G1 X88.147 Y117.055 E25.20997
G1 X88.275 Y116.889 E25.21172
G1 X88.506 Y116.589 E25.22114
G1 X88.54 Y116.544 E25.22126
G1 X88.685 Y116.34 E25.22939
G1 X88.915 Y116.017 E25.24595
G1 X88.941 Y115.976 E25.24812
