;FLAVOR:Marlin
;TIME:10719
;Filament used: 10.5876m
;Layer height: 0.2
;MINX:41.974
;MINY:60.618
;MINZ:0.2
;MAXX:174.625
;MAXY:149.381
;MAXZ:52.4
;POSTPROCESSED
;ChangeAtZ instances: 1
;Generated with Cura_SteamEngine 4.5.0
M140 S75
M105
M190 S75
M104 S185
M105
M109 S185
M82 ;absolute extrusion mode
G21 ;metric values
G90 ;absolute positioning
M82 ;set extruder to absolute mode
M107 ;start with the fan off
G28 X0 Y0 ;move X/Y to min endstops
G28 Z0 ;move Z to min endstops
G1 Z15.0 F100 ;move the platform down 15mm
G92 E0 ;zero the extruded length
G1 F200 E3 ;extrude 3mm of feed stock
G92 E0 ;zero the extruded length again
G1 F100
G0 Y20 F100
M117 Printing...
G5
G92 E0
G92 E0
G1 F4200 E-5
;LAYER_COUNT:263
;LAYER:0
M106 S127.5
M204 S3000
M205 X10 Y10
G1 F600 Z0.275
G0 F3000 X68.243 Y79.46 Z0.275
M204 S1800
M205 X8 Y8
;TYPE:SKIRT
G1 F600 Z0.2
G1 F4200 E0
G1 F1800 X68.834 Y79.057 E0.03231
G1 X69.466 Y78.723 E0.0646
G1 X70.132 Y78.461 E0.09692
G1 X70.822 Y78.275 E0.1292
G1 X71.446 Y78.176 E0.15774
G1 X72.121 Y78.102 E0.18841
G1 X74.79 Y77.774 E0.30987
G1 X77.442 Y77.372 E0.43102
G1 X80.048 Y76.901 E0.55063
G1 X82.591 Y76.368 E0.66799
G1 X85.188 Y75.746 E0.7886
G1 X87.775 Y75.047 E0.90964
G1 X90.258 Y74.302 E1.02673
G1 X92.799 Y73.459 E1.14765
G1 X95.306 Y72.548 E1.26813
G1 X97.77 Y71.573 E1.38782
G1 X100.159 Y70.549 E1.50522
G1 X102.606 Y69.416 E1.62701
G1 X104.947 Y68.252 E1.7451
G1 X107.318 Y66.988 E1.86646
G1 X108.554 Y66.294 E1.93048
G1 X109.215 Y65.916 E1.96488
G1 X110.707 Y65.171 E2.0402
G1 X112.598 Y64.29 E2.13443
G1 X113.159 Y64.039 E2.16219
G1 X114.666 Y63.462 E2.23507
G1 X116.706 Y62.746 E2.33272
G1 X117.248 Y62.565 E2.35853
G1 X118.827 Y62.132 E2.43249
G1 X120.897 Y61.627 E2.52872
G1 X121.462 Y61.496 E2.55492
G1 X123.054 Y61.223 E2.62788
G1 X125.235 Y60.913 E2.72738
G1 X125.769 Y60.845 E2.75169
G1 X127.414 Y60.727 E2.82618
G1 X129.509 Y60.637 E2.92089
G1 X130.142 Y60.618 E2.9495
G1 X131.754 Y60.662 E3.02233
G1 X133.878 Y60.779 E3.11842
G1 X134.455 Y60.818 E3.14454
G1 X136.107 Y61.026 E3.21974
G1 X138.2 Y61.35 E3.3154
G1 X138.79 Y61.449 E3.34242
G1 X140.378 Y61.81 E3.41598
G1 X142.398 Y62.328 E3.51017
G1 X143.005 Y62.492 E3.53857
G1 X144.586 Y63.019 E3.61384
G1 X146.551 Y63.736 E3.70832
G1 X147.135 Y63.959 E3.73655
G1 X148.6 Y64.613 E3.80902
G1 X150.535 Y65.543 E3.90599
G1 X151.039 Y65.792 E3.93138
G1 X152.505 Y66.627 E4.00758
G1 X154.297 Y67.717 E4.10232
G1 X154.799 Y68.03 E4.12904
G1 X156.14 Y68.98 E4.20327
G1 X157.828 Y70.247 E4.2986
G1 X158.309 Y70.619 E4.32606
G1 X159.53 Y71.678 E4.39906
G1 X161.091 Y73.109 E4.49471
G1 X161.555 Y73.548 E4.52356
G1 X162.662 Y74.716 E4.59625
G1 X164.109 Y76.332 E4.69422
G1 X164.48 Y76.76 E4.71981
G1 X165.482 Y78.049 E4.79355
G1 X166.74 Y79.768 E4.88976
G1 X167.084 Y80.253 E4.91662
G1 X167.948 Y81.625 E4.98985
G1 X169.031 Y83.456 E5.08594
G1 X169.323 Y83.965 E5.11244
G1 X170.066 Y85.451 E5.18748
G1 X170.952 Y87.352 E5.28221
G1 X171.205 Y87.918 E5.31022
G1 X171.786 Y89.435 E5.38359
G1 X172.504 Y91.479 E5.48144
G1 X172.677 Y91.996 E5.50606
G1 X173.116 Y93.601 E5.58122
G1 X173.617 Y95.654 E5.67667
G1 X173.743 Y96.196 E5.7018
G1 X174.031 Y97.884 E5.77915
G1 X174.32 Y99.915 E5.87181
G1 X174.399 Y100.531 E5.89986
G1 X174.516 Y102.199 E5.97538
G1 X174.606 Y104.263 E6.0687
G1 X174.625 Y104.899 E6.09743
G1 X174.581 Y106.505 E6.17
G1 X174.463 Y108.637 E6.26644
G1 X174.422 Y109.24 E6.29374
G1 X174.222 Y110.825 E6.3659
G1 X173.888 Y112.985 E6.46462
G1 X173.794 Y113.548 E6.4904
G1 X173.442 Y115.1 E6.56228
G1 X172.904 Y117.197 E6.66007
G1 X172.749 Y117.765 E6.68666
G1 X172.218 Y119.356 E6.76242
G1 X171.504 Y121.314 E6.85655
G1 X171.286 Y121.888 E6.88428
G1 X170.633 Y123.351 E6.95665
G1 X169.702 Y125.288 E7.05372
G1 X169.433 Y125.83 E7.08105
G1 X168.652 Y127.203 E7.15239
G1 X167.516 Y129.074 E7.25126
G1 X167.224 Y129.541 E7.27613
G1 X166.266 Y130.894 E7.35101
G1 X164.987 Y132.595 E7.44714
G1 X164.613 Y133.079 E7.47477
G1 X163.572 Y134.279 E7.54652
G1 X162.119 Y135.863 E7.64361
G1 X161.692 Y136.315 E7.67169
G1 X160.524 Y137.422 E7.74438
G1 X158.96 Y138.823 E7.83921
G1 X158.473 Y139.246 E7.86835
G1 X157.177 Y140.25 E7.9424
G1 X155.476 Y141.497 E8.03766
G1 X154.985 Y141.844 E8.06482
G1 X153.603 Y142.715 E8.1386
G1 X151.8 Y143.78 E8.23318
G1 X151.264 Y144.088 E8.26111
G1 X149.819 Y144.811 E8.33409
G1 X147.88 Y145.714 E8.4307
G1 X147.335 Y145.958 E8.45767
G1 X145.775 Y146.554 E8.5331
G1 X143.839 Y147.234 E8.62578
G1 X143.224 Y147.44 E8.65507
G1 X141.671 Y147.866 E8.72781
G1 X139.586 Y148.375 E8.82475
G1 X139.03 Y148.504 E8.85053
G1 X137.409 Y148.781 E8.9248
G1 X135.327 Y149.078 E9.01979
G1 X134.696 Y149.158 E9.04852
G1 X133.085 Y149.272 E9.12147
G1 X130.971 Y149.363 E9.21704
G1 X130.334 Y149.381 E9.24582
G1 X128.776 Y149.339 E9.31622
G1 X126.658 Y149.223 E9.41203
G1 X125.807 Y149.165 E9.45055
G1 X125.125 Y149.089 E9.48155
G1 X122.264 Y148.647 E9.61231
G1 X121.692 Y148.55 E9.63851
G1 X120.108 Y148.189 E9.71189
G1 X118.049 Y147.661 E9.8079
G1 X117.462 Y147.502 E9.83537
G1 X115.93 Y146.992 E9.9083
G1 X113.943 Y146.267 E10.00383
G1 X113.353 Y146.042 E10.03235
G1 X111.892 Y145.391 E10.1046
G1 X109.953 Y144.459 E10.20177
G1 X109.33 Y144.151 E10.23316
G1 X107.083 Y142.898 E10.34936
G1 X104.745 Y141.672 E10.4686
G1 X102.376 Y140.513 E10.58772
G1 X99.943 Y139.408 E10.70842
G1 X97.553 Y138.402 E10.82554
G1 X95.021 Y137.419 E10.94822
G1 X92.561 Y136.546 E11.06612
G1 X90.037 Y135.728 E11.18596
G1 X87.496 Y134.984 E11.30555
G1 X84.936 Y134.311 E11.4251
G1 X82.342 Y133.708 E11.54539
G1 X79.742 Y133.179 E11.66523
G1 X77.172 Y132.734 E11.78304
G1 X74.525 Y132.351 E11.90384
G1 X71.928 Y132.05 E12.02193
G1 X69.263 Y131.817 E12.14276
G1 X66.648 Y131.664 E12.26107
G1 X62.704 Y131.557 E12.43928
G1 X61.991 Y131.497 E12.4716
G1 X61.29 Y131.359 E12.50387
G1 X60.608 Y131.143 E12.53618
G1 X59.954 Y130.853 E12.56849
G1 X59.337 Y130.491 E12.6008
G1 X58.764 Y130.063 E12.63311
G1 X58.243 Y129.573 E12.66541
G1 X57.779 Y129.028 E12.69774
G1 X57.379 Y128.435 E12.73005
G1 X57.048 Y127.801 E12.76235
G1 X56.79 Y127.135 E12.79461
G1 X56.607 Y126.443 E12.82694
G1 X56.503 Y125.735 E12.85926
G1 X56.479 Y125.02 E12.89157
G1 X56.534 Y124.307 E12.92387
G1 X56.796 Y122.969 E12.98546
G1 X57.564 Y119.606 E13.14126
G1 X65.768 Y83.638 E14.80756
G1 X65.931 Y82.983 E14.83805
G1 X66.143 Y82.3 E14.87035
G1 X66.43 Y81.645 E14.90265
G1 X66.789 Y81.026 E14.93497
G1 X67.214 Y80.451 E14.96727
G1 X67.701 Y79.927 E14.99958
G1 X68.243 Y79.46 E15.03189
M204 S3000
M205 X10 Y10
G0 F3000 X68.731 Y79.795
M204 S1800
M205 X8 Y8
G1 F1800 X69.309 Y79.43 E15.06277
G1 X69.925 Y79.134 E15.09364
G1 X70.571 Y78.912 E15.12449
G1 X71.506 Y78.732 E15.1675
G1 X72.24 Y78.652 E15.20085
G1 X74.868 Y78.329 E15.32044
G1 X77.522 Y77.927 E15.44168
G1 X80.153 Y77.451 E15.56245
G1 X82.7 Y76.917 E15.67999
G1 X85.354 Y76.282 E15.80325
G1 X87.905 Y75.593 E15.9226
G1 X90.45 Y74.828 E16.04263
G1 X93.001 Y73.982 E16.16402
G1 X95.484 Y73.081 E16.28333
G1 X97.946 Y72.106 E16.40293
G1 X100.406 Y71.051 E16.52383
G1 X102.84 Y69.925 E16.64496
G1 X105.224 Y68.739 E16.76523
G1 X107.569 Y67.49 E16.88523
G1 X108.841 Y66.775 E16.95114
G1 X109.493 Y66.402 E16.98507
G1 X110.953 Y65.673 E17.05877
G1 X112.834 Y64.798 E17.15248
G1 X113.387 Y64.551 E17.17983
G1 X114.863 Y63.987 E17.2512
G1 X116.891 Y63.275 E17.34828
G1 X117.426 Y63.096 E17.37376
G1 X118.971 Y62.673 E17.44611
G1 X121.03 Y62.171 E17.54184
G1 X121.588 Y62.041 E17.56771
G1 X123.144 Y61.776 E17.63901
G1 X125.313 Y61.468 E17.73796
G1 X125.839 Y61.4 E17.76191
G1 X127.45 Y61.286 E17.83486
G1 X129.533 Y61.196 E17.92903
G1 X130.158 Y61.178 E17.95727
G1 X131.734 Y61.222 E18.02848
G1 X133.846 Y61.338 E18.12402
G1 X134.417 Y61.377 E18.14987
G1 X136.032 Y61.581 E18.2234
G1 X138.114 Y61.903 E18.31855
G1 X138.697 Y62.001 E18.34525
G1 X140.249 Y62.355 E18.41715
G1 X142.258 Y62.87 E18.51083
G1 X142.858 Y63.033 E18.53891
G1 X144.405 Y63.549 E18.61257
G1 X146.358 Y64.262 E18.70648
G1 X146.935 Y64.482 E18.73437
G1 X148.368 Y65.123 E18.80527
G1 X150.293 Y66.048 E18.90174
G1 X150.791 Y66.294 E18.92682
G1 X152.223 Y67.112 E19.00131
G1 X154.006 Y68.195 E19.09554
G1 X154.501 Y68.505 E19.12192
G1 X155.813 Y69.435 E19.19456
G1 X157.491 Y70.695 E19.28933
G1 X157.966 Y71.062 E19.31645
G1 X159.16 Y72.098 E19.38785
G1 X160.712 Y73.522 E19.48298
G1 X161.17 Y73.955 E19.51145
G1 X162.252 Y75.098 E19.58254
G1 X163.692 Y76.706 E19.68003
G1 X164.057 Y77.127 E19.7052
G1 X165.037 Y78.39 E19.77741
G1 X166.287 Y80.099 E19.87304
G1 X166.627 Y80.576 E19.8995
G1 X167.472 Y81.92 E19.97121
G1 X168.548 Y83.741 E20.06674
G1 X168.837 Y84.243 E20.0929
G1 X169.563 Y85.697 E20.16631
G1 X170.444 Y87.588 E20.26053
G1 X170.693 Y88.146 E20.28813
G1 X171.261 Y89.632 E20.35999
G1 X171.975 Y91.664 E20.45727
G1 X172.146 Y92.173 E20.48152
G1 X172.575 Y93.745 E20.55512
G1 X173.073 Y95.786 E20.65001
G1 X173.198 Y96.322 E20.67487
G1 X173.479 Y97.974 E20.75056
G1 X173.765 Y99.993 E20.84266
G1 X173.843 Y100.601 E20.87035
G1 X173.958 Y102.234 E20.94429
G1 X174.047 Y104.287 E21.03711
G1 X174.065 Y104.915 E21.06548
G1 X174.021 Y106.485 E21.13642
G1 X173.904 Y108.605 E21.23232
G1 X173.863 Y109.201 E21.25931
G1 X173.667 Y110.75 E21.32983
G1 X173.335 Y112.899 E21.42804
G1 X173.242 Y113.455 E21.45351
G1 X172.897 Y114.972 E21.52377
G1 X172.361 Y117.057 E21.62101
G1 X172.209 Y117.618 E21.64726
G1 X171.688 Y119.175 E21.72142
G1 X170.978 Y121.122 E21.81503
G1 X170.763 Y121.689 E21.84241
G1 X170.124 Y123.118 E21.91312
G1 X169.198 Y125.046 E22.00972
G1 X168.932 Y125.581 E22.03671
G1 X168.168 Y126.922 E22.10642
G1 X167.038 Y128.783 E22.20476
G1 X166.749 Y129.244 E22.22933
G1 X165.811 Y130.567 E22.30259
G1 X164.54 Y132.258 E22.39813
G1 X164.17 Y132.736 E22.42543
G1 X163.152 Y133.909 E22.49559
G1 X161.707 Y135.485 E22.59216
G1 X161.285 Y135.93 E22.61986
G1 X160.141 Y137.013 E22.69101
G1 X158.587 Y138.405 E22.78525
G1 X158.106 Y138.822 E22.814
G1 X156.837 Y139.806 E22.88653
G1 X155.145 Y141.045 E22.98125
G1 X154.662 Y141.387 E23.00798
G1 X153.308 Y142.239 E23.08024
G1 X151.516 Y143.297 E23.17423
G1 X150.986 Y143.602 E23.20185
G1 X149.573 Y144.308 E23.2732
G1 X147.644 Y145.206 E23.3693
G1 X147.106 Y145.446 E23.39591
G1 X145.579 Y146.029 E23.46974
G1 X143.653 Y146.705 E23.56193
G1 X143.046 Y146.909 E23.59085
G1 X141.528 Y147.325 E23.66195
G1 X139.454 Y147.831 E23.75837
G1 X138.903 Y147.958 E23.78391
G1 X137.319 Y148.229 E23.8565
G1 X135.248 Y148.523 E23.95097
G1 X134.626 Y148.603 E23.9793
G1 X133.049 Y148.713 E24.0507
G1 X130.947 Y148.804 E24.14573
G1 X130.319 Y148.821 E24.17411
G1 X128.795 Y148.78 E24.24297
G1 X126.689 Y148.664 E24.33823
G1 X125.845 Y148.606 E24.37645
G1 X125.195 Y148.533 E24.40599
G1 X122.35 Y148.094 E24.53601
G1 X121.786 Y147.998 E24.56185
G1 X120.237 Y147.644 E24.63362
G1 X118.189 Y147.119 E24.72911
G1 X117.609 Y146.961 E24.75626
G1 X116.111 Y146.462 E24.82758
G1 X114.136 Y145.741 E24.92254
G1 X113.552 Y145.519 E24.95076
G1 X112.124 Y144.881 E25.02141
G1 X110.195 Y143.955 E25.11805
G1 X109.58 Y143.649 E25.14908
G1 X107.366 Y142.415 E25.26356
G1 X105.001 Y141.173 E25.38422
G1 X102.604 Y140.001 E25.50473
G1 X100.184 Y138.902 E25.62478
G1 X97.752 Y137.879 E25.74395
G1 X95.215 Y136.893 E25.86689
G1 X92.743 Y136.016 E25.98536
G1 X90.18 Y135.186 E26.10704
G1 X87.652 Y134.445 E26.22603
G1 X85.069 Y133.766 E26.34666
G1 X82.505 Y133.171 E26.46555
G1 X79.847 Y132.629 E26.58807
G1 X77.239 Y132.178 E26.70762
G1 X74.601 Y131.797 E26.828
G1 X71.972 Y131.491 E26.94755
G1 X69.31 Y131.259 E27.06824
G1 X66.665 Y131.104 E27.18791
G1 X62.719 Y130.997 E27.36621
G1 X62.039 Y130.939 E27.39704
G1 X61.369 Y130.801 E27.42793
G1 X60.721 Y130.586 E27.45877
G1 X60.102 Y130.297 E27.48963
G1 X59.521 Y129.938 E27.52047
G1 X58.985 Y129.513 E27.55137
G1 X58.503 Y129.029 E27.58222
G1 X58.081 Y128.492 E27.61307
G1 X57.725 Y127.909 E27.64392
G1 X57.439 Y127.288 E27.6748
G1 X57.228 Y126.639 E27.70563
G1 X57.093 Y125.969 E27.7365
G1 X57.038 Y125.288 E27.76736
G1 X57.063 Y124.605 E27.79823
G1 X57.161 Y123.964 E27.82752
G1 X57.345 Y123.084 E27.86812
G1 X58.11 Y119.733 E28.02337
G1 X66.314 Y83.762 E29.6898
G1 X66.474 Y83.119 E29.71973
G1 X66.678 Y82.467 E29.75059
G1 X66.958 Y81.844 E29.78144
G1 X67.308 Y81.257 E29.81231
G1 X67.724 Y80.715 E29.84317
G1 X68.201 Y80.226 E29.87402
G1 X68.731 Y79.795 E29.90488
M204 S3000
M205 X10 Y10
G0 F3000 X68.698 Y80.533
M204 S1800
M205 X8 Y8
G1 F1800 X69.216 Y80.141 E29.93422
G1 X69.778 Y79.815 E29.96356
G1 X70.376 Y79.561 E29.99291
G1 X71 Y79.382 E30.02223
G1 X71.567 Y79.289 E30.04818
G1 X72.24 Y79.216 E30.07876
G1 X74.986 Y78.878 E30.20372
G1 X77.596 Y78.482 E30.32296
G1 X80.265 Y78 E30.44546
G1 X82.835 Y77.461 E30.56407
G1 X85.461 Y76.832 E30.68603
G1 X88.068 Y76.128 E30.808
G1 X90.653 Y75.352 E30.92991
G1 X93.149 Y74.524 E31.04868
G1 X95.704 Y73.596 E31.17146
G1 X98.165 Y72.622 E31.29101
G1 X100.655 Y71.555 E31.41337
G1 X103.061 Y70.441 E31.53312
G1 X105.458 Y69.248 E31.65406
G1 X107.838 Y67.98 E31.77586
G1 X109.771 Y66.889 E31.87611
G1 X111.2 Y66.176 E31.94824
G1 X113.07 Y65.306 E32.0414
G1 X113.615 Y65.062 E32.06837
G1 X115.059 Y64.511 E32.13818
G1 X117.076 Y63.804 E32.23472
G1 X117.603 Y63.627 E32.25983
G1 X119.115 Y63.214 E32.33062
G1 X121.162 Y62.715 E32.42579
G1 X121.714 Y62.587 E32.45138
G1 X123.234 Y62.328 E32.52102
G1 X125.392 Y62.022 E32.61947
G1 X125.909 Y61.956 E32.64301
G1 X127.486 Y61.845 E32.71442
G1 X129.556 Y61.756 E32.808
G1 X130.173 Y61.738 E32.83588
G1 X131.715 Y61.781 E32.90555
G1 X133.815 Y61.897 E33.00055
G1 X134.379 Y61.935 E33.02608
G1 X135.958 Y62.136 E33.09798
G1 X138.027 Y62.457 E33.19255
G1 X138.604 Y62.554 E33.21897
G1 X140.121 Y62.9 E33.28925
G1 X142.119 Y63.413 E33.38242
G1 X142.711 Y63.573 E33.41012
G1 X144.224 Y64.079 E33.48218
G1 X146.166 Y64.788 E33.57556
G1 X146.735 Y65.005 E33.60306
G1 X148.135 Y65.632 E33.67235
G1 X150.05 Y66.552 E33.76831
G1 X150.542 Y66.796 E33.79311
G1 X151.942 Y67.596 E33.86594
G1 X153.715 Y68.674 E33.95967
G1 X154.204 Y68.979 E33.9857
G1 X155.485 Y69.889 E34.05667
G1 X157.155 Y71.143 E34.151
G1 X157.623 Y71.505 E34.17772
G1 X158.79 Y72.519 E34.24755
G1 X160.334 Y73.934 E34.34214
G1 X160.784 Y74.361 E34.37016
G1 X161.843 Y75.48 E34.43975
G1 X163.275 Y77.079 E34.5367
G1 X163.633 Y77.493 E34.56142
G1 X164.592 Y78.73 E34.63212
G1 X165.835 Y80.429 E34.7272
G1 X166.17 Y80.9 E34.75331
G1 X166.996 Y82.215 E34.82345
G1 X168.066 Y84.025 E34.91842
G1 X168.351 Y84.522 E34.94429
G1 X169.06 Y85.944 E35.01606
G1 X169.936 Y87.825 E35.10978
G1 X170.182 Y88.374 E35.13696
G1 X170.737 Y89.828 E35.20725
G1 X171.447 Y91.849 E35.304
G1 X171.615 Y92.351 E35.32791
G1 X172.034 Y93.889 E35.39991
G1 X172.529 Y95.919 E35.49429
G1 X172.652 Y96.449 E35.51886
G1 X172.926 Y98.064 E35.59285
G1 X173.211 Y100.072 E35.68446
G1 X173.288 Y100.672 E35.71178
G1 X173.399 Y102.269 E35.78408
G1 X173.487 Y104.311 E35.8764
G1 X173.505 Y104.93 E35.90437
G1 X173.462 Y106.466 E35.97378
G1 X173.345 Y108.574 E36.06913
G1 X173.304 Y109.162 E36.09576
G1 X173.112 Y110.676 E36.16469
G1 X172.781 Y112.813 E36.26236
G1 X172.689 Y113.362 E36.2875
G1 X172.352 Y114.844 E36.35615
G1 X171.819 Y116.917 E36.45283
G1 X171.669 Y117.47 E36.47871
G1 X171.159 Y118.993 E36.55125
G1 X170.452 Y120.93 E36.64439
G1 X170.239 Y121.49 E36.67145
G1 X169.614 Y122.886 E36.74053
G1 X168.693 Y124.803 E36.83659
G1 X168.431 Y125.331 E36.86322
G1 X167.684 Y126.641 E36.93133
G1 X166.559 Y128.492 E37.02916
G1 X166.275 Y128.946 E37.05335
G1 X165.357 Y130.24 E37.12501
G1 X164.093 Y131.921 E37.22001
G1 X163.728 Y132.393 E37.24696
G1 X162.732 Y133.539 E37.31554
