;FLAVOR:Marlin
;TIME:7113
;Filament used: 5.35441m
;Layer height: 0.2
;MINX:49.699
;MINY:75.202
;MINZ:0.2
;MAXX:124.75
;MAXY:135.801
;MAXZ:32.4
;POSTPROCESSED
;ChangeAtZ instances: 1
;Generated with Cura_SteamEngine 4.5.0
M140 S80
M105
M190 S80
M104 S220
M105
M109 S220
M82 ;absolute extrusion mode
G21 ;metric values
G90 ;absolute positioning
M82 ;set extruder to absolute mode
M107 ;start with the fan off
G28 X0 Y0 ;move X/Y to min endstops
G28 Z0 ;move Z to min endstops
G1 Z15.0 F100 ;move the platform down 15mm
G92 E0 ;zero the extruded length
G1 F200 E3 ;extrude 3mm of feed stock
G92 E0 ;zero the extruded length again
G1 F100
G0 Y20 F100
M117 Printing...
G5
G92 E0
G92 E0
G1 F2400 E-6
;LAYER_COUNT:162
;LAYER:0
M106 S255
G1 F600 Z0.275
G0 F3000 X58.156 Y75.981 Z0.275
;TYPE:SKIRT
G1 F600 Z0.2
G1 F2400 E0
G1 X58.65 Y75.678 E0.02564
G1 X59.181 Y75.447 E0.05125
G1 X59.739 Y75.29 E0.07689
G1 X60.591 Y75.203 E0.11478
G1 X77.41 Y75.202 E0.85878
G1 X77.988 Y75.242 E0.88441
G1 X78.555 Y75.361 E0.91004
G1 X79.1 Y75.557 E0.93566
G1 X79.613 Y75.826 E0.96129
G1 X80.084 Y76.163 E0.9869
G1 X80.504 Y76.562 E1.01253
G1 X80.866 Y77.015 E1.03818
G1 X81.278 Y77.766 E1.07607
G1 X81.51 Y78.417 E1.10665
G1 X81.622 Y78.986 E1.1323
G1 X81.654 Y79.564 E1.15791
G1 X81.606 Y80.142 E1.18356
G1 X81.479 Y80.707 E1.20918
G1 X81.3 Y81.183 E1.23168
G1 X81.3 Y83.923 E1.35288
G1 X81.281 Y84.386 E1.37338
G1 X81.862 Y84.527 E1.39983
G1 X82.388 Y84.693 E1.42423
G1 X82.956 Y84.913 E1.45117
G1 X83.433 Y85.132 E1.47439
G1 X83.928 Y85.399 E1.49927
G1 X84.383 Y85.684 E1.52302
G1 X84.861 Y86.027 E1.54904
G1 X85.28 Y86.371 E1.57303
G1 X85.386 Y86.47 E1.57944
G1 X85.483 Y85.963 E1.60228
G1 X85.611 Y85.462 E1.62515
G1 X85.806 Y84.856 E1.65331
G1 X86.004 Y84.353 E1.67722
G1 X86.281 Y83.765 E1.70598
G1 X86.545 Y83.289 E1.73005
G1 X86.886 Y82.757 E1.75801
G1 X87.195 Y82.335 E1.78114
G1 X87.614 Y81.832 E1.8101
G1 X87.985 Y81.44 E1.83398
G1 X88.453 Y81.006 E1.86221
G1 X88.872 Y80.665 E1.88611
G1 X89.39 Y80.296 E1.91424
G1 X89.84 Y80.017 E1.93767
G1 X90.408 Y79.712 E1.96619
G1 X90.881 Y79.494 E1.98922
G1 X91.489 Y79.259 E2.01806
G1 X92.028 Y79.092 E2.04302
G1 X92.648 Y78.944 E2.07122
G1 X93.158 Y78.855 E2.09412
G1 X93.796 Y78.784 E2.12252
G1 X98.533 Y78.75 E2.33207
G1 X115.512 Y78.75 E3.08315
G1 X116.387 Y78.796 E3.12191
G1 X116.944 Y78.868 E3.14675
G1 X117.605 Y78.999 E3.17656
G1 X118.102 Y79.129 E3.19929
G1 X118.722 Y79.333 E3.22816
G1 X119.264 Y79.555 E3.25407
G1 X119.855 Y79.846 E3.28321
G1 X120.318 Y80.112 E3.30683
G1 X120.871 Y80.478 E3.33617
G1 X121.298 Y80.801 E3.35985
G1 X121.797 Y81.232 E3.38902
G1 X122.203 Y81.634 E3.41429
G1 X122.641 Y82.131 E3.4436
G1 X122.971 Y82.557 E3.46743
G1 X123.335 Y83.096 E3.4962
G1 X123.608 Y83.564 E3.52017
G1 X123.908 Y84.162 E3.54977
G1 X124.125 Y84.677 E3.57449
G1 X124.341 Y85.304 E3.60382
G1 X124.485 Y85.83 E3.62795
G1 X124.617 Y86.475 E3.65707
G1 X124.691 Y87.015 E3.68118
G1 X124.738 Y87.666 E3.71005
G1 X124.75 Y122.004 E5.22903
G1 X124.704 Y122.883 E5.26797
G1 X124.632 Y123.444 E5.29299
G1 X124.501 Y124.105 E5.3228
G1 X124.371 Y124.602 E5.34552
G1 X124.167 Y125.222 E5.37439
G1 X123.945 Y125.764 E5.4003
G1 X123.654 Y126.355 E5.42944
G1 X123.388 Y126.818 E5.45306
G1 X123.022 Y127.371 E5.4824
G1 X122.699 Y127.798 E5.50608
G1 X122.268 Y128.297 E5.53525
G1 X121.866 Y128.703 E5.56052
G1 X121.369 Y129.141 E5.58983
G1 X120.941 Y129.472 E5.61376
G1 X120.4 Y129.837 E5.64263
G1 X119.934 Y130.109 E5.6665
G1 X119.338 Y130.408 E5.696
G1 X118.823 Y130.625 E5.72072
G1 X118.196 Y130.841 E5.75005
G1 X117.67 Y130.985 E5.77418
G1 X117.025 Y131.117 E5.8033
G1 X116.483 Y131.191 E5.8275
G1 X115.826 Y131.238 E5.85664
G1 X94.497 Y131.25 E6.80015
G1 X93.634 Y131.205 E6.83837
G1 X93.103 Y131.139 E6.86204
G1 X92.463 Y131.017 E6.89087
G1 X91.962 Y130.889 E6.91374
G1 X91.356 Y130.694 E6.9419
G1 X90.853 Y130.495 E6.96583
G1 X90.263 Y130.217 E6.99468
G1 X89.785 Y129.953 E7.01884
G1 X89.255 Y129.613 E7.04669
G1 X88.835 Y129.305 E7.06973
G1 X88.332 Y128.886 E7.09869
G1 X88.125 Y128.69 E7.1113
G1 X87.949 Y129.439 E7.14533
G1 X87.763 Y130.009 E7.17186
G1 X87.563 Y130.509 E7.19568
G1 X87.302 Y131.058 E7.22257
G1 X87.025 Y131.553 E7.24766
G1 X86.695 Y132.058 E7.27435
G1 X86.37 Y132.491 E7.2983
G1 X85.984 Y132.942 E7.32456
G1 X85.604 Y133.332 E7.34864
G1 X85.151 Y133.74 E7.37561
G1 X84.708 Y134.088 E7.40053
G1 X84.213 Y134.426 E7.42705
G1 X83.743 Y134.704 E7.4512
G1 X83.208 Y134.975 E7.47773
G1 X82.709 Y135.188 E7.50173
G1 X82.143 Y135.388 E7.52829
G1 X81.61 Y135.538 E7.55278
G1 X81.017 Y135.663 E7.57959
G1 X80.48 Y135.74 E7.60359
G1 X79.881 Y135.787 E7.63017
G1 X58.513 Y135.801 E8.5754
G1 X57.719 Y135.762 E8.61057
G1 X57.204 Y135.7 E8.63351
G1 X56.638 Y135.596 E8.65897
G1 X56.128 Y135.469 E8.68222
G1 X55.56 Y135.289 E8.70858
G1 X55.068 Y135.098 E8.73192
G1 X54.544 Y134.856 E8.75745
G1 X54.064 Y134.595 E8.78162
G1 X53.56 Y134.277 E8.80799
G1 X53.129 Y133.966 E8.8315
G1 X52.685 Y133.6 E8.85695
G1 X52.293 Y133.231 E8.88077
G1 X51.889 Y132.8 E8.9069
G1 X51.551 Y132.391 E8.93037
G1 X51.21 Y131.92 E8.95609
G1 X50.925 Y131.468 E8.97973
G1 X50.642 Y130.949 E9.00588
G1 X50.417 Y130.467 E9.02941
G1 X50.206 Y129.927 E9.05505
G1 X50.045 Y129.422 E9.0785
G1 X49.902 Y128.853 E9.10445
G1 X49.804 Y128.318 E9.12851
G1 X49.736 Y127.738 E9.15435
G1 X49.707 Y127.25 E9.17597
G1 X49.699 Y93.014 E10.69044
G1 X49.738 Y92.22 E10.7256
G1 X49.802 Y91.692 E10.74913
G1 X49.916 Y91.082 E10.77658
G1 X50.051 Y90.556 E10.8006
G1 X50.232 Y89.999 E10.82651
G1 X50.429 Y89.503 E10.85012
G1 X50.678 Y88.976 E10.8759
G1 X50.939 Y88.504 E10.89976
G1 X51.253 Y88.014 E10.92551
G1 X51.566 Y87.587 E10.94893
G1 X51.942 Y87.137 E10.97487
G1 X52.315 Y86.745 E10.9988
G1 X52.748 Y86.345 E11.02488
G1 X53.156 Y86.013 E11.04815
G1 X53.622 Y85.68 E11.07348
G1 X54.071 Y85.4 E11.09689
G1 X54.581 Y85.125 E11.12252
G1 X55.061 Y84.904 E11.1459
G1 X55.61 Y84.692 E11.17193
G1 X56.129 Y84.529 E11.19599
G1 X56.708 Y84.388 E11.22236
G1 X56.744 Y84.382 E11.22397
G1 X56.7 Y83.92 E11.2445
G1 X56.7 Y81.174 E11.36597
G1 X56.466 Y80.498 E11.39762
G1 X56.368 Y79.927 E11.42324
G1 X56.35 Y79.348 E11.44887
G1 X56.412 Y78.772 E11.4745
G1 X56.552 Y78.21 E11.50012
G1 X56.723 Y77.767 E11.52112
G1 X56.985 Y77.25 E11.54676
G1 X57.316 Y76.774 E11.57241
G1 X57.708 Y76.348 E11.59802
G1 X58.156 Y75.981 E11.62364
G0 F3000 X58.604 Y76.353
G1 F2400 X59.076 Y76.093 E11.64747
G1 X59.582 Y75.906 E11.67134
G1 X60.11 Y75.795 E11.6952
G1 X60.591 Y75.763 E11.71653
G1 X77.41 Y75.762 E12.46053
G1 X77.948 Y75.802 E12.4844
G1 X78.474 Y75.921 E12.50825
G1 X78.976 Y76.116 E12.53208
G1 X79.444 Y76.384 E12.55593
G1 X79.868 Y76.717 E12.57978
G1 X80.238 Y77.11 E12.60366
G1 X80.545 Y77.553 E12.6275
G1 X80.806 Y78.088 E12.65383
G1 X80.979 Y78.599 E12.6777
G1 X81.074 Y79.129 E12.70152
G1 X81.09 Y79.668 E12.72537
G1 X81.026 Y80.204 E12.74925
G1 X80.884 Y80.724 E12.7731
G1 X80.74 Y81.051 E12.7889
G1 X80.74 Y83.923 E12.91595
G1 X80.7 Y84.461 E12.93981
G1 X80.614 Y84.842 E12.95709
G1 X81.148 Y84.931 E12.98104
G1 X81.729 Y85.072 E13.00748
G1 X82.754 Y85.435 E13.05559
G1 X83.662 Y85.892 E13.10055
G1 X84.534 Y86.482 E13.14713
G1 X85.343 Y87.196 E13.19486
G1 X85.819 Y87.726 E13.22637
G1 X85.854 Y87.164 E13.25128
G1 X86.033 Y86.067 E13.30045
G1 X86.339 Y85.028 E13.34836
G1 X86.788 Y84.004 E13.39782
G1 X87.357 Y83.059 E13.44662
G1 X88.044 Y82.19 E13.49562
G1 X88.834 Y81.417 E13.54451
G1 X89.715 Y80.752 E13.59334
G1 X90.673 Y80.205 E13.64214
G1 X91.691 Y79.782 E13.69091
G1 X92.778 Y79.488 E13.74072
G1 X93.858 Y79.34 E13.78894
G1 X98.534 Y79.31 E13.99579
G1 X115.512 Y79.31 E14.74683
G1 X116.352 Y79.355 E14.78404
G1 X117.497 Y79.548 E14.83541
G1 X118.547 Y79.865 E14.88392
G1 X119.017 Y80.057 E14.90638
G1 X119.608 Y80.348 E14.93552
G1 X120.562 Y80.945 E14.98531
G1 X121.431 Y81.656 E15.03497
G1 X122.221 Y82.501 E15.08615
G1 X122.871 Y83.41 E15.13558
G1 X123.408 Y84.413 E15.18591
G1 X123.812 Y85.486 E15.23662
G1 X124.068 Y86.587 E15.28663
G1 X124.18 Y87.706 E15.33638
G1 X124.19 Y122.004 E16.85358
G1 X124.145 Y122.849 E16.89101
G1 X123.952 Y123.997 E16.94251
G1 X123.635 Y125.047 E16.99103
G1 X123.443 Y125.517 E17.01349
G1 X123.152 Y126.108 E17.04263
G1 X122.555 Y127.062 E17.09241
G1 X121.844 Y127.931 E17.14208
G1 X120.999 Y128.721 E17.19325
G1 X120.087 Y129.372 E17.24282
G1 X119.087 Y129.908 E17.29301
G1 X118.014 Y130.312 E17.34372
G1 X116.913 Y130.568 E17.39373
G1 X115.786 Y130.68 E17.44383
G1 X94.497 Y130.69 E18.38557
G1 X93.668 Y130.646 E18.42229
G1 X92.567 Y130.467 E18.47163
G1 X91.528 Y130.161 E18.51955
G1 X90.501 Y129.711 E18.56915
G1 X89.558 Y129.142 E18.61787
G1 X88.69 Y128.456 E18.66681
G1 X87.917 Y127.666 E18.7157
G1 X87.722 Y127.427 E18.72934
G1 X87.645 Y128.216 E18.76441
G1 X87.533 Y128.81 E18.79115
G1 X87.23 Y129.835 E18.83843
G1 X86.796 Y130.818 E18.88597
G1 X86.226 Y131.751 E18.93433
G1 X85.558 Y132.578 E18.98136
G1 X84.776 Y133.324 E19.02917
G1 X83.898 Y133.963 E19.0772
G1 X82.955 Y134.475 E19.12467
G1 X81.957 Y134.86 E19.17199
G1 X80.902 Y135.115 E19.22
G1 X79.837 Y135.229 E19.26738
G1 X58.513 Y135.241 E20.21067
G1 X57.752 Y135.203 E20.24438
G1 X56.739 Y135.045 E20.28973
G1 X55.729 Y134.755 E20.33621
G1 X54.779 Y134.348 E20.38193
G1 X53.859 Y133.803 E20.42923
G1 X53.042 Y133.168 E20.47501
G1 X52.297 Y132.417 E20.5218
G1 X51.664 Y131.592 E20.5678
G1 X51.133 Y130.681 E20.61444
G1 X50.728 Y129.723 E20.66045
G1 X50.445 Y128.716 E20.70673
G1 X50.292 Y127.673 E20.75336
G1 X50.259 Y93.014 E22.28653
G1 X50.297 Y92.252 E22.32028
G1 X50.467 Y91.185 E22.36808
G1 X50.764 Y90.172 E22.41477
G1 X51.184 Y89.215 E22.46101
G1 X51.724 Y88.316 E22.5074
G1 X52.372 Y87.496 E22.55363
G1 X53.128 Y86.756 E22.60043
G1 X53.948 Y86.135 E22.64593
G1 X54.846 Y85.618 E22.69176
G1 X55.812 Y85.214 E22.73808
G1 X56.841 Y84.932 E22.78528
G1 X57.384 Y84.842 E22.80963
G1 X57.274 Y84.239 E22.83674
G1 X57.26 Y81.049 E22.97786
G1 X57.122 Y80.74 E22.99283
G1 X56.978 Y80.22 E23.0167
G1 X56.911 Y79.685 E23.04055
G1 X56.925 Y79.146 E23.0644
G1 X57.018 Y78.615 E23.08824
G1 X57.195 Y78.089 E23.11279
G1 X57.485 Y77.505 E23.14164
G1 X57.8 Y77.067 E23.1655
G1 X58.175 Y76.68 E23.18934
G1 X58.604 Y76.353 E23.2132
G0 F3000 X58.638 Y77.022
G1 F2400 X59.045 Y76.739 E23.23513
G1 X59.493 Y76.525 E23.2571
G1 X59.969 Y76.386 E23.27903
G1 X60.591 Y76.323 E23.30669
G1 X77.41 Y76.322 E24.05069
G1 X78.386 Y76.481 E24.09443
G1 X78.842 Y76.675 E24.11636
G1 X79.261 Y76.94 E24.13829
G1 X79.632 Y77.269 E24.16022
G1 X79.946 Y77.654 E24.1822
G1 X80.247 Y78.202 E24.20986
G1 X80.446 Y78.777 E24.23677
G1 X80.525 Y79.267 E24.25873
G1 X80.523 Y79.763 E24.28067
G1 X80.442 Y80.252 E24.30259
G1 X80.284 Y80.722 E24.32453
G1 X80.18 Y80.918 E24.33434
G1 X80.18 Y83.923 E24.46727
G1 X80.14 Y84.417 E24.4892
G1 X80.021 Y84.899 E24.51116
G1 X79.837 Y85.331 E24.53193
G1 X80.624 Y85.406 E24.5669
G1 X81.597 Y85.616 E24.61093
G1 X82.551 Y85.957 E24.65575
G1 X83.396 Y86.385 E24.69765
G1 X84.208 Y86.937 E24.74109
G1 X84.96 Y87.605 E24.78558
G1 X85.615 Y88.36 E24.82979
G1 X86.174 Y89.208 E24.87472
G1 X86.37 Y89.577 E24.89321
G1 X86.37 Y87.986 E24.96359
G1 X86.413 Y87.198 E24.9985
G1 X86.583 Y86.172 E25.0445
G1 X86.872 Y85.2 E25.08936
G1 X87.295 Y84.242 E25.13568
G1 X87.829 Y83.361 E25.18126
G1 X88.474 Y82.549 E25.22713
G1 X89.215 Y81.828 E25.27286
G1 X90.04 Y81.208 E25.31852
G1 X90.938 Y80.698 E25.3642
G1 X91.893 Y80.304 E25.4099
G1 X92.908 Y80.033 E25.45637
G1 X93.92 Y79.897 E25.50154
G1 X98.535 Y79.87 E25.70569
G1 X115.512 Y79.87 E26.45669
G1 X116.318 Y79.914 E26.49239
G1 X117.388 Y80.098 E26.54042
G1 X118.372 Y80.397 E26.58591
G1 X119.361 Y80.851 E26.63405
G1 X120.253 Y81.412 E26.68067
G1 X121.065 Y82.08 E26.72718
G1 X121.801 Y82.872 E26.77501
G1 X122.406 Y83.723 E26.82119
G1 X122.907 Y84.664 E26.86835
G1 X123.282 Y85.669 E26.9158
G1 X123.519 Y86.699 E26.96256
G1 X123.621 Y87.746 E27.00909
G1 X123.63 Y122.004 E28.52453
G1 X123.586 Y122.815 E28.56046
G1 X123.402 Y123.888 E28.60861
G1 X123.103 Y124.872 E28.65411
G1 X122.649 Y125.861 E28.70225
G1 X122.088 Y126.753 E28.74886
G1 X121.42 Y127.565 E28.79537
G1 X120.628 Y128.301 E28.8432
G1 X119.774 Y128.908 E28.88955
G1 X118.836 Y129.407 E28.93655
G1 X117.831 Y129.782 E28.984
G1 X116.801 Y130.019 E29.03075
G1 X115.746 Y130.121 E29.07764
G1 X94.497 Y130.13 E30.01761
G1 X93.702 Y130.087 E30.05283
G1 X92.672 Y129.917 E30.09901
G1 X91.7 Y129.628 E30.14387
G1 X90.74 Y129.204 E30.19029
G1 X89.86 Y128.67 E30.23582
G1 X89.049 Y128.026 E30.28163
G1 X88.328 Y127.285 E30.32737
G1 X87.703 Y126.453 E30.3734
G1 X87.194 Y125.553 E30.41914
G1 X87.181 Y127.014 E30.48377
G1 X87.142 Y127.734 E30.51567
G1 X86.983 Y128.707 E30.55928
G1 X86.698 Y129.661 E30.60332
G1 X86.291 Y130.577 E30.64766
G1 X85.757 Y131.445 E30.69274
G1 X85.133 Y132.214 E30.73655
G1 X84.401 Y132.908 E30.78117
G1 X83.582 Y133.501 E30.8259
G1 X82.702 Y133.976 E30.87014
G1 X81.77 Y134.332 E30.91427
G1 X80.786 Y134.567 E30.95902
G1 X79.793 Y134.671 E31.00319
G1 X58.513 Y134.681 E31.94453
G1 X57.784 Y134.644 E31.97682
G1 X56.84 Y134.494 E32.0191
G1 X55.899 Y134.221 E32.06245
G1 X55.014 Y133.839 E32.10509
G1 X54.157 Y133.33 E32.14918
G1 X53.398 Y132.736 E32.19181
G1 X52.706 Y132.034 E32.23542
G1 X52.117 Y131.263 E32.27834
G1 X51.625 Y130.412 E32.32182
G1 X51.249 Y129.519 E32.36468
G1 X50.988 Y128.58 E32.4078
G1 X50.848 Y127.608 E32.45124
G1 X50.819 Y93.014 E33.98154
G1 X50.856 Y92.285 E34.01383
G1 X51.017 Y91.288 E34.0585
G1 X51.297 Y90.345 E34.10202
G1 X51.69 Y89.454 E34.14509
G1 X52.196 Y88.618 E34.18832
G1 X52.801 Y87.855 E34.2314
G1 X53.508 Y87.168 E34.275
G1 X54.273 Y86.591 E34.31739
G1 X55.112 Y86.111 E34.36015
G1 X56.013 Y85.737 E34.4033
G1 X56.973 Y85.476 E34.44731
G1 X57.947 Y85.343 E34.4908
G1 X58.169 Y85.33 E34.50064
G1 X57.941 Y84.774 E34.52722
G1 X57.842 Y84.288 E34.54916
G1 X57.82 Y80.932 E34.69762
G1 X57.611 Y80.437 E34.72139
G1 X57.5 Y79.954 E34.74331
G1 X57.467 Y79.459 E34.76525
G1 X57.515 Y78.965 E34.78721
G1 X57.71 Y78.307 E34.81757
G1 X57.984 Y77.763 E34.84451
G1 X58.281 Y77.366 E34.86645
G1 X58.638 Y77.022 E34.88838
G0 F3000 X59.094 Y77.376
G1 F2400 X59.478 Y77.142 E34.90827
G1 X59.896 Y76.981 E34.92808
G1 X60.591 Y76.883 E34.95913
G1 X77.41 Y76.882 E35.70314
G1 X77.857 Y76.922 E35.72299
G1 X78.289 Y77.04 E35.7428
G1 X78.694 Y77.234 E35.76266
G1 X79.058 Y77.496 E35.7825
G1 X79.37 Y77.818 E35.80234
G1 X79.731 Y78.42 E35.83339
G1 X79.912 Y78.951 E35.8582
G1 X79.972 Y79.396 E35.87807
G1 X79.951 Y79.844 E35.89791
G1 X79.852 Y80.281 E35.91773
G1 X79.62 Y80.78 E35.94207
G1 X79.62 Y83.923 E36.0811
G1 X79.58 Y84.37 E36.10096
G1 X79.462 Y84.802 E36.12077
G1 X79.268 Y85.207 E36.14063
G1 X79.006 Y85.571 E36.16047
G1 X78.684 Y85.883 E36.1803
G1 X79.695 Y85.883 E36.22503
G1 X80.564 Y85.963 E36.26363
G1 X81.465 Y86.16 E36.30443
G1 X82.349 Y86.479 E36.346
G1 X83.13 Y86.878 E36.3848
G1 X83.881 Y87.392 E36.42505
G1 X84.578 Y88.014 E36.46638
G1 X85.183 Y88.716 E36.50737
G1 X85.698 Y89.503 E36.54898
G1 X86.097 Y90.329 E36.58956
G1 X86.391 Y91.223 E36.63119
G1 X86.563 Y92.126 E36.67185
G1 X86.597 Y92.532 E36.68987
G1 X86.62 Y99.792 E37.01103
G1 X86.622 Y118.544 E37.84054
G1 X86.582 Y118.991 E37.86039
G1 X86.425 Y119.505 E37.88417
G1 X86.577 Y119.997 E37.90695
G1 X86.621 Y120.468 E37.92787
G1 X86.621 Y127.014 E38.21744
G1 X86.583 Y127.699 E38.24779
G1 X86.432 Y128.603 E38.28833
G1 X86.166 Y129.488 E38.32921
G1 X85.785 Y130.337 E38.37038
G1 X85.289 Y131.139 E38.41209
G1 X84.708 Y131.85 E38.45271
G1 X84.026 Y132.491 E38.49411
G1 X83.266 Y133.038 E38.53553
G1 X82.449 Y133.476 E38.57654
