;FLAVOR:Marlin
;TIME:10864
;Filament used: 4.48569m
;Layer height: 0.1
;MINX:65.1
;MINY:62.1
;MINZ:0.2
;MAXX:144.9
;MAXY:126.9
;MAXZ:21
;POSTPROCESSED
;ChangeAtZ instances: 1
;Generated with Cura_SteamEngine 4.4.1
M140 S75
M105
M190 S75
M104 S185
M105
M109 S185
M82 ;absolute extrusion mode
G21 ;metric values
G90 ;absolute positioning
M82 ;set extruder to absolute mode
M107 ;start with the fan off
G28 X0 Y0 ;move X/Y to min endstops
G28 Z0 ;move Z to min endstops
G1 Z15.0 F100 ;move the platform down 15mm
G92 E0 ;zero the extruded length
G1 F200 E3 ;extrude 3mm of feed stock
G92 E0 ;zero the extruded length again
G1 F100
G0 Y20 F100
M117 Printing...
G5
G92 E0
G92 E0
G1 F4200 E-5
;LAYER_COUNT:209
;LAYER:0
M106 S127.5
M204 S3000
M205 X10 Y10
G1 F600 Z0.275
G0 F3000 X67.735 Y65.61 Z0.275
M204 S1800
M205 X8 Y8
;TYPE:SKIRT
G1 F600 Z0.2
G1 F4200 E0
G1 F2400 X68.342 Y64.988 E0.03925
G1 X68.86 Y64.524 E0.07067
G1 X69.586 Y63.962 E0.11213
G1 X69.774 Y63.837 E0.12233
G1 X70.046 Y63.666 E0.13684
G1 X70.404 Y63.453 E0.15566
G1 X71.006 Y63.136 E0.18639
G1 X71.189 Y63.052 E0.19548
G1 X71.487 Y62.925 E0.21011
G1 X71.888 Y62.765 E0.22961
G1 X72.581 Y62.533 E0.26262
G1 X72.787 Y62.477 E0.27227
G1 X73.013 Y62.42 E0.28279
G1 X73.399 Y62.33 E0.30069
G1 X74.155 Y62.201 E0.33533
G1 X74.374 Y62.177 E0.34529
G1 X74.647 Y62.153 E0.35766
G1 X75.069 Y62.125 E0.37677
G1 X75.358 Y62.112 E0.38983
G1 X75.88 Y62.101 E0.41342
G1 X76.015 Y62.1 E0.41951
G1 X133.793 Y62.1 E3.02919
G1 X133.884 Y62.101 E3.0333
G1 X134.59 Y62.111 E3.06519
G1 X134.986 Y62.129 E3.08309
G1 X135.602 Y62.176 E3.111
G1 X136.395 Y62.286 E3.14716
G1 X136.591 Y62.326 E3.15619
G1 X136.898 Y62.397 E3.17043
G1 X137.316 Y62.504 E3.18991
G1 X138.005 Y62.722 E3.22256
G1 X138.21 Y62.8 E3.23246
G1 X138.476 Y62.908 E3.24543
G1 X138.848 Y63.069 E3.26374
G1 X139.639 Y63.479 E3.30398
G1 X140.18 Y63.809 E3.3326
G1 X140.99 Y64.395 E3.37776
G1 X141.388 Y64.733 E3.40134
G1 X142.022 Y65.352 E3.44136
G1 X142.483 Y65.869 E3.47265
G1 X143.014 Y66.552 E3.51173
G1 X143.142 Y66.742 E3.52207
G1 X143.334 Y67.046 E3.53831
G1 X143.547 Y67.404 E3.55713
G1 X143.864 Y68.006 E3.58786
G1 X143.948 Y68.189 E3.59695
G1 X144.075 Y68.487 E3.61158
G1 X144.235 Y68.888 E3.63109
G1 X144.465 Y69.574 E3.66377
G1 X144.521 Y69.779 E3.67336
G1 X144.581 Y70.015 E3.68436
G1 X144.671 Y70.402 E3.70231
G1 X144.799 Y71.152 E3.73667
G1 X144.823 Y71.37 E3.74658
G1 X144.847 Y71.646 E3.75909
G1 X144.875 Y72.068 E3.7782
G1 X144.888 Y72.38 E3.7923
G1 X144.898 Y72.95 E3.81805
G1 X144.899 Y73.062 E3.82311
G1 X144.9 Y115.472 E5.73865
G1 X144.899 Y115.56 E5.74263
G1 X144.887 Y116.435 E5.78215
G1 X144.877 Y116.717 E5.7949
G1 X144.833 Y117.476 E5.82924
G1 X144.719 Y118.367 E5.86981
G1 X144.676 Y118.581 E5.87967
G1 X144.599 Y118.916 E5.89519
G1 X144.495 Y119.32 E5.91404
G1 X144.291 Y119.968 E5.94472
G1 X144.218 Y120.163 E5.95412
G1 X144.103 Y120.449 E5.96805
G1 X143.936 Y120.837 E5.98713
G1 X143.519 Y121.643 E6.02812
G1 X143.188 Y122.185 E6.0568
G1 X142.6 Y122.997 E6.10208
G1 X142.263 Y123.393 E6.12557
G1 X141.655 Y124.016 E6.16489
G1 X141.136 Y124.48 E6.19633
G1 X140.413 Y125.039 E6.23761
G1 X140.228 Y125.162 E6.24764
G1 X139.953 Y125.335 E6.26232
G1 X139.591 Y125.55 E6.28134
G1 X139.005 Y125.858 E6.31124
G1 X138.823 Y125.942 E6.32029
G1 X138.513 Y126.075 E6.33553
G1 X138.112 Y126.235 E6.35503
G1 X137.419 Y126.467 E6.38804
G1 X137.213 Y126.523 E6.39768
G1 X136.987 Y126.58 E6.40821
G1 X136.601 Y126.67 E6.42611
G1 X135.845 Y126.799 E6.46075
G1 X135.626 Y126.823 E6.4707
G1 X135.353 Y126.847 E6.48308
G1 X134.931 Y126.875 E6.50218
G1 X134.619 Y126.888 E6.51628
G1 X134.05 Y126.898 E6.54199
G1 X133.938 Y126.899 E6.54705
G1 X76.49 Y126.9 E9.14182
G1 X76.401 Y126.899 E9.14584
G1 X75.608 Y126.888 E9.18166
G1 X75.433 Y126.884 E9.18956
G1 X75.118 Y126.871 E9.2038
G1 X74.956 Y126.862 E9.21113
G1 X74.536 Y126.834 E9.23014
G1 X73.588 Y126.699 E9.27339
G1 X72.919 Y126.552 E9.30433
G1 X72.095 Y126.312 E9.3431
G1 X71.868 Y126.229 E9.35401
G1 X71.522 Y126.091 E9.37084
G1 X71.148 Y125.929 E9.38925
G1 X70.358 Y125.519 E9.42945
G1 X69.819 Y125.19 E9.45797
G1 X69.007 Y124.603 E9.50323
G1 X68.606 Y124.262 E9.527
G1 X67.973 Y123.643 E9.56699
G1 X67.508 Y123.121 E9.59857
G1 X66.957 Y122.407 E9.6393
G1 X66.836 Y122.225 E9.64917
G1 X66.665 Y121.952 E9.66372
G1 X66.451 Y121.592 E9.68264
G1 X66.046 Y120.789 E9.72326
G1 X65.8 Y120.2 E9.75209
G1 X65.524 Y119.388 E9.79083
G1 X65.471 Y119.19 E9.80009
G1 X65.419 Y118.985 E9.80964
G1 X65.329 Y118.598 E9.82758
G1 X65.201 Y117.842 E9.86222
G1 X65.177 Y117.622 E9.87221
G1 X65.153 Y117.352 E9.88446
G1 X65.125 Y116.93 E9.90356
G1 X65.112 Y116.619 E9.91762
G1 X65.102 Y116.051 E9.94328
G1 X65.101 Y115.938 E9.94838
G1 X65.1 Y73.419 E11.86885
G1 X65.101 Y73.327 E11.873
G1 X65.111 Y72.634 E11.90431
G1 X65.116 Y72.446 E11.9128
G1 X65.135 Y72.012 E11.93242
G1 X65.145 Y71.838 E11.9403
G1 X65.171 Y71.472 E11.95687
G1 X65.305 Y70.548 E11.99904
G1 X65.421 Y70.022 E12.02337
G1 X65.598 Y69.382 E12.05336
G1 X65.709 Y69.048 E12.06926
G1 X65.908 Y68.524 E12.09457
G1 X66.069 Y68.152 E12.11288
G1 X66.488 Y67.347 E12.15387
G1 X66.823 Y66.801 E12.18281
G1 X67.401 Y66.003 E12.22731
G1 X67.735 Y65.61 E12.25061
M204 S3000
M205 X10 Y10
G0 F3000 X68.162 Y65.973
M204 S1800
M205 X8 Y8
G1 F2400 X68.715 Y65.405 E12.28641
G1 X69.233 Y64.941 E12.31782
G1 X69.897 Y64.428 E12.35572
G1 X70.085 Y64.303 E12.36592
G1 X70.332 Y64.147 E12.37911
G1 X70.69 Y63.934 E12.39793
G1 X71.24 Y63.645 E12.42599
G1 X71.423 Y63.561 E12.43509
G1 X71.695 Y63.445 E12.44844
G1 X72.096 Y63.285 E12.46794
G1 X72.728 Y63.074 E12.49804
G1 X72.934 Y63.018 E12.50768
G1 X73.14 Y62.966 E12.51728
G1 X73.526 Y62.876 E12.53518
G1 X74.216 Y62.758 E12.5668
G1 X74.435 Y62.734 E12.57675
G1 X74.684 Y62.712 E12.58804
G1 X75.106 Y62.684 E12.60714
G1 X75.37 Y62.672 E12.61908
G1 X75.892 Y62.661 E12.64266
G1 X76.015 Y62.66 E12.64822
G1 X133.793 Y62.66 E15.25789
G1 X133.876 Y62.661 E15.26164
G1 X134.582 Y62.671 E15.29353
G1 X134.943 Y62.687 E15.30985
G1 X135.559 Y62.734 E15.33775
G1 X136.283 Y62.835 E15.37077
G1 X136.479 Y62.875 E15.37981
G1 X136.759 Y62.939 E15.39278
G1 X137.177 Y63.046 E15.41227
G1 X137.806 Y63.246 E15.44208
G1 X138.011 Y63.324 E15.45199
G1 X138.254 Y63.422 E15.46382
G1 X138.626 Y63.583 E15.48213
G1 X139.347 Y63.957 E15.51882
G1 X139.888 Y64.287 E15.54744
G1 X140.627 Y64.822 E15.58865
G1 X141.025 Y65.16 E15.61223
G1 X141.604 Y65.724 E15.64874
G1 X142.065 Y66.241 E15.68003
G1 X142.549 Y66.865 E15.7157
G1 X142.677 Y67.055 E15.72604
G1 X142.853 Y67.332 E15.74087
G1 X143.066 Y67.69 E15.75968
G1 X143.355 Y68.24 E15.78774
G1 X143.439 Y68.423 E15.79684
G1 X143.555 Y68.695 E15.8102
G1 X143.715 Y69.096 E15.8297
G1 X143.925 Y69.721 E15.85948
G1 X143.981 Y69.926 E15.86908
G1 X144.035 Y70.142 E15.87913
G1 X144.125 Y70.529 E15.89708
G1 X144.242 Y71.213 E15.92842
G1 X144.266 Y71.431 E15.93833
G1 X144.288 Y71.683 E15.94975
G1 X144.316 Y72.105 E15.96885
G1 X144.328 Y72.39 E15.98174
G1 X144.338 Y72.96 E16.00749
G1 X144.339 Y73.062 E16.0121
G1 X144.34 Y115.472 E17.92764
G1 X144.339 Y115.552 E17.93125
G1 X144.327 Y116.427 E17.97078
G1 X144.318 Y116.685 E17.98244
G1 X144.274 Y117.444 E18.01678
G1 X144.17 Y118.256 E18.05375
G1 X144.127 Y118.47 E18.06361
G1 X144.057 Y118.776 E18.07779
G1 X143.953 Y119.18 E18.09663
G1 X143.766 Y119.771 E18.12463
G1 X143.693 Y119.966 E18.13404
G1 X143.588 Y120.228 E18.14678
G1 X143.421 Y120.616 E18.16586
G1 X143.041 Y121.351 E18.20324
G1 X142.71 Y121.893 E18.23192
G1 X142.174 Y122.634 E18.27323
G1 X141.837 Y123.03 E18.29671
G1 X141.281 Y123.599 E18.33265
G1 X140.762 Y124.063 E18.36409
G1 X140.103 Y124.572 E18.4017
G1 X139.918 Y124.695 E18.41174
G1 X139.667 Y124.853 E18.42513
G1 X139.305 Y125.068 E18.44415
G1 X138.77 Y125.349 E18.47144
G1 X138.588 Y125.433 E18.4805
G1 X138.305 Y125.555 E18.49442
G1 X137.904 Y125.715 E18.51392
G1 X137.272 Y125.926 E18.54401
G1 X137.066 Y125.982 E18.55365
G1 X136.86 Y126.034 E18.56325
G1 X136.474 Y126.124 E18.58115
G1 X135.784 Y126.242 E18.61277
G1 X135.565 Y126.266 E18.62272
G1 X135.316 Y126.288 E18.63401
G1 X134.894 Y126.316 E18.65311
G1 X134.61 Y126.328 E18.66595
G1 X134.041 Y126.338 E18.69166
G1 X133.938 Y126.339 E18.69631
G1 X76.49 Y126.34 E21.29108
G1 X76.409 Y126.339 E21.29474
G1 X75.616 Y126.328 E21.33056
G1 X75.456 Y126.324 E21.33779
G1 X75.141 Y126.311 E21.35203
G1 X74.994 Y126.303 E21.35868
G1 X74.574 Y126.275 E21.37769
G1 X73.709 Y126.152 E21.41715
G1 X73.04 Y126.005 E21.44809
G1 X72.288 Y125.786 E21.48347
G1 X72.061 Y125.703 E21.49438
G1 X71.745 Y125.577 E21.50975
G1 X71.371 Y125.415 E21.52816
G1 X70.649 Y125.041 E21.56488
G1 X70.11 Y124.712 E21.59341
G1 X69.37 Y124.176 E21.63468
G1 X68.969 Y123.835 E21.65845
G1 X68.391 Y123.271 E21.69493
G1 X67.926 Y122.749 E21.7265
G1 X67.424 Y122.097 E21.76367
G1 X67.303 Y121.915 E21.77354
G1 X67.146 Y121.666 E21.78684
G1 X66.932 Y121.306 E21.80575
G1 X66.563 Y120.573 E21.84282
G1 X66.317 Y119.984 E21.87165
G1 X66.065 Y119.243 E21.907
G1 X66.012 Y119.045 E21.91626
G1 X65.965 Y118.858 E21.92497
G1 X65.875 Y118.471 E21.94291
G1 X65.757 Y117.781 E21.97453
G1 X65.733 Y117.561 E21.98453
G1 X65.712 Y117.315 E21.99568
G1 X65.684 Y116.893 E22.01478
G1 X65.672 Y116.609 E22.02762
G1 X65.662 Y116.041 E22.05328
G1 X65.661 Y115.938 E22.05793
G1 X65.66 Y73.419 E23.9784
G1 X65.661 Y73.335 E23.98219
G1 X65.671 Y72.642 E24.0135
G1 X65.676 Y72.471 E24.02122
G1 X65.695 Y72.037 E24.04085
G1 X65.704 Y71.878 E24.04804
G1 X65.73 Y71.512 E24.06461
G1 X65.852 Y70.668 E24.10313
G1 X65.968 Y70.142 E24.12746
G1 X66.129 Y69.558 E24.15482
G1 X66.24 Y69.224 E24.17072
G1 X66.422 Y68.746 E24.19382
G1 X66.583 Y68.374 E24.21213
G1 X66.965 Y67.64 E24.2495
G1 X67.3 Y67.094 E24.27843
G1 X67.828 Y66.366 E24.31905
G1 X68.162 Y65.973 E24.34235
M204 S3000
M205 X10 Y10
G0 F3000 X68.589 Y66.336
M204 S1800
M205 X8 Y8
G1 F2400 X69.089 Y65.822 E24.37474
G1 X69.607 Y65.358 E24.40615
G1 X70.207 Y64.894 E24.44041
G1 X70.395 Y64.769 E24.4506
G1 X70.618 Y64.628 E24.46252
G1 X70.976 Y64.415 E24.48134
G1 X71.473 Y64.154 E24.50669
G1 X71.656 Y64.07 E24.51579
G1 X71.902 Y63.965 E24.52787
G1 X72.303 Y63.805 E24.54737
G1 X72.875 Y63.614 E24.57461
G1 X73.081 Y63.558 E24.58425
G1 X73.267 Y63.511 E24.59291
G1 X73.653 Y63.421 E24.61082
G1 X74.277 Y63.314 E24.63941
G1 X74.496 Y63.29 E24.64936
G1 X74.721 Y63.271 E24.65956
G1 X75.143 Y63.243 E24.67866
G1 X75.382 Y63.232 E24.68947
G1 X75.904 Y63.221 E24.71305
G1 X76.015 Y63.22 E24.71807
G1 X133.793 Y63.22 E27.32774
G1 X133.868 Y63.221 E27.33113
G1 X134.574 Y63.231 E27.36302
G1 X134.901 Y63.245 E27.3778
G1 X135.517 Y63.292 E27.40571
G1 X136.171 Y63.384 E27.43554
G1 X136.367 Y63.424 E27.44457
G1 X136.62 Y63.482 E27.4563
G1 X137.038 Y63.589 E27.47578
G1 X137.607 Y63.769 E27.50274
G1 X137.812 Y63.847 E27.51265
G1 X138.031 Y63.936 E27.52332
G1 X138.403 Y64.097 E27.54163
G1 X139.056 Y64.435 E27.57484
G1 X139.597 Y64.765 E27.60347
G1 X140.265 Y65.248 E27.6407
G1 X140.663 Y65.586 E27.66428
G1 X141.186 Y66.097 E27.69731
G1 X141.647 Y66.614 E27.7286
G1 X142.085 Y67.178 E27.76085
G1 X142.213 Y67.368 E27.7712
G1 X142.372 Y67.618 E27.78458
G1 X142.585 Y67.976 E27.80339
G1 X142.846 Y68.473 E27.82875
G1 X142.93 Y68.656 E27.83784
G1 X143.035 Y68.902 E27.84993
G1 X143.195 Y69.303 E27.86943
G1 X143.384 Y69.869 E27.89638
G1 X143.44 Y70.074 E27.90598
G1 X143.49 Y70.269 E27.91507
G1 X143.58 Y70.656 E27.93302
G1 X143.685 Y71.274 E27.96133
G1 X143.709 Y71.492 E27.97124
G1 X143.729 Y71.72 E27.98157
G1 X143.757 Y72.142 E28.00068
G1 X143.768 Y72.399 E28.01229
G1 X143.778 Y72.969 E28.03804
G1 X143.779 Y73.062 E28.04224
G1 X143.78 Y115.472 E29.95779
G1 X143.78 Y115.544 E29.96104
G1 X143.768 Y116.419 E30.00056
G1 X143.759 Y116.653 E30.01114
G1 X143.715 Y117.412 E30.04548
G1 X143.621 Y118.146 E30.0789
G1 X143.578 Y118.36 E30.08876
G1 X143.514 Y118.636 E30.10156
G1 X143.41 Y119.04 E30.1204
G1 X143.242 Y119.575 E30.14573
G1 X143.169 Y119.77 E30.15514
G1 X143.074 Y120.006 E30.16663
G1 X142.907 Y120.394 E30.18571
G1 X142.563 Y121.059 E30.21952
G1 X142.232 Y121.601 E30.24821
G1 X141.747 Y122.271 E30.28557
G1 X141.41 Y122.667 E30.30905
G1 X140.908 Y123.181 E30.3415
G1 X140.389 Y123.645 E30.37295
G1 X139.793 Y124.106 E30.40698
G1 X139.608 Y124.229 E30.41702
G1 X139.381 Y124.372 E30.42913
G1 X139.019 Y124.587 E30.44815
G1 X138.536 Y124.841 E30.4728
G1 X138.354 Y124.925 E30.48185
G1 X138.098 Y125.035 E30.49444
G1 X137.697 Y125.195 E30.51394
G1 X137.125 Y125.386 E30.54118
G1 X136.919 Y125.442 E30.55082
G1 X136.733 Y125.489 E30.55948
G1 X136.347 Y125.579 E30.57739
G1 X135.723 Y125.686 E30.60598
G1 X135.504 Y125.71 E30.61593
G1 X135.279 Y125.729 E30.62613
G1 X134.857 Y125.757 E30.64523
G1 X134.6 Y125.768 E30.65685
G1 X134.031 Y125.778 E30.68256
G1 X133.938 Y125.779 E30.68676
G1 X76.49 Y125.78 E33.28153
G1 X76.417 Y125.779 E33.28482
G1 X75.624 Y125.768 E33.32064
G1 X75.479 Y125.765 E33.32719
G1 X75.164 Y125.752 E33.34143
G1 X75.031 Y125.744 E33.34745
G1 X74.611 Y125.716 E33.36647
G1 X73.829 Y125.605 E33.40214
G1 X73.16 Y125.458 E33.43308
G1 X72.48 Y125.26 E33.46507
G1 X72.253 Y125.177 E33.47598
G1 X71.967 Y125.063 E33.48989
G1 X71.593 Y124.901 E33.5083
G1 X70.941 Y124.563 E33.54147
G1 X70.402 Y124.234 E33.56999
G1 X69.733 Y123.749 E33.60731
G1 X69.332 Y123.408 E33.63109
G1 X68.809 Y122.898 E33.66408
G1 X68.344 Y122.376 E33.69566
G1 X67.89 Y121.787 E33.72925
G1 X67.769 Y121.605 E33.73912
G1 X67.627 Y121.38 E33.75114
G1 X67.413 Y121.02 E33.77005
G1 X67.08 Y120.357 E33.80356
G1 X66.834 Y119.768 E33.8324
G1 X66.606 Y119.098 E33.86436
G1 X66.553 Y118.9 E33.87362
G1 X66.51 Y118.731 E33.8815
G1 X66.42 Y118.344 E33.89944
G1 X66.314 Y117.721 E33.92799
G1 X66.29 Y117.501 E33.93798
G1 X66.271 Y117.278 E33.94809
G1 X66.243 Y116.856 E33.96719
G1 X66.232 Y116.599 E33.97881
G1 X66.222 Y116.031 E34.00447
G1 X66.221 Y115.938 E34.00867
G1 X66.22 Y73.419 E35.92914
G1 X66.221 Y73.343 E35.93257
G1 X66.231 Y72.65 E35.96388
G1 X66.235 Y72.495 E35.97088
G1 X66.254 Y72.061 E35.9905
G1 X66.262 Y71.918 E35.99697
G1 X66.288 Y71.552 E36.01354
G1 X66.399 Y70.789 E36.04837
G1 X66.515 Y70.263 E36.0727
G1 X66.66 Y69.735 E36.09743
G1 X66.771 Y69.401 E36.11332
G1 X66.936 Y68.969 E36.13421
G1 X67.097 Y68.597 E36.15252
G1 X67.443 Y67.933 E36.18634
G1 X67.778 Y67.387 E36.21527
G1 X68.255 Y66.729 E36.25198
G1 X68.589 Y66.336 E36.27527
M204 S3000
M205 X10 Y10
G1 F4200 E31.27527
;MESH:Top.stl
G0 F3000 X116.724 Y83.552
G0 X117.993 Y83.495
G0 X118.044 Y83.408
M204 S1800
M205 X8 Y8
;TYPE:WALL-OUTER
G1 F4200 E36.27527
G1 F1350 X118.138 Y83.492 E36.28097
G1 X118.175 Y83.597 E36.286
G1 X118.196 Y83.659 E36.28895
G1 X118.208 Y84.125 E36.31001
G1 X118.196 Y84.125
G1 X118.13 Y84.125 E36.31279
G1 X116.827 Y84.125 E36.37164
G1 X116.641 Y84.125 E36.38004
G1 X116.643 Y83.873 E36.39143
G1 X116.678 Y83.69 E36.39806
G1 X116.706 Y83.544 E36.40478
G1 X116.798 Y83.436 E36.41118
G1 X116.936 Y83.365 E36.41819
G1 X117.431 Y83.309 E36.44069
G1 X117.836 Y83.342 E36.45905
G1 X118.044 Y83.408 E36.4689
M204 S3000
M205 X10 Y10
G0 F3000 X118.138 Y83.492
G0 X118.162 Y83.562
G0 X117.888 Y83.664
M204 S1800
M205 X8 Y8
;TYPE:SKIN
G1 F1350 X117.662 Y83.721 E36.47421
G1 X117.118 Y83.742 E36.4866
M204 S3000
M205 X10 Y10
G0 F3000 X117.141 Y83.565
G1 F4200 E31.4866
G0 F3000 X118.194 Y84.112
G0 X132.569 Y90.444
G0 X133.472 Y90.45
G0 X133.536 Y90.367
M204 S1800
M205 X8 Y8
;TYPE:WALL-OUTER
G1 F4200 E36.4866
G1 F1350 X133.564 Y90.398 E36.48849
G1 X133.609 Y90.648 E36.49996
G1 X133.609 Y90.785 E36.50615
G1 X133.564 Y90.785
G1 X133.536 Y90.785
