;FLAVOR:Marlin
;TIME:4146
;Filament used: 2.81059m
;Layer height: 0.2
;MINX:65.1
;MINY:75.325
;MINZ:0.2
;MAXX:144.9
;MAXY:140.125
;MAXZ:5.4
;POSTPROCESSED
;ChangeAtZ instances: 1
;Generated with Cura_SteamEngine 4.4.1
M140 S75
M105
M190 S75
M104 S185
M105
M109 S185
M82 ;absolute extrusion mode
G21 ;metric values
G90 ;absolute positioning
M82 ;set extruder to absolute mode
M107 ;start with the fan off
G28 X0 Y0 ;move X/Y to min endstops
G28 Z0 ;move Z to min endstops
G1 Z15.0 F100 ;move the platform down 15mm
G92 E0 ;zero the extruded length
G1 F200 E3 ;extrude 3mm of feed stock
G92 E0 ;zero the extruded length again
G1 F100
G0 Y20 F100
M117 Printing...
G5
G92 E0
G92 E0
G1 F4200 E-5
;LAYER_COUNT:27
;LAYER:0
M106 S127.5
M204 S3000
M205 X10 Y10
G1 F600 Z0.275
G0 F3000 X68.774 Y77.825 Z0.275
M204 S1800
M205 X8 Y8
;TYPE:SKIRT
G1 F600 Z0.2
G1 F4200 E0
G1 F2400 X69.407 Y77.318 E0.03663
G1 X69.602 Y77.181 E0.0474
G1 X69.966 Y76.943 E0.06704
G1 X70.331 Y76.722 E0.08631
G1 X70.922 Y76.406 E0.11658
G1 X71.124 Y76.311 E0.12666
G1 X71.422 Y76.18 E0.14137
G1 X71.793 Y76.028 E0.15948
G1 X72.494 Y75.787 E0.19296
G1 X72.712 Y75.726 E0.20318
G1 X72.953 Y75.663 E0.21443
G1 X73.339 Y75.571 E0.23236
G1 X74.04 Y75.445 E0.26452
G1 X74.259 Y75.418 E0.27449
G1 X74.565 Y75.388 E0.28838
G1 X74.926 Y75.361 E0.30473
G1 X75.298 Y75.344 E0.32155
G1 X76.15 Y75.33 E0.36004
G1 X76.255 Y75.329 E0.36478
G1 X130.566 Y75.325 E2.81786
G1 X133.793 Y75.325 E2.96361
G1 X133.884 Y75.326 E2.96772
G1 X134.59 Y75.336 E2.99962
G1 X134.988 Y75.354 E3.01761
G1 X135.523 Y75.395 E3.04185
G1 X136.345 Y75.512 E3.07935
G1 X136.823 Y75.612 E3.10141
G1 X137.386 Y75.757 E3.12766
G1 X137.755 Y75.87 E3.14509
G1 X138.355 Y76.086 E3.1739
G1 X138.732 Y76.244 E3.19236
G1 X139.339 Y76.537 E3.2228
G1 X139.532 Y76.643 E3.23275
G1 X139.803 Y76.801 E3.24692
G1 X140.138 Y77.007 E3.26468
G1 X140.717 Y77.409 E3.29652
G1 X140.902 Y77.553 E3.30711
G1 X141.134 Y77.742 E3.32062
G1 X141.378 Y77.951 E3.33513
G1 X141.944 Y78.5 E3.37075
G1 X142.399 Y78.999 E3.40125
G1 X142.907 Y79.632 E3.43791
G1 X143.044 Y79.827 E3.44867
G1 X143.282 Y80.191 E3.46832
G1 X143.503 Y80.556 E3.48759
G1 X143.819 Y81.147 E3.51786
G1 X143.914 Y81.349 E3.52794
G1 X144.044 Y81.643 E3.54246
G1 X144.195 Y82.011 E3.56043
G1 X144.434 Y82.705 E3.59358
G1 X144.496 Y82.925 E3.60391
G1 X144.562 Y83.181 E3.61585
G1 X144.654 Y83.568 E3.63381
G1 X144.78 Y84.265 E3.6658
G1 X144.807 Y84.484 E3.67577
G1 X144.837 Y84.787 E3.68952
G1 X144.864 Y85.146 E3.70578
G1 X144.881 Y85.517 E3.72256
G1 X144.895 Y86.338 E3.75965
G1 X144.896 Y86.446 E3.76453
G1 X144.9 Y128.985 E5.6859
G1 X144.899 Y129.07 E5.68974
G1 X144.889 Y129.832 E5.72416
G1 X144.869 Y130.26 E5.74351
G1 X144.828 Y130.771 E5.76666
G1 X144.713 Y131.57 E5.80312
G1 X144.613 Y132.048 E5.82518
G1 X144.472 Y132.6 E5.85091
G1 X144.36 Y132.968 E5.86829
G1 X144.134 Y133.592 E5.89826
G1 X143.975 Y133.969 E5.91674
G1 X143.695 Y134.549 E5.94583
G1 X143.588 Y134.745 E5.95592
G1 X143.424 Y135.029 E5.97073
G1 X143.22 Y135.361 E5.98833
G1 X142.821 Y135.936 E6.01994
G1 X142.661 Y136.142 E6.03173
G1 X142.459 Y136.389 E6.04614
G1 X142.213 Y136.675 E6.06318
G1 X141.746 Y137.163 E6.09369
G1 X141.594 Y137.306 E6.10311
G1 X141.34 Y137.533 E6.1185
G1 X141.017 Y137.806 E6.1376
G1 X140.486 Y138.209 E6.16771
G1 X140.317 Y138.324 E6.17694
G1 X140.039 Y138.503 E6.19188
G1 X139.68 Y138.721 E6.21085
G1 X139.084 Y139.041 E6.2414
G1 X138.878 Y139.138 E6.25169
G1 X138.573 Y139.272 E6.26673
G1 X138.206 Y139.422 E6.28464
G1 X137.532 Y139.655 E6.31685
G1 X137.31 Y139.718 E6.32727
G1 X137.047 Y139.787 E6.33955
G1 X136.661 Y139.879 E6.35748
G1 X135.96 Y140.005 E6.38965
G1 X135.741 Y140.032 E6.39961
G1 X135.435 Y140.062 E6.4135
G1 X135.074 Y140.089 E6.42985
G1 X134.702 Y140.106 E6.44667
G1 X133.85 Y140.12 E6.48516
G1 X133.745 Y140.121 E6.4899
G1 X79.434 Y140.125 E8.94298
G1 X76.207 Y140.125 E9.08874
G1 X76.116 Y140.124 E9.09285
G1 X75.411 Y140.114 E9.12469
G1 X75.013 Y140.096 E9.14269
G1 X74.478 Y140.055 E9.16692
G1 X73.659 Y139.939 E9.20428
G1 X73.18 Y139.839 E9.22639
G1 X72.614 Y139.693 E9.25279
G1 X72.245 Y139.58 E9.27022
G1 X71.65 Y139.366 E9.29878
G1 X71.265 Y139.205 E9.31763
G1 X70.623 Y138.893 E9.34987
G1 X70.436 Y138.789 E9.35953
G1 X70.192 Y138.646 E9.37231
G1 X69.859 Y138.441 E9.38997
G1 X69.292 Y138.048 E9.42113
G1 X69.096 Y137.896 E9.43233
G1 X68.837 Y137.684 E9.44745
G1 X68.538 Y137.426 E9.46529
G1 X68.05 Y136.958 E9.49583
G1 X67.9 Y136.798 E9.50573
G1 X67.68 Y136.551 E9.52067
G1 X67.419 Y136.242 E9.53894
G1 X66.996 Y135.682 E9.57064
G1 X66.869 Y135.493 E9.58092
G1 X66.71 Y135.244 E9.59427
G1 X66.5 Y134.898 E9.61255
G1 X66.179 Y134.299 E9.64324
G1 X66.085 Y134.099 E9.65323
G1 X65.956 Y133.807 E9.66764
G1 X65.805 Y133.439 E9.68561
G1 X65.566 Y132.745 E9.71876
G1 X65.504 Y132.525 E9.72909
G1 X65.44 Y132.278 E9.74061
G1 X65.346 Y131.885 E9.75886
G1 X65.214 Y131.142 E9.79295
G1 X65.189 Y130.929 E9.80263
G1 X65.163 Y130.663 E9.81471
G1 X65.136 Y130.304 E9.83097
G1 X65.119 Y129.929 E9.84792
G1 X65.105 Y129.074 E9.88655
G1 X65.104 Y128.97 E9.89124
G1 X65.1 Y86.419 E11.81316
G1 X65.101 Y86.322 E11.81754
G1 X65.112 Y85.587 E11.85074
G1 X65.132 Y85.164 E11.86987
G1 X65.172 Y84.672 E11.89216
G1 X65.287 Y83.88 E11.92831
G1 X65.387 Y83.402 E11.95037
G1 X65.532 Y82.839 E11.97663
G1 X65.645 Y82.47 E11.99406
G1 X65.867 Y81.857 E12.0235
G1 X66.034 Y81.461 E12.04292
G1 X66.338 Y80.837 E12.07427
G1 X66.437 Y80.659 E12.08347
G1 X66.588 Y80.402 E12.09693
G1 X66.799 Y80.061 E12.11504
G1 X67.202 Y79.484 E12.14683
G1 X67.339 Y79.309 E12.15687
G1 X67.519 Y79.089 E12.16971
G1 X67.729 Y78.844 E12.18428
G1 X68.276 Y78.279 E12.2198
G1 X68.774 Y77.825 E12.25024
M204 S3000
M205 X10 Y10
G0 F3000 X69.152 Y78.239
M204 S1800
M205 X8 Y8
G1 F2400 X69.729 Y77.776 E12.28365
G1 X69.924 Y77.639 E12.29442
G1 X70.256 Y77.422 E12.31233
G1 X70.621 Y77.201 E12.33161
G1 X71.161 Y76.912 E12.35927
G1 X71.363 Y76.817 E12.36935
G1 X71.634 Y76.698 E12.38272
G1 X72.005 Y76.546 E12.40083
G1 X72.645 Y76.326 E12.4314
G1 X72.863 Y76.265 E12.44162
G1 X73.083 Y76.208 E12.45189
G1 X73.469 Y76.116 E12.46981
G1 X74.108 Y76.001 E12.49913
G1 X74.327 Y75.974 E12.5091
G1 X74.606 Y75.946 E12.52177
G1 X74.967 Y75.919 E12.53812
G1 X75.307 Y75.904 E12.55349
G1 X76.159 Y75.89 E12.59198
G1 X76.255 Y75.889 E12.59631
G1 X130.566 Y75.885 E15.04939
G1 X133.793 Y75.885 E15.19515
G1 X133.876 Y75.886 E15.1989
G1 X134.582 Y75.896 E15.23079
G1 X134.945 Y75.912 E15.2472
G1 X135.48 Y75.953 E15.27143
G1 X136.23 Y76.06 E15.30565
G1 X136.708 Y76.16 E15.32771
G1 X137.222 Y76.292 E15.35168
G1 X137.591 Y76.405 E15.36911
G1 X138.138 Y76.603 E15.39538
G1 X138.515 Y76.761 E15.41385
G1 X139.069 Y77.028 E15.44162
G1 X139.262 Y77.134 E15.45157
G1 X139.51 Y77.278 E15.46452
G1 X139.845 Y77.484 E15.48229
G1 X140.373 Y77.851 E15.51133
G1 X140.558 Y77.995 E15.52192
G1 X140.77 Y78.168 E15.53428
G1 X141.014 Y78.377 E15.54879
G1 X141.53 Y78.877 E15.58124
G1 X141.985 Y79.376 E15.61174
G1 X142.449 Y79.954 E15.64522
G1 X142.586 Y80.149 E15.65598
G1 X142.803 Y80.481 E15.6739
G1 X143.024 Y80.846 E15.69317
G1 X143.313 Y81.386 E15.72084
G1 X143.408 Y81.588 E15.73092
G1 X143.526 Y81.856 E15.74414
G1 X143.677 Y82.224 E15.76211
G1 X143.895 Y82.857 E15.79235
G1 X143.957 Y83.077 E15.80267
G1 X144.018 Y83.31 E15.81355
G1 X144.11 Y83.697 E15.83152
G1 X144.224 Y84.333 E15.8607
G1 X144.251 Y84.552 E15.87067
G1 X144.279 Y84.829 E15.88324
G1 X144.306 Y85.188 E15.89951
G1 X144.321 Y85.526 E15.91479
G1 X144.335 Y86.347 E15.95187
G1 X144.336 Y86.446 E15.95635
G1 X144.34 Y128.985 E17.87772
G1 X144.339 Y129.063 E17.88124
G1 X144.329 Y129.825 E17.91566
G1 X144.311 Y130.215 E17.93329
G1 X144.27 Y130.726 E17.95645
G1 X144.165 Y131.455 E17.98972
G1 X144.065 Y131.933 E18.01177
G1 X143.936 Y132.437 E18.03527
G1 X143.824 Y132.805 E18.05265
G1 X143.618 Y133.374 E18.07998
G1 X143.459 Y133.751 E18.09846
G1 X143.204 Y134.28 E18.12498
G1 X143.097 Y134.476 E18.13507
G1 X142.947 Y134.735 E18.14859
G1 X142.743 Y135.067 E18.16619
G1 X142.379 Y135.592 E18.19504
G1 X142.219 Y135.798 E18.20682
G1 X142.034 Y136.024 E18.22002
G1 X141.788 Y136.31 E18.23706
G1 X141.363 Y136.756 E18.26488
G1 X141.211 Y136.899 E18.27431
G1 X140.979 Y137.105 E18.28832
G1 X140.656 Y137.378 E18.30742
G1 X140.171 Y137.746 E18.33492
G1 X140.002 Y137.861 E18.34415
G1 X139.748 Y138.025 E18.35781
G1 X139.389 Y138.243 E18.37678
G1 X138.846 Y138.535 E18.40463
G1 X138.64 Y138.632 E18.41491
G1 X138.361 Y138.754 E18.42867
G1 X137.994 Y138.904 E18.44657
G1 X137.379 Y139.116 E18.47596
G1 X137.157 Y139.179 E18.48638
G1 X136.917 Y139.242 E18.49759
G1 X136.531 Y139.334 E18.51551
G1 X135.892 Y139.449 E18.54483
G1 X135.673 Y139.476 E18.5548
G1 X135.394 Y139.504 E18.56747
G1 X135.033 Y139.531 E18.58382
G1 X134.693 Y139.546 E18.59919
G1 X133.841 Y139.56 E18.63768
G1 X133.745 Y139.561 E18.64201
G1 X79.434 Y139.565 E21.09509
G1 X76.207 Y139.565 E21.24085
G1 X76.124 Y139.564 E21.2446
G1 X75.419 Y139.554 E21.27644
G1 X75.056 Y139.538 E21.29285
G1 X74.521 Y139.497 E21.31709
G1 X73.774 Y139.391 E21.35117
G1 X73.295 Y139.291 E21.37327
G1 X72.778 Y139.158 E21.39738
G1 X72.409 Y139.045 E21.41481
G1 X71.866 Y138.849 E21.44089
G1 X71.481 Y138.688 E21.45973
G1 X70.896 Y138.404 E21.48911
G1 X70.709 Y138.3 E21.49877
G1 X70.485 Y138.169 E21.51049
G1 X70.152 Y137.964 E21.52815
G1 X69.635 Y137.606 E21.55656
G1 X69.439 Y137.454 E21.56776
G1 X69.203 Y137.261 E21.58153
G1 X68.904 Y137.003 E21.59937
G1 X68.459 Y136.575 E21.62726
G1 X68.309 Y136.415 E21.63716
G1 X68.108 Y136.189 E21.65082
G1 X67.847 Y135.88 E21.66909
G1 X67.461 Y135.369 E21.69802
G1 X67.334 Y135.18 E21.7083
G1 X67.189 Y134.953 E21.72047
G1 X66.979 Y134.607 E21.73875
G1 X66.686 Y134.061 E21.76674
G1 X66.592 Y133.861 E21.77672
G1 X66.474 Y133.594 E21.7899
G1 X66.323 Y133.226 E21.80787
G1 X66.105 Y132.593 E21.83811
G1 X66.043 Y132.373 E21.84843
G1 X65.984 Y132.148 E21.85894
G1 X65.89 Y131.755 E21.87719
G1 X65.77 Y131.077 E21.90829
G1 X65.745 Y130.864 E21.91798
G1 X65.721 Y130.621 E21.929
G1 X65.694 Y130.262 E21.94527
G1 X65.679 Y129.92 E21.96073
G1 X65.665 Y129.065 E21.99935
G1 X65.664 Y128.97 E22.00364
G1 X65.66 Y86.419 E23.92555
G1 X65.661 Y86.331 E23.92953
G1 X65.672 Y85.596 E23.96273
G1 X65.69 Y85.21 E23.98018
G1 X65.73 Y84.718 E24.00248
G1 X65.835 Y83.995 E24.03548
G1 X65.935 Y83.517 E24.05754
G1 X66.067 Y83.003 E24.08151
G1 X66.18 Y82.634 E24.09894
G1 X66.383 Y82.075 E24.1258
G1 X66.55 Y81.679 E24.14521
G1 X66.827 Y81.109 E24.17383
G1 X66.926 Y80.931 E24.18303
G1 X67.064 Y80.697 E24.1953
G1 X67.275 Y80.356 E24.21342
G1 X67.643 Y79.829 E24.24245
G1 X67.78 Y79.654 E24.25249
G1 X67.944 Y79.453 E24.2642
G1 X68.154 Y79.208 E24.27878
G1 X68.654 Y78.693 E24.3112
G1 X69.152 Y78.239 E24.34164
M204 S3000
M205 X10 Y10
G0 F3000 X69.529 Y78.653
M204 S1800
M205 X8 Y8
G1 F2400 X70.051 Y78.235 E24.37184
G1 X70.246 Y78.098 E24.38261
G1 X70.546 Y77.901 E24.39882
G1 X70.911 Y77.68 E24.41809
G1 X71.399 Y77.419 E24.44308
G1 X71.601 Y77.324 E24.45317
G1 X71.846 Y77.216 E24.46526
G1 X72.217 Y77.064 E24.48337
G1 X72.796 Y76.865 E24.51102
G1 X73.014 Y76.804 E24.52125
G1 X73.213 Y76.753 E24.53053
G1 X73.599 Y76.661 E24.54845
G1 X74.177 Y76.557 E24.57497
G1 X74.396 Y76.53 E24.58494
G1 X74.648 Y76.505 E24.59638
G1 X75.009 Y76.478 E24.61273
G1 X75.316 Y76.464 E24.62661
G1 X76.168 Y76.45 E24.6651
G1 X76.255 Y76.449 E24.66903
G1 X130.566 Y76.445 E27.12211
G1 X133.793 Y76.445 E27.26786
G1 X133.868 Y76.446 E27.27125
G1 X134.574 Y76.456 E27.30314
G1 X134.902 Y76.47 E27.31797
G1 X135.437 Y76.511 E27.34221
G1 X136.115 Y76.608 E27.37314
G1 X136.593 Y76.708 E27.3952
G1 X137.058 Y76.827 E27.41688
G1 X137.427 Y76.94 E27.43431
G1 X137.922 Y77.119 E27.45808
G1 X138.299 Y77.277 E27.47655
G1 X138.8 Y77.519 E27.50168
G1 X138.993 Y77.625 E27.51162
G1 X139.217 Y77.755 E27.52332
G1 X139.552 Y77.961 E27.54108
G1 X140.029 Y78.292 E27.56731
G1 X140.214 Y78.436 E27.5779
G1 X140.406 Y78.593 E27.5891
G1 X140.65 Y78.802 E27.60361
G1 X141.117 Y79.254 E27.63296
G1 X141.572 Y79.753 E27.66347
G1 X141.99 Y80.276 E27.69371
G1 X142.127 Y80.471 E27.70447
G1 X142.324 Y80.771 E27.72068
G1 X142.545 Y81.136 E27.73995
G1 X142.806 Y81.624 E27.76495
G1 X142.901 Y81.826 E27.77503
G1 X143.008 Y82.069 E27.78702
G1 X143.159 Y82.437 E27.80499
G1 X143.356 Y83.009 E27.83231
G1 X143.418 Y83.229 E27.84264
G1 X143.473 Y83.44 E27.85249
G1 X143.565 Y83.827 E27.87045
G1 X143.668 Y84.402 E27.89684
G1 X143.695 Y84.621 E27.90681
G1 X143.72 Y84.871 E27.91815
G1 X143.747 Y85.23 E27.93441
G1 X143.761 Y85.536 E27.94825
G1 X143.775 Y86.357 E27.98534
G1 X143.776 Y86.447 E27.9894
G1 X143.78 Y128.986 E29.91077
G1 X143.78 Y129.055 E29.91389
G1 X143.77 Y129.817 E29.94831
G1 X143.753 Y130.17 E29.96427
G1 X143.712 Y130.681 E29.98743
G1 X143.617 Y131.34 E30.0175
G1 X143.517 Y131.818 E30.03956
G1 X143.4 Y132.274 E30.06082
G1 X143.288 Y132.642 E30.0782
G1 X143.102 Y133.157 E30.10293
G1 X142.943 Y133.534 E30.12141
G1 X142.712 Y134.012 E30.14539
G1 X142.605 Y134.208 E30.15547
G1 X142.47 Y134.442 E30.16767
G1 X142.266 Y134.774 E30.18527
G1 X141.937 Y135.249 E30.21137
G1 X141.777 Y135.455 E30.22315
G1 X141.61 Y135.659 E30.23506
G1 X141.364 Y135.945 E30.2521
G1 X140.979 Y136.348 E30.27727
G1 X140.827 Y136.491 E30.2867
G1 X140.617 Y136.678 E30.2994
G1 X140.294 Y136.951 E30.3185
G1 X139.856 Y137.283 E30.34333
G1 X139.687 Y137.398 E30.35256
G1 X139.458 Y137.546 E30.36488
G1 X139.099 Y137.764 E30.38385
G1 X138.607 Y138.028 E30.40907
G1 X138.401 Y138.125 E30.41935
G1 X138.15 Y138.236 E30.43175
G1 X137.783 Y138.386 E30.44965
G1 X137.226 Y138.577 E30.47625
G1 X137.004 Y138.64 E30.48667
G1 X136.787 Y138.697 E30.49681
G1 X136.401 Y138.789 E30.51473
G1 X135.823 Y138.893 E30.54126
G1 X135.604 Y138.92 E30.55122
G1 X135.352 Y138.945 E30.56266
G1 X134.991 Y138.972 E30.57901
G1 X134.684 Y138.986 E30.59289
G1 X133.832 Y139 E30.63138
G1 X133.745 Y139.001 E30.63531
G1 X79.434 Y139.005 E33.08839
G1 X76.207 Y139.005 E33.23414
G1 X76.132 Y139.004 E33.23753
G1 X75.427 Y138.994 E33.26938
G1 X75.099 Y138.98 E33.28421
G1 X74.564 Y138.939 E33.30844
G1 X73.888 Y138.843 E33.33928
G1 X73.409 Y138.743 E33.36138
G1 X72.942 Y138.623 E33.38316
G1 X72.573 Y138.51 E33.40059
G1 X72.082 Y138.332 E33.42418
G1 X71.697 Y138.171 E33.44303
G1 X71.168 Y137.914 E33.46959
G1 X70.981 Y137.81 E33.47926
G1 X70.779 Y137.692 E33.48982
G1 X70.446 Y137.487 E33.50749
G1 X69.978 Y137.163 E33.5332
G1 X69.782 Y137.011 E33.5444
G1 X69.569 Y136.837 E33.55682
G1 X69.27 Y136.579 E33.57466
G1 X68.867 Y136.192 E33.5999
G1 X68.717 Y136.032 E33.6098
G1 X68.535 Y135.828 E33.62215
G1 X68.274 Y135.519 E33.64042
G1 X67.926 Y135.057 E33.66654
G1 X67.799 Y134.868 E33.67683
G1 X67.667 Y134.663 E33.68784
G1 X67.457 Y134.317 E33.70612
G1 X67.192 Y133.823 E33.73144
G1 X67.098 Y133.623 E33.74142
G1 X66.992 Y133.381 E33.75336
G1 X66.841 Y133.013 E33.77132
G1 X66.644 Y132.441 E33.79865
G1 X66.582 Y132.221 E33.80897
G1 X66.529 Y132.017 E33.81849
G1 X66.435 Y131.624 E33.83674
G1 X66.326 Y131.011 E33.86487
G1 X66.301 Y130.798 E33.87455
G1 X66.28 Y130.579 E33.88449
G1 X66.253 Y130.22 E33.90075
G1 X66.239 Y129.91 E33.91477
G1 X66.225 Y129.055 E33.95339
G1 X66.224 Y128.969 E33.95727
G1 X66.22 Y86.418 E35.87919
G1 X66.221 Y86.339 E35.88276
G1 X66.232 Y85.604 E35.91596
G1 X66.248 Y85.255 E35.93174
G1 X66.288 Y84.763 E35.95403
G1 X66.383 Y84.11 E35.98384
G1 X66.483 Y83.632 E36.00589
G1 X66.602 Y83.167 E36.02757
G1 X66.715 Y82.798 E36.045
G1 X66.899 Y82.292 E36.06932
G1 X67.066 Y81.896 E36.08874
G1 X67.317 Y81.382 E36.11457
G1 X67.416 Y81.204 E36.12377
