;FLAVOR:Marlin
;TIME:5000
;Filament used: 4.9846m
;Layer height: 0.2
;MINX:73.355
;MINY:76.88
;MINZ:0.3
;MAXX:131.995
;MAXY:171.12
;MAXZ:19.3
;POSTPROCESSED
;ChangeAtZ instances: 1
;Generated with Cura_SteamEngine 4.4.1
M140 S80
M105
M190 S80
M104 S250
M105
M109 S250
M82 ;absolute extrusion mode
G21 ;metric values
G90 ;absolute positioning
M82 ;set extruder to absolute mode
M107 ;start with the fan off
G28 X0 Y0 ;move X/Y to min endstops
G28 Z0 ;move Z to min endstops
G1 Z15.0 F250 ;move the platform down 15mm
G92 E0 ;zero the extruded length
G1 F200 E3 ;extrude 3mm of feed stock
G92 E0 ;zero the extruded length again
G1 F250
G0 Y20 F250
M117 Printing...
G5
G92 E0
G92 E0
G1 F2700 E-6
;LAYER_COUNT:96
;LAYER:0
M107
G0 F4800 X83.869 Y78.938 Z0.3
;TYPE:SKIRT
G1 F2700 E0
G1 F1200 X84.413 Y78.439 E0.04548
G1 X85.008 Y78.002 E0.09097
G1 X85.647 Y77.632 E0.13647
G1 X86.322 Y77.333 E0.18195
G1 X87.025 Y77.109 E0.22741
G1 X87.749 Y76.962 E0.27293
G1 X88.551 Y76.892 E0.32253
G1 X88.873 Y76.883 E0.34238
G1 X89.064 Y76.88 E0.35415
G1 X120.563 Y76.88 E2.29494
G1 X120.661 Y76.881 E2.30098
G1 X121.359 Y76.891 E2.34399
G1 X122.095 Y76.941 E2.38945
G1 X122.822 Y77.071 E2.43495
G1 X123.531 Y77.279 E2.48048
G1 X124.213 Y77.562 E2.52597
G1 X124.86 Y77.917 E2.57144
G1 X125.465 Y78.34 E2.61693
G1 X126.021 Y78.826 E2.66243
G1 X126.521 Y79.369 E2.70791
G1 X126.96 Y79.963 E2.75342
G1 X127.331 Y80.601 E2.79889
G1 X127.632 Y81.276 E2.84443
G1 X127.858 Y81.979 E2.88993
G1 X128.006 Y82.702 E2.9354
G1 X128.078 Y83.513 E2.98556
G1 X128.087 Y83.825 E3.00479
G1 X128.09 Y84.022 E3.01693
G1 X128.09 Y103.426 E4.2125
G1 X128.127 Y106.045 E4.37388
G1 X128.24 Y108.697 E4.53743
G1 X128.426 Y111.318 E4.69933
G1 X128.686 Y113.946 E4.86204
G1 X129.023 Y116.575 E5.02535
G1 X129.428 Y119.154 E5.1862
G1 X129.913 Y121.765 E5.34983
G1 X130.46 Y124.306 E5.50998
G1 X131.092 Y126.883 E5.67347
G1 X131.651 Y128.941 E5.80486
G1 X131.807 Y129.672 E5.85092
G1 X131.904 Y130.291 E5.88952
G1 X131.985 Y131.242 E5.94833
G1 X131.994 Y131.826 E5.98432
G1 X131.995 Y131.931 E5.99079
G1 X131.995 Y161.305 E7.80065
G1 X131.994 Y161.402 E7.80662
G1 X131.981 Y162.313 E7.86276
G1 X131.971 Y162.603 E7.88064
G1 X131.948 Y163.008 E7.90563
G1 X131.866 Y163.742 E7.95114
G1 X131.682 Y164.546 E8.00196
G1 X131.544 Y165.015 E8.03208
G1 X131.297 Y165.711 E8.07758
G1 X130.866 Y166.571 E8.13686
G1 X130.612 Y166.999 E8.16752
G1 X130.201 Y167.612 E8.21299
G1 X129.59 Y168.319 E8.27057
G1 X129.247 Y168.665 E8.30059
G1 X128.7 Y169.161 E8.34608
G1 X127.897 Y169.722 E8.40644
G1 X127.466 Y169.979 E8.43736
G1 X126.812 Y170.322 E8.48286
G1 X125.959 Y170.646 E8.53908
G1 X125.545 Y170.772 E8.56574
G1 X124.828 Y170.948 E8.61123
G1 X124.25 Y171.032 E8.64722
G1 X123.818 Y171.076 E8.67397
G1 X123.232 Y171.11 E8.71014
G1 X122.649 Y171.119 E8.74607
G1 X122.544 Y171.12 E8.75254
G1 X83.202 Y171.12 E11.17657
G1 X83.105 Y171.119 E11.18255
G1 X82.188 Y171.106 E11.23905
G1 X81.895 Y171.096 E11.25712
G1 X81.458 Y171.071 E11.28409
G1 X80.725 Y170.989 E11.32953
G1 X79.916 Y170.803 E11.38068
G1 X79.53 Y170.689 E11.40548
G1 X78.835 Y170.442 E11.45092
G1 X78.123 Y170.095 E11.49972
G1 X77.594 Y169.798 E11.5371
G1 X76.971 Y169.402 E11.58259
G1 X76.394 Y168.941 E11.62809
G1 X76.006 Y168.567 E11.6613
G1 X75.67 Y168.216 E11.69123
G1 X75.189 Y167.656 E11.73672
G1 X74.701 Y166.928 E11.79072
G1 X74.476 Y166.541 E11.8183
G1 X74.14 Y165.883 E11.86382
G1 X73.837 Y165.065 E11.91757
G1 X73.682 Y164.546 E11.95094
G1 X73.51 Y163.828 E11.99644
G1 X73.435 Y163.31 E12.02868
G1 X73.405 Y163.026 E12.04628
G1 X73.367 Y162.38 E12.08615
G1 X73.363 Y161.993 E12.11
G1 X73.363 Y161.925 E12.11419
G1 X73.355 Y132.211 E13.945
G1 X73.356 Y132.117 E13.95079
G1 X73.367 Y131.305 E14.00083
G1 X73.38 Y130.965 E14.02179
G1 X73.408 Y130.524 E14.04902
G1 X73.494 Y129.791 E14.09449
G1 X73.678 Y129.01 E14.14393
G1 X73.759 Y128.738 E14.16141
G1 X73.814 Y128.562 E14.17278
G1 X73.888 Y128.336 E14.18743
G1 X74.097 Y127.779 E14.22408
G1 X74.463 Y126.922 E14.2815
G1 X75.447 Y124.519 E14.44149
G1 X76.399 Y121.994 E14.60776
G1 X77.246 Y119.528 E14.76841
G1 X78.031 Y117.024 E14.9301
G1 X78.748 Y114.487 E15.09254
G1 X79.405 Y111.885 E15.25789
G1 X79.964 Y109.363 E15.41705
G1 X80.468 Y106.748 E15.58114
G1 X80.889 Y104.179 E15.74154
G1 X81.244 Y101.547 E15.90518
G1 X81.52 Y98.942 E16.06658
G1 X81.724 Y96.301 E16.22979
G1 X81.853 Y93.676 E16.39172
G1 X81.911 Y90.357 E16.59625
G1 X81.911 Y84.374 E16.96489
G1 X81.912 Y84.261 E16.97185
G1 X81.923 Y83.596 E17.01283
G1 X81.975 Y82.86 E17.05829
G1 X82.107 Y82.133 E17.10382
G1 X82.316 Y81.425 E17.1493
G1 X82.6 Y80.744 E17.19477
G1 X82.957 Y80.097 E17.2403
G1 X83.381 Y79.493 E17.28577
G1 X83.869 Y78.938 E17.3313
G0 F4800 X84.377 Y79.166
G1 F1200 X84.916 Y78.704 E17.37504
G1 X85.503 Y78.305 E17.41877
G1 X86.132 Y77.975 E17.46254
G1 X86.793 Y77.718 E17.50624
G1 X87.479 Y77.537 E17.54995
G1 X88.181 Y77.434 E17.59367
G1 X88.566 Y77.411 E17.61743
G1 X88.888 Y77.402 E17.63728
G1 X89.064 Y77.4 E17.64812
G1 X120.563 Y77.4 E19.58891
G1 X120.653 Y77.401 E19.59446
G1 X121.351 Y77.411 E19.63747
G1 X122.059 Y77.461 E19.6812
G1 X122.757 Y77.59 E19.72494
G1 X123.436 Y77.797 E19.76867
G1 X124.087 Y78.079 E19.81239
G1 X124.702 Y78.433 E19.85611
G1 X125.274 Y78.853 E19.89983
G1 X125.795 Y79.335 E19.94356
G1 X126.258 Y79.873 E19.9873
G1 X126.658 Y80.459 E20.03101
G1 X126.989 Y81.087 E20.07475
G1 X127.248 Y81.748 E20.1185
G1 X127.43 Y82.433 E20.16217
G1 X127.535 Y83.135 E20.2059
G1 X127.558 Y83.528 E20.23016
G1 X127.567 Y83.84 E20.24939
G1 X127.57 Y84.022 E20.2606
G1 X127.57 Y103.426 E21.45617
G1 X127.608 Y106.075 E21.6194
G1 X127.72 Y108.718 E21.7824
G1 X127.908 Y111.371 E21.94627
G1 X128.168 Y113.994 E22.10867
G1 X128.504 Y116.619 E22.27173
G1 X128.919 Y119.262 E22.43657
G1 X129.402 Y121.862 E22.59951
G1 X129.955 Y124.431 E22.76143
G1 X130.592 Y127.028 E22.92618
G1 X131.149 Y129.078 E23.05707
G1 X131.293 Y129.753 E23.0996
G1 X131.39 Y130.372 E23.1382
G1 X131.465 Y131.25 E23.1925
G1 X131.474 Y131.834 E23.22848
G1 X131.475 Y131.931 E23.23446
G1 X131.475 Y161.305 E25.04432
G1 X131.474 Y161.395 E25.04987
G1 X131.461 Y162.306 E25.106
G1 X131.452 Y162.573 E25.12246
G1 X131.429 Y162.978 E25.14746
G1 X131.349 Y163.683 E25.19117
G1 X131.183 Y164.399 E25.23646
G1 X131.045 Y164.868 E25.26658
G1 X130.806 Y165.537 E25.31035
G1 X130.419 Y166.305 E25.36334
G1 X130.165 Y166.733 E25.39401
G1 X129.769 Y167.322 E25.43774
G1 X129.221 Y167.953 E25.48923
G1 X128.878 Y168.299 E25.51925
G1 X128.351 Y168.774 E25.56296
G1 X127.631 Y169.275 E25.61701
G1 X127.2 Y169.532 E25.64793
G1 X126.571 Y169.861 E25.69166
G1 X125.807 Y170.148 E25.74195
G1 X125.393 Y170.274 E25.76861
G1 X124.704 Y170.442 E25.81231
G1 X124.197 Y170.515 E25.84387
G1 X123.765 Y170.559 E25.87062
G1 X123.224 Y170.59 E25.90401
G1 X122.641 Y170.599 E25.93994
G1 X122.544 Y170.6 E25.94592
G1 X83.202 Y170.6 E28.36995
G1 X83.113 Y170.599 E28.37543
G1 X82.196 Y170.586 E28.43194
G1 X81.925 Y170.577 E28.44865
G1 X81.488 Y170.552 E28.47562
G1 X80.783 Y170.471 E28.51934
G1 X80.064 Y170.304 E28.56482
G1 X79.678 Y170.19 E28.58962
G1 X79.009 Y169.951 E28.63339
G1 X78.378 Y169.641 E28.67671
G1 X77.849 Y169.344 E28.71409
G1 X77.251 Y168.963 E28.75777
G1 X76.699 Y168.516 E28.80154
G1 X76.382 Y168.207 E28.82881
G1 X76.046 Y167.856 E28.85875
G1 X75.585 Y167.317 E28.90245
G1 X75.151 Y166.667 E28.95061
G1 X74.926 Y166.28 E28.97819
G1 X74.604 Y165.647 E29.02195
G1 X74.335 Y164.916 E29.06994
G1 X74.18 Y164.397 E29.10332
G1 X74.016 Y163.706 E29.14707
G1 X73.952 Y163.256 E29.17508
G1 X73.922 Y162.972 E29.19268
G1 X73.887 Y162.375 E29.22952
G1 X73.883 Y161.988 E29.25337
G1 X73.883 Y161.925 E29.25725
G1 X73.875 Y132.211 E31.08806
G1 X73.876 Y132.124 E31.09342
G1 X73.887 Y131.312 E31.14346
G1 X73.899 Y130.998 E31.16282
G1 X73.927 Y130.557 E31.19004
G1 X74.011 Y129.852 E31.23379
G1 X74.176 Y129.158 E31.27774
G1 X74.257 Y128.886 E31.29523
G1 X74.308 Y128.724 E31.30569
G1 X74.382 Y128.498 E31.32035
G1 X74.575 Y127.984 E31.35417
G1 X74.941 Y127.127 E31.41159
G1 X75.942 Y124.682 E31.57438
G1 X76.884 Y122.183 E31.73893
G1 X77.738 Y119.699 E31.90077
G1 X78.528 Y117.179 E32.06349
G1 X79.253 Y114.614 E32.22772
G1 X79.906 Y112.024 E32.3923
G1 X80.48 Y109.438 E32.55551
G1 X80.977 Y106.856 E32.71752
G1 X81.407 Y104.23 E32.88147
G1 X81.757 Y101.633 E33.04293
G1 X82.04 Y98.968 E33.20806
G1 X82.244 Y96.331 E33.37102
G1 X82.373 Y93.709 E33.53277
G1 X82.431 Y90.366 E33.73877
G1 X82.431 Y84.374 E34.10797
G1 X82.432 Y84.27 E34.11438
G1 X82.443 Y83.605 E34.15536
G1 X82.495 Y82.897 E34.1991
G1 X82.625 Y82.2 E34.24278
G1 X82.834 Y81.521 E34.28656
G1 X83.118 Y80.871 E34.33026
G1 X83.472 Y80.256 E34.37398
G1 X83.894 Y79.685 E34.41773
G1 X84.377 Y79.166 E34.46141
G0 F4800 X84.406 Y79.887
G1 F1200 X84.885 Y79.404 E34.50333
G1 X85.417 Y78.981 E34.5452
G1 X85.995 Y78.624 E34.58706
G1 X86.611 Y78.336 E34.62896
G1 X87.256 Y78.123 E34.67081
G1 X87.922 Y77.987 E34.71269
G1 X88.581 Y77.931 E34.75344
G1 X88.903 Y77.922 E34.77329
G1 X89.064 Y77.92 E34.78321
G1 X120.563 Y77.92 E36.724
G1 X120.646 Y77.921 E36.72912
G1 X121.344 Y77.931 E36.77213
G1 X122.022 Y77.98 E36.81401
G1 X122.689 Y78.109 E36.85587
G1 X123.337 Y78.316 E36.89779
G1 X123.956 Y78.597 E36.93967
G1 X124.537 Y78.948 E36.98149
G1 X125.074 Y79.366 E37.02342
G1 X125.557 Y79.843 E37.06525
G1 X125.981 Y80.374 E37.10712
G1 X126.34 Y80.952 E37.14904
G1 X126.629 Y81.567 E37.19091
G1 X126.844 Y82.212 E37.2328
G1 X126.981 Y82.878 E37.27469
G1 X127.039 Y83.543 E37.31582
G1 X127.048 Y83.855 E37.33506
G1 X127.05 Y84.022 E37.34535
G1 X127.05 Y103.426 E38.54091
G1 X127.088 Y106.069 E38.70377
G1 X127.201 Y108.743 E38.86868
G1 X127.391 Y111.422 E39.03416
G1 X127.654 Y114.077 E39.19855
G1 X127.99 Y116.697 E39.3613
G1 X128.403 Y119.329 E39.52545
G1 X128.892 Y121.957 E39.69015
G1 X129.452 Y124.562 E39.85432
G1 X130.09 Y127.161 E40.01922
G1 X130.647 Y129.214 E40.15028
G1 X130.779 Y129.833 E40.18928
G1 X130.876 Y130.452 E40.22788
G1 X130.945 Y131.258 E40.27773
G1 X130.954 Y131.842 E40.31371
G1 X130.955 Y131.931 E40.3192
G1 X130.955 Y161.305 E42.12906
G1 X130.954 Y161.387 E42.13411
G1 X130.941 Y162.298 E42.19025
G1 X130.933 Y162.544 E42.20541
G1 X130.91 Y162.949 E42.23041
G1 X130.831 Y163.624 E42.27228
G1 X130.684 Y164.253 E42.31208
G1 X130.546 Y164.722 E42.3422
G1 X130.316 Y165.361 E42.38405
G1 X129.972 Y166.04 E42.43095
G1 X129.718 Y166.468 E42.46161
G1 X129.337 Y167.031 E42.5035
G1 X128.852 Y167.587 E42.54896
G1 X128.509 Y167.933 E42.57898
G1 X128.003 Y168.387 E42.62086
G1 X127.364 Y168.828 E42.6687
G1 X126.933 Y169.085 E42.69962
G1 X126.33 Y169.399 E42.74151
G1 X125.656 Y169.651 E42.78584
G1 X125.242 Y169.777 E42.81251
G1 X124.581 Y169.936 E42.8544
G1 X124.145 Y169.997 E42.88152
G1 X123.713 Y170.041 E42.90828
G1 X123.216 Y170.07 E42.93895
G1 X122.633 Y170.079 E42.97488
G1 X122.544 Y170.08 E42.98036
G1 X83.202 Y170.08 E45.40439
G1 X83.12 Y170.079 E45.40945
G1 X82.203 Y170.066 E45.46595
G1 X81.955 Y170.058 E45.48124
G1 X81.518 Y170.033 E45.50821
G1 X80.843 Y169.954 E45.55008
G1 X80.211 Y169.805 E45.59009
G1 X79.825 Y169.691 E45.61489
G1 X79.185 Y169.461 E45.65679
G1 X78.632 Y169.188 E45.69479
G1 X78.103 Y168.891 E45.73217
G1 X77.531 Y168.524 E45.77404
G1 X77.006 Y168.092 E45.81594
G1 X76.758 Y167.848 E45.83737
G1 X76.422 Y167.497 E45.86731
G1 X75.981 Y166.979 E45.90923
G1 X75.6 Y166.405 E45.95167
G1 X75.375 Y166.018 E45.97926
G1 X75.069 Y165.411 E46.02114
G1 X74.834 Y164.767 E46.06338
G1 X74.679 Y164.248 E46.09675
G1 X74.523 Y163.586 E46.13866
G1 X74.469 Y163.201 E46.16261
G1 X74.439 Y162.917 E46.18021
G1 X74.407 Y162.37 E46.21397
G1 X74.403 Y161.983 E46.23782
G1 X74.403 Y161.925 E46.24139
G1 X74.395 Y132.211 E48.0722
G1 X74.396 Y132.131 E48.07713
G1 X74.407 Y131.319 E48.12716
G1 X74.418 Y131.031 E48.14492
G1 X74.446 Y130.59 E48.17215
G1 X74.528 Y129.915 E48.21404
G1 X74.674 Y129.306 E48.25263
G1 X74.755 Y129.034 E48.27012
G1 X74.802 Y128.885 E48.27974
G1 X74.876 Y128.659 E48.2944
G1 X75.053 Y128.188 E48.3254
G1 X75.419 Y127.331 E48.38282
G1 X76.432 Y124.857 E48.54753
G1 X77.373 Y122.36 E48.71195
G1 X78.237 Y119.848 E48.87562
G1 X79.025 Y117.332 E49.03807
G1 X79.758 Y114.739 E49.20409
G1 X80.41 Y112.154 E49.36836
G1 X80.982 Y109.575 E49.53112
G1 X81.491 Y106.936 E49.69672
G1 X81.921 Y104.31 E49.86067
G1 X82.274 Y101.688 E50.02368
G1 X82.556 Y99.026 E50.18862
G1 X82.762 Y96.363 E50.35319
G1 X82.893 Y93.713 E50.51667
G1 X82.951 Y90.375 E50.72236
G1 X82.951 Y84.374 E51.09211
G1 X82.952 Y84.278 E51.09803
G1 X82.963 Y83.613 E51.13901
G1 X83.014 Y82.936 E51.18084
G1 X83.144 Y82.269 E51.22271
G1 X83.352 Y81.621 E51.26464
G1 X83.635 Y81.003 E51.30652
G1 X83.987 Y80.422 E51.34838
G1 X84.406 Y79.887 E51.39025
G0 F4800 X84.917 Y80.098
G1 F1200 X85.39 Y79.655 E51.43018
G1 X85.915 Y79.274 E51.47014
G1 X86.482 Y78.959 E51.51011
G1 X87.083 Y78.717 E51.55003
G1 X87.71 Y78.551 E51.58999
G1 X88.595 Y78.451 E51.64487
G1 X88.917 Y78.442 E51.66472
G1 X89.064 Y78.44 E51.67377
G1 X120.563 Y78.44 E53.61457
G1 X120.638 Y78.441 E53.61919
G1 X121.336 Y78.451 E53.6622
G1 X121.983 Y78.5 E53.70218
G1 X122.618 Y78.628 E53.74209
G1 X123.233 Y78.834 E53.78205
G1 X123.818 Y79.113 E53.82198
G1 X124.364 Y79.463 E53.86194
G1 X124.863 Y79.877 E53.90189
G1 X125.308 Y80.349 E53.94186
G1 X125.69 Y80.873 E53.98182
G1 X126.006 Y81.439 E54.02176
G1 X126.249 Y82.04 E54.0617
G1 X126.416 Y82.667 E54.10168
G1 X126.519 Y83.558 E54.15694
G1 X126.528 Y83.87 E54.17618
G1 X126.53 Y84.022 E54.18554
G1 X126.53 Y103.426 E55.38111
G1 X126.568 Y106.098 E55.54576
G1 X126.681 Y108.767 E55.71035
G1 X126.873 Y111.472 E55.87744
G1 X127.136 Y114.125 E56.04171
G1 X127.475 Y116.776 E56.20638
G1 X127.892 Y119.431 E56.37197
G1 X128.38 Y122.052 E56.53623
G1 X128.941 Y124.661 E56.70066
G1 X129.587 Y127.295 E56.86776
G1 X130.145 Y129.35 E56.99896
G1 X130.266 Y129.914 E57.03451
G1 X130.363 Y130.533 E57.07311
G1 X130.425 Y131.266 E57.11843
G1 X130.434 Y131.85 E57.15442
G1 X130.435 Y131.931 E57.15941
G1 X130.435 Y161.305 E58.96927
G1 X130.434 Y161.38 E58.9739
G1 X130.421 Y162.291 E59.03003
G1 X130.414 Y162.514 E59.04378
G1 X130.391 Y162.919 E59.06877
G1 X130.314 Y163.563 E59.10874
G1 X130.185 Y164.106 E59.14312
G1 X130.047 Y164.575 E59.17325
G1 X129.826 Y165.184 E59.21316
G1 X129.524 Y165.774 E59.254
G1 X129.27 Y166.202 E59.28467
G1 X128.906 Y166.739 E59.32464
G1 X128.483 Y167.221 E59.36415
G1 X128.14 Y167.567 E59.39417
G1 X127.656 Y167.999 E59.43414
G1 X127.098 Y168.382 E59.47584
G1 X126.667 Y168.639 E59.50676
G1 X126.091 Y168.936 E59.54669
G1 X125.505 Y169.153 E59.58519
G1 X125.091 Y169.279 E59.61186
G1 X124.46 Y169.429 E59.65182
G1 X124.092 Y169.48 E59.67471
G1 X123.66 Y169.524 E59.70146
G1 X123.208 Y169.55 E59.72936
G1 X122.625 Y169.559 E59.76529
G1 X122.544 Y169.56 E59.77028
G1 X83.202 Y169.56 E62.19431
G1 X83.127 Y169.559 E62.19893
G1 X82.21 Y169.546 E62.25544
G1 X81.985 Y169.538 E62.26931
G1 X81.548 Y169.513 E62.29628
G1 X80.904 Y169.437 E62.33623
G1 X80.358 Y169.307 E62.37082
G1 X79.972 Y169.193 E62.39561
G1 X79.363 Y168.971 E62.43555
G1 X78.887 Y168.735 E62.46829
G1 X78.358 Y168.438 E62.50567
G1 X77.813 Y168.086 E62.54564
G1 X77.133 Y167.488 E62.60144
G1 X76.797 Y167.137 E62.63138
G1 X76.379 Y166.642 E62.67129
G1 X76.05 Y166.144 E62.70807
G1 X75.825 Y165.757 E62.73565
G1 X75.534 Y165.177 E62.77563
G1 X75.332 Y164.618 E62.81226
G1 X75.177 Y164.099 E62.84563
G1 X74.986 Y163.147 E62.90546
G1 X74.956 Y162.863 E62.92305
G1 X74.927 Y162.364 E62.95385
G1 X74.923 Y161.977 E62.97769
G1 X74.923 Y161.924 E62.98096
G1 X74.915 Y132.21 E64.81177
