;FLAVOR:Marlin
;TIME:36425
;Filament used: 27.8819m
;Layer height: 0.2
;MINX:1.1
;MINY:6.116
;MINZ:0.2
;MAXX:208.9
;MAXY:203.9
;MAXZ:5
;POSTPROCESSED
;ChangeAtZ instances: 1
;Generated with Cura_SteamEngine 4.5.0
M140 S80
M105
M190 S80
M104 S220
M105
M109 S220
M82 ;absolute extrusion mode
G21 ;metric values
G90 ;absolute positioning
M82 ;set extruder to absolute mode
M107 ;start with the fan off
G28 X0 Y0 ;move X/Y to min endstops
G28 Z0 ;move Z to min endstops
G1 Z15.0 F100 ;move the platform down 15mm
G92 E0 ;zero the extruded length
G1 F200 E3 ;extrude 3mm of feed stock
G92 E0 ;zero the extruded length again
G1 F100
G0 Y20 F100
M117 Printing...
G5
G92 E0
G92 E0
G1 F2400 E-6
;LAYER_COUNT:25
;LAYER:0
M106 S255
G1 F600 Z0.275
G0 F3000 X44.345 Y48.635 Z0.275
;TYPE:SKIRT
G1 F600 Z0.2
G1 F2400 E0
G1 X48.419 Y44.749 E0.24905
G1 X49.202 Y44.023 E0.29629
G1 X49.581 Y43.686 E0.31872
G1 X53.873 Y39.976 E0.56968
G1 X54.609 Y39.357 E0.61223
G1 X55.041 Y39.009 E0.63676
G1 X59.482 Y35.535 E0.88618
G1 X60.261 Y34.943 E0.92946
G1 X60.688 Y34.633 E0.95281
G1 X65.351 Y31.342 E1.20528
G1 X66.115 Y30.817 E1.24628
G1 X66.573 Y30.519 E1.27046
G1 X71.349 Y27.487 E1.5207
G1 X72.182 Y26.974 E1.56398
G1 X72.693 Y26.675 E1.59017
G1 X77.559 Y23.91 E1.83775
G1 X78.424 Y23.433 E1.88144
G1 X78.941 Y23.164 E1.90722
G1 X84.11 Y20.556 E2.16334
G1 X84.934 Y20.153 E2.20391
G1 X85.451 Y19.915 E2.22909
G1 X90.62 Y17.621 E2.47925
G1 X91.55 Y17.223 E2.524
G1 X92.046 Y17.022 E2.54767
G1 X97.287 Y14.999 E2.79619
G1 X98.223 Y14.652 E2.84034
G1 X98.755 Y14.469 E2.86523
G1 X104.134 Y12.689 E3.11587
G1 X105.058 Y12.396 E3.15875
G1 X111.037 Y10.733 E3.43327
G1 X111.96 Y10.49 E3.47549
G1 X112.503 Y10.361 E3.50018
G1 X118.002 Y9.122 E3.74953
G1 X118.956 Y8.921 E3.79266
G1 X119.448 Y8.827 E3.81482
G1 X125.068 Y7.848 E4.06717
G1 X126.061 Y7.689 E4.11166
G1 X132.197 Y6.922 E4.3852
G1 X133.138 Y6.818 E4.42708
G1 X133.697 Y6.769 E4.4519
G1 X139.316 Y6.35 E4.70115
G1 X140.332 Y6.287 E4.74618
G1 X146.49 Y6.124 E5.01869
G1 X147.168 Y6.116 E5.04868
G1 X148.35 Y6.137 E5.10097
G1 X151.365 Y6.248 E5.23444
G1 X152.137 Y6.287 E5.26863
G1 X153.076 Y6.376 E5.31035
G1 X156.201 Y6.744 E5.44955
G1 X156.932 Y6.841 E5.48217
G1 X157.736 Y6.977 E5.51824
G1 X160.925 Y7.611 E5.66207
G1 X161.659 Y7.767 E5.69526
G1 X162.497 Y7.98 E5.73351
G1 X165.588 Y8.851 E5.87557
G1 X166.315 Y9.066 E5.9091
G1 X167.152 Y9.352 E5.94823
G1 X170.085 Y10.433 E6.08651
G1 X170.845 Y10.724 E6.12251
G1 X171.525 Y11.013 E6.15519
G1 X174.536 Y12.4 E6.30184
G1 X175.211 Y12.723 E6.33494
G1 X176.003 Y13.14 E6.37453
G1 X178.742 Y14.673 E6.51338
G1 X179.452 Y15.084 E6.54967
G1 X180.107 Y15.496 E6.5839
G1 X182.782 Y17.28 E6.72614
G1 X183.466 Y17.75 E6.76285
G1 X184.09 Y18.216 E6.7973
G1 X186.654 Y20.235 E6.94166
G1 X187.215 Y20.689 E6.97359
G1 X187.651 Y21.064 E6.99903
G1 X190.225 Y23.437 E7.1539
G1 X190.789 Y23.973 E7.18831
G1 X191.384 Y24.583 E7.22601
G1 X193.528 Y26.901 E7.36568
G1 X194.093 Y27.529 E7.40305
G1 X194.659 Y28.214 E7.44236
G1 X196.576 Y30.644 E7.57928
G1 X197.067 Y31.285 E7.61499
G1 X197.382 Y31.72 E7.63875
G1 X199.324 Y34.619 E7.79311
G1 X199.756 Y35.284 E7.82819
G1 X200.208 Y36.047 E7.86742
G1 X201.734 Y38.77 E8.0055
G1 X202.12 Y39.481 E8.04128
G1 X202.36 Y39.955 E8.06479
G1 X203.83 Y43.132 E8.21964
G1 X204.163 Y43.882 E8.25594
G1 X204.469 Y44.648 E8.29243
G1 X205.561 Y47.603 E8.43178
G1 X205.84 Y48.395 E8.46893
G1 X206.072 Y49.142 E8.50353
G1 X206.946 Y52.237 E8.6458
G1 X207.152 Y53.005 E8.68097
G1 X207.335 Y53.812 E8.71757
G1 X207.966 Y56.971 E8.86008
G1 X208.107 Y57.736 E8.89449
G1 X208.227 Y58.568 E8.93167
G1 X208.602 Y61.723 E9.07222
G1 X208.684 Y62.505 E9.107
G1 X208.743 Y63.407 E9.14699
G1 X208.856 Y66.264 E9.27347
G1 X208.899 Y68.344 E9.3655
G1 X208.9 Y94.293 E10.51338
G1 X208.884 Y95.434 E10.56386
G1 X208.779 Y97.938 E10.67472
G1 X208.732 Y98.779 E10.71198
G1 X208.618 Y99.857 E10.75993
G1 X208.343 Y101.98 E10.85463
G1 X208.23 Y102.764 E10.88967
G1 X208.006 Y103.917 E10.94163
G1 X207.55 Y105.995 E11.03574
G1 X207.38 Y106.717 E11.06855
G1 X207.065 Y107.819 E11.11925
G1 X206.433 Y109.837 E11.21279
G1 X206.188 Y110.584 E11.24757
G1 X205.765 Y111.687 E11.29983
G1 X204.964 Y113.631 E11.39284
G1 X204.669 Y114.322 E11.42607
G1 X204.153 Y115.379 E11.4781
G1 X203.192 Y117.234 E11.57052
G1 X202.814 Y117.94 E11.60594
G1 X202.223 Y118.924 E11.65672
G1 X201.105 Y120.687 E11.74907
G1 X200.664 Y121.363 E11.78477
G1 X199.99 Y122.291 E11.83551
G1 X198.703 Y123.976 E11.9293
G1 X198.234 Y124.575 E11.96295
G1 X197.453 Y125.472 E12.01557
G1 X196.021 Y127.04 E12.1095
G1 X195.463 Y127.634 E12.14555
G1 X194.609 Y128.458 E12.19805
G1 X193.068 Y129.872 E12.29056
G1 X192.474 Y130.401 E12.32575
G1 X191.58 Y131.123 E12.37658
G1 X189.949 Y132.376 E12.46757
G1 X189.319 Y132.845 E12.50231
G1 X188.452 Y133.431 E12.5486
G1 X186.599 Y134.616 E12.6459
G1 X185.939 Y135.025 E12.68024
G1 X184.973 Y135.562 E12.72913
G1 X183.025 Y136.582 E12.8264
G1 X182.377 Y136.908 E12.85849
G1 X181.291 Y137.392 E12.91109
G1 X179.378 Y138.189 E13.00276
G1 X178.65 Y138.481 E13.03746
G1 X177.513 Y138.872 E13.09065
G1 X175.556 Y139.493 E13.18147
G1 X174.788 Y139.725 E13.21696
G1 X173.697 Y139.999 E13.26672
G1 X171.617 Y140.464 E13.361
G1 X170.859 Y140.624 E13.39527
G1 X169.68 Y140.81 E13.44807
G1 X167.559 Y141.094 E13.54273
G1 X166.863 Y141.178 E13.57375
G1 X165.644 Y141.262 E13.6278
G1 X163.547 Y141.358 E13.72066
G1 X162.29 Y141.394 E13.77628
G1 X157.237 Y141.396 E13.99981
G1 X154.575 Y141.434 E14.11758
G1 X151.935 Y141.546 E14.23446
G1 X149.289 Y141.733 E14.35181
G1 X146.634 Y141.997 E14.46983
G1 X144.023 Y142.331 E14.58627
G1 X141.411 Y142.741 E14.70323
G1 X138.829 Y143.221 E14.81941
G1 X136.224 Y143.782 E14.93728
G1 X133.663 Y144.409 E15.05392
G1 X131.09 Y145.117 E15.17197
G1 X128.553 Y145.894 E15.28934
G1 X126.065 Y146.733 E15.40549
G1 X123.565 Y147.655 E15.52336
G1 X121.122 Y148.636 E15.63981
G1 X118.676 Y149.7 E15.75781
G1 X116.313 Y150.808 E15.87326
G1 X113.91 Y152.018 E15.99227
G1 X111.573 Y153.28 E16.10976
G1 X109.302 Y154.59 E16.22574
G1 X107.062 Y155.969 E16.3421
G1 X104.826 Y157.433 E16.46033
G1 X102.668 Y158.936 E16.57666
G1 X100.537 Y160.51 E16.69385
G1 X98.459 Y162.138 E16.81062
G1 X96.409 Y163.841 E16.92852
G1 X94.415 Y165.595 E17.04599
G1 X92.49 Y167.385 E17.16227
G1 X90.602 Y169.244 E17.27948
G1 X88.767 Y171.156 E17.39671
G1 X86.987 Y173.121 E17.514
G1 X85.271 Y175.124 E17.63067
G1 X83.587 Y177.206 E17.74913
G1 X81.999 Y179.29 E17.86503
G1 X80.471 Y181.416 E17.98084
G1 X78.267 Y184.719 E18.1565
G1 X77.217 Y186.366 E18.2429
G1 X76.835 Y186.946 E18.27362
G1 X75.969 Y188.122 E18.33823
G1 X75.005 Y189.361 E18.40767
G1 X74.568 Y189.905 E18.43854
G1 X73.568 Y191.021 E18.50482
G1 X72.504 Y192.148 E18.57339
G1 X72.022 Y192.645 E18.60401
G1 X70.927 Y193.655 E18.66991
G1 X69.715 Y194.715 E18.74113
G1 X69.23 Y195.128 E18.76931
G1 X68.041 Y196.032 E18.83539
G1 X66.779 Y196.941 E18.90419
G1 X66.205 Y197.343 E18.93519
G1 X64.896 Y198.152 E19.00326
G1 X63.656 Y198.878 E19.06682
G1 X62.976 Y199.263 E19.10139
G1 X61.668 Y199.913 E19.166
G1 X60.205 Y200.589 E19.23729
G1 X59.605 Y200.856 E19.26634
G1 X58.185 Y201.399 E19.33359
G1 X56.72 Y201.914 E19.40228
G1 X56.077 Y202.13 E19.43229
G1 X54.645 Y202.526 E19.49801
G1 X53.074 Y202.916 E19.56962
G1 X52.459 Y203.06 E19.59756
G1 X51.016 Y203.316 E19.66239
G1 X49.371 Y203.561 E19.73596
G1 X48.758 Y203.643 E19.76332
G1 X47.29 Y203.761 E19.82846
G1 X45.685 Y203.846 E19.89956
G1 X44.794 Y203.881 E19.93901
G1 X44.08 Y203.892 E19.9706
G1 X13.419 Y203.9 E21.32692
G1 X12.687 Y203.89 E21.3593
G1 X12.181 Y203.863 E21.38171
G1 X11.625 Y203.811 E21.40642
G1 X10.84 Y203.715 E21.4414
G1 X9.793 Y203.492 E21.48875
G1 X9.217 Y203.312 E21.51545
G1 X8.418 Y203.032 E21.5529
G1 X7.758 Y202.758 E21.58451
G1 X7.268 Y202.495 E21.60911
G1 X6.788 Y202.21 E21.63381
G1 X6.113 Y201.787 E21.66905
G1 X5.53 Y201.372 E21.7007
G1 X5.122 Y201.016 E21.72466
G1 X4.685 Y200.601 E21.75131
G1 X4.146 Y200.062 E21.78503
G1 X3.67 Y199.528 E21.81668
G1 X3.326 Y199.052 E21.84266
G1 X2.908 Y198.413 E21.87643
G1 X2.597 Y197.908 E21.90267
G1 X2.26 Y197.278 E21.93428
G1 X1.999 Y196.647 E21.96448
G1 X1.621 Y195.581 E22.01451
G1 X1.423 Y194.894 E22.04614
G1 X1.326 Y194.37 E22.06972
G1 X1.25 Y193.836 E22.09358
G1 X1.165 Y193.091 E22.12675
G1 X1.128 Y192.513 E22.15237
G1 X1.109 Y191.486 E22.1978
G1 X1.1 Y153.149 E23.89368
G1 X1.116 Y151.771 E23.95464
G1 X1.253 Y146.179 E24.20208
G1 X1.291 Y145.194 E24.24569
G1 X1.323 Y144.662 E24.26926
G1 X1.737 Y139.025 E24.51929
G1 X1.822 Y138.059 E24.56219
G1 X1.877 Y137.548 E24.58492
G1 X2.575 Y131.881 E24.8375
G1 X2.702 Y130.949 E24.87911
G1 X2.79 Y130.403 E24.90358
G1 X3.761 Y124.793 E25.15543
G1 X3.936 Y123.862 E25.19734
G1 X4.047 Y123.329 E25.22142
G1 X5.285 Y117.814 E25.47145
G1 X5.519 Y116.836 E25.51594
G1 X5.65 Y116.337 E25.53876
G1 X7.159 Y110.874 E25.78947
G1 X7.433 Y109.933 E25.83282
G1 X7.583 Y109.454 E25.85503
G1 X9.36 Y104.069 E26.10587
G1 X9.698 Y103.093 E26.15156
G1 X9.876 Y102.612 E26.17425
G1 X11.89 Y97.384 E26.42208
G1 X12.284 Y96.401 E26.46893
G1 X12.487 Y95.925 E26.49182
G1 X14.764 Y90.779 E26.74075
G1 X15.19 Y89.853 E26.78584
G1 X15.423 Y89.375 E26.80936
G1 X17.958 Y84.33 E27.05912
G1 X18.407 Y83.468 E27.10212
G1 X18.665 Y82.997 E27.12587
G1 X21.466 Y78.045 E27.37754
G1 X21.951 Y77.214 E27.42011
G1 X22.241 Y76.742 E27.44461
G1 X25.251 Y71.982 E27.69374
G1 X25.801 Y71.138 E27.7383
G1 X26.087 Y70.718 E27.76078
G1 X29.374 Y66.046 E28.01348
G1 X29.919 Y65.293 E28.0546
G1 X30.251 Y64.855 E28.07891
G1 X33.729 Y60.392 E28.3292
G1 X34.341 Y59.626 E28.37257
G1 X34.672 Y59.232 E28.39534
G1 X38.371 Y54.936 E28.64611
G1 X39.02 Y54.202 E28.68946
G1 X39.381 Y53.812 E28.71296
G1 X43.275 Y49.715 E28.963
G1 X43.987 Y48.985 E29.00811
G1 X44.345 Y48.635 E29.03026
G0 F3000 X44.773 Y49.001
G1 F2400 X48.806 Y45.155 E29.27678
G1 X49.582 Y44.433 E29.32366
G1 X54.239 Y40.4 E29.59618
G1 X54.969 Y39.786 E29.63838
G1 X55.386 Y39.45 E29.66207
G1 X59.827 Y35.976 E29.91149
G1 X60.6 Y35.39 E29.9544
G1 X61.016 Y35.088 E29.97714
G1 X65.673 Y31.8 E30.22931
G1 X66.432 Y31.279 E30.27004
G1 X66.877 Y30.989 E30.29354
G1 X71.649 Y27.96 E30.54356
G1 X72.475 Y27.451 E30.58648
G1 X72.974 Y27.159 E30.61206
G1 X77.835 Y24.397 E30.85938
G1 X78.694 Y23.924 E30.90275
G1 X79.198 Y23.662 E30.92788
G1 X84.363 Y21.056 E31.1838
G1 X85.18 Y20.657 E31.22402
G1 X85.684 Y20.424 E31.24858
G1 X90.847 Y18.133 E31.49844
G1 X91.77 Y17.738 E31.54286
G1 X92.248 Y17.545 E31.56566
G1 X97.489 Y15.522 E31.81417
G1 X98.417 Y15.177 E31.85797
G1 X98.935 Y14.999 E31.8822
G1 X104.31 Y13.221 E32.13264
G1 X105.227 Y12.93 E32.17519
G1 X111.186 Y11.273 E32.4488
G1 X112.103 Y11.032 E32.49074
G1 X112.626 Y10.907 E32.51453
G1 X118.125 Y9.668 E32.76388
G1 X119.071 Y9.469 E32.80664
G1 X119.622 Y9.365 E32.83145
G1 X125.164 Y8.4 E33.08029
G1 X126.149 Y8.242 E33.12442
G1 X132.266 Y7.477 E33.39712
G1 X133.199 Y7.375 E33.43864
G1 X133.744 Y7.327 E33.46284
G1 X139.358 Y6.908 E33.71187
G1 X140.366 Y6.846 E33.75655
G1 X146.504 Y6.684 E34.02816
G1 X147.174 Y6.676 E34.0578
G1 X148.338 Y6.697 E34.1093
G1 X151.344 Y6.808 E34.24236
G1 X152.108 Y6.847 E34.2762
G1 X153.019 Y6.933 E34.31668
G1 X156.136 Y7.3 E34.45552
G1 X156.859 Y7.396 E34.48778
G1 X157.637 Y7.529 E34.5227
G1 X160.815 Y8.161 E34.66603
G1 X161.542 Y8.315 E34.6989
G1 X162.355 Y8.521 E34.736
G1 X165.436 Y9.389 E34.8776
G1 X166.155 Y9.603 E34.91079
G1 X166.967 Y9.88 E34.94874
G1 X169.891 Y10.958 E35.08659
G1 X170.644 Y11.247 E35.12227
G1 X171.301 Y11.527 E35.15387
G1 X174.302 Y12.909 E35.30002
G1 X174.969 Y13.228 E35.33272
G1 X175.738 Y13.634 E35.37119
G1 X178.469 Y15.162 E35.50962
G1 X179.172 Y15.568 E35.54553
G1 X179.805 Y15.967 E35.57863
G1 X182.471 Y17.746 E35.72041
G1 X183.148 Y18.212 E35.75677
G1 X183.752 Y18.662 E35.79009
G1 X186.307 Y20.675 E35.93398
G1 X186.863 Y21.124 E35.96559
G1 X187.275 Y21.479 E35.98965
G1 X189.845 Y23.848 E36.14426
G1 X190.403 Y24.378 E36.17831
G1 X190.98 Y24.971 E36.21491
G1 X193.117 Y27.281 E36.35411
G1 X193.676 Y27.903 E36.39111
G1 X194.224 Y28.567 E36.42919
G1 X196.136 Y30.99 E36.56573
G1 X196.622 Y31.625 E36.6011
G1 X196.92 Y32.037 E36.62359
G1 X198.858 Y34.93 E36.77763
G1 X199.285 Y35.588 E36.81233
G1 X199.724 Y36.329 E36.85043
G1 X201.245 Y39.043 E36.98805
G1 X201.628 Y39.748 E37.02354
G1 X201.855 Y40.196 E37.04576
G1 X203.321 Y43.367 E37.2003
G1 X203.651 Y44.109 E37.23622
G1 X203.947 Y44.851 E37.27156
G1 X205.035 Y47.797 E37.41048
G1 X205.312 Y48.58 E37.44722
G1 X205.536 Y49.304 E37.48075
G1 X206.407 Y52.389 E37.62255
G1 X206.611 Y53.15 E37.6574
G1 X206.788 Y53.932 E37.69287
G1 X207.417 Y57.081 E37.83492
G1 X207.556 Y57.837 E37.86892
G1 X207.673 Y58.643 E37.90495
G1 X208.046 Y61.789 E38.04509
G1 X208.127 Y62.564 E38.07956
G1 X208.184 Y63.438 E38.11831
G1 X208.296 Y66.286 E38.24439
G1 X208.339 Y68.356 E38.33598
G1 X208.34 Y94.293 E39.48332
G1 X208.324 Y95.425 E39.5334
G1 X208.22 Y97.914 E39.6436
G1 X208.172 Y98.747 E39.68051
G1 X208.061 Y99.793 E39.72704
G1 X207.787 Y101.908 E39.82139
G1 X207.675 Y102.684 E39.85607
G1 X207.457 Y103.805 E39.90659
G1 X207.003 Y105.874 E40.00029
G1 X206.835 Y106.589 E40.03278
G1 X206.528 Y107.66 E40.08206
G1 X205.899 Y109.669 E40.17519
G1 X205.656 Y110.409 E40.20964
G1 X205.244 Y111.482 E40.26048
G1 X204.446 Y113.418 E40.35312
G1 X204.154 Y114.101 E40.38597
G1 X203.652 Y115.129 E40.43658
G1 X202.695 Y116.977 E40.52864
G1 X202.321 Y117.676 E40.56371
G1 X201.746 Y118.631 E40.61302
G1 X200.632 Y120.386 E40.70497
G1 X200.195 Y121.057 E40.7404
G1 X199.54 Y121.957 E40.78964
G1 X198.258 Y123.636 E40.88308
G1 X197.793 Y124.229 E40.91642
G1 X197.034 Y125.1 E40.96752
G1 X195.608 Y126.662 E41.06108
G1 X195.055 Y127.251 E41.09682
G1 X194.224 Y128.052 E41.14788
G1 X192.69 Y129.459 E41.23996
G1 X192.102 Y129.983 E41.2748
G1 X191.232 Y130.684 E41.32422
G1 X189.608 Y131.931 E41.4148
G1 X188.985 Y132.396 E41.44919
G1 X188.143 Y132.964 E41.49412
G1 X186.298 Y134.144 E41.591
G1 X185.644 Y134.549 E41.62502
G1 X184.705 Y135.071 E41.67255
G1 X182.765 Y136.086 E41.7694
G1 X182.126 Y136.408 E41.80106
G1 X181.068 Y136.878 E41.85227
G1 X179.162 Y137.672 E41.94361
G1 X178.442 Y137.961 E41.97792
G1 X177.336 Y138.34 E42.02964
G1 X175.387 Y138.959 E42.1201
G1 X174.626 Y139.189 E42.15527
G1 X173.567 Y139.454 E42.20356
G1 X171.495 Y139.918 E42.29749
G1 X170.744 Y140.076 E42.33144
G1 X169.598 Y140.256 E42.38275
G1 X167.485 Y140.539 E42.47706
G1 X166.797 Y140.622 E42.50771
G1 X165.61 Y140.703 E42.56034
G1 X163.521 Y140.799 E42.65285
G1 X162.275 Y140.834 E42.70799
G1 X157.229 Y140.836 E42.9312
G1 X154.578 Y140.873 E43.04848
G1 X151.871 Y140.988 E43.16834
G1 X149.267 Y141.173 E43.28382
G1 X146.577 Y141.44 E43.4034
G1 X143.935 Y141.778 E43.52122
G1 X141.331 Y142.187 E43.63783
G1 X138.678 Y142.68 E43.75719
G1 X136.117 Y143.231 E43.87307
G1 X133.516 Y143.869 E43.99154
G1 X130.922 Y144.582 E44.11055
G1 X128.387 Y145.358 E44.22782
G1 X125.869 Y146.208 E44.34538
G1 X123.37 Y147.129 E44.4632
G1 X120.91 Y148.117 E44.58047
G1 X118.451 Y149.187 E44.69909
G1 X116.045 Y150.316 E44.81666
G1 X113.67 Y151.511 E44.93427
G1 X111.321 Y152.779 E45.05235
G1 X109.033 Y154.099 E45.1692
G1 X106.739 Y155.511 E45.28836
G1 X104.518 Y156.966 E45.40581
G1 X102.334 Y158.487 E45.52355
G1 X100.195 Y160.066 E45.64116
G1 X98.098 Y161.71 E45.75903
G1 X96.04 Y163.419 E45.87736
G1 X94.041 Y165.177 E45.99512
G1 X92.111 Y166.972 E46.11171
G1 X90.201 Y168.853 E46.2303
G1 X88.361 Y170.77 E46.34784
G1 X86.559 Y172.759 E46.46657
G1 X84.84 Y174.766 E46.58346
