;FLAVOR:Marlin
;TIME:5769
;Filament used: 4.29596m
;Layer height: 0.2
;MINX:61.4
;MINY:76.622
;MINZ:0.2
;MAXX:148.6
;MAXY:133.378
;MAXZ:16
;Generated with Cura_SteamEngine 4.4.1
M140 S60
M105
M190 S60
M104 S200
M105
M109 S200
M82 ;absolute extrusion mode
G21 ;metric values
G90 ;absolute positioning
M82 ;set extruder to absolute mode
M107 ;start with the fan off
G28 X0 Y0 ;move X/Y to min endstops
G28 Z0 ;move Z to min endstops
G1 Z15.0 F100 ;move the platform down 15mm
G92 E0 ;zero the extruded length
G1 F200 E3 ;extrude 3mm of feed stock
G92 E0 ;zero the extruded length again
G1 F100
G0 Y20 F100
M117 Printing...
G5
G92 E0
G92 E0
G1 F2400 E-6
;LAYER_COUNT:80
;LAYER:0
M106 S255
M204 S3000
M205 X10 Y10
G1 F600 Z0.275
G0 F3000 X63.871 Y77.987 Z0.275
M204 S1800
M205 X8 Y8
;TYPE:SKIRT
G1 F600 Z0.2
G1 F2400 E0
G1 X64.459 Y77.579 E0.03333
G1 X65.088 Y77.239 E0.06662
G1 X65.752 Y76.972 E0.09994
G1 X66.441 Y76.78 E0.13325
G1 X67.147 Y76.666 E0.16655
G1 X67.621 Y76.635 E0.18867
G1 X67.927 Y76.626 E0.20292
G1 X68.114 Y76.623 E0.21163
G1 X76.022 Y76.622 E0.57986
G1 X137.46 Y76.623 E3.44067
G1 X141.493 Y76.623 E3.62846
G1 X141.585 Y76.624 E3.63275
G1 X142.283 Y76.634 E3.66525
G1 X142.996 Y76.684 E3.69854
G1 X143.7 Y76.813 E3.73186
G1 X144.384 Y77.021 E3.76515
G1 X145.041 Y77.303 E3.79844
G1 X145.663 Y77.657 E3.83177
G1 X146.241 Y78.078 E3.86507
G1 X146.769 Y78.561 E3.89839
G1 X147.239 Y79.099 E3.93165
G1 X147.647 Y79.687 E3.96498
G1 X147.986 Y80.317 E3.99829
G1 X148.253 Y80.98 E4.03157
G1 X148.444 Y81.67 E4.06491
G1 X148.557 Y82.376 E4.0982
G1 X148.588 Y82.853 E4.12046
G1 X148.597 Y83.173 E4.13537
G1 X148.6 Y83.353 E4.14375
G1 X148.6 Y126.32 E6.14447
G1 X148.591 Y127.047 E6.17833
G1 X148.542 Y127.761 E6.21165
G1 X148.414 Y128.465 E6.24497
G1 X148.208 Y129.15 E6.27828
G1 X147.927 Y129.807 E6.31155
G1 X147.574 Y130.43 E6.34489
G1 X147.154 Y131.009 E6.3782
G1 X146.672 Y131.537 E6.41149
G1 X146.135 Y132.009 E6.44478
G1 X145.547 Y132.417 E6.47811
G1 X144.918 Y132.758 E6.51142
G1 X144.255 Y133.026 E6.54472
G1 X143.566 Y133.218 E6.57803
G1 X142.86 Y133.333 E6.61134
G1 X142.37 Y133.366 E6.6342
G1 X142.048 Y133.375 E6.6492
G1 X141.87 Y133.377 E6.65749
G1 X133.978 Y133.378 E7.02498
G1 X72.541 Y133.377 E9.88574
G1 X68.508 Y133.377 E10.07353
G1 X68.424 Y133.376 E10.07745
G1 X67.726 Y133.367 E10.10995
G1 X67.013 Y133.318 E10.14323
G1 X66.309 Y133.19 E10.17655
G1 X65.624 Y132.984 E10.20985
G1 X64.967 Y132.702 E10.24315
G1 X64.345 Y132.349 E10.27645
G1 X63.766 Y131.929 E10.30976
G1 X63.237 Y131.447 E10.34308
G1 X62.766 Y130.909 E10.37637
G1 X62.358 Y130.322 E10.40966
G1 X62.018 Y129.692 E10.443
G1 X61.75 Y129.029 E10.4763
G1 X61.558 Y128.34 E10.5096
G1 X61.444 Y127.634 E10.5429
G1 X61.411 Y127.141 E10.56591
G1 X61.402 Y126.808 E10.58142
G1 X61.4 Y126.635 E10.58948
G1 X61.4 Y83.697 E12.58885
G1 X61.401 Y83.61 E12.5929
G1 X61.41 Y82.945 E12.62387
G1 X61.459 Y82.232 E12.65715
G1 X61.588 Y81.528 E12.69047
G1 X61.795 Y80.844 E12.72375
G1 X62.077 Y80.186 E12.75709
G1 X62.43 Y79.564 E12.79039
G1 X62.85 Y78.986 E12.82366
G1 X63.333 Y78.458 E12.85698
G1 X63.871 Y77.987 E12.89027
M204 S3000
M205 X10 Y10
G0 F3000 X64.412 Y78.282
M204 S1800
M205 X8 Y8
G1 F2400 X64.99 Y77.917 E12.9221
G1 X65.607 Y77.623 E12.95393
G1 X66.253 Y77.403 E12.98571
G1 X66.921 Y77.26 E13.01752
G1 X67.637 Y77.195 E13.05099
G1 X67.943 Y77.186 E13.06525
G1 X68.114 Y77.183 E13.07321
G1 X76.022 Y77.182 E13.44144
G1 X137.46 Y77.183 E16.30225
G1 X141.493 Y77.183 E16.49005
G1 X141.577 Y77.184 E16.49396
G1 X142.275 Y77.194 E16.52646
G1 X142.956 Y77.243 E16.55825
G1 X143.627 Y77.372 E16.59007
G1 X144.278 Y77.579 E16.62188
G1 X144.901 Y77.86 E16.6537
G1 X145.487 Y78.212 E16.68553
G1 X146.027 Y78.63 E16.71733
G1 X146.515 Y79.108 E16.74914
G1 X146.944 Y79.64 E16.78096
G1 X147.308 Y80.218 E16.81277
G1 X147.602 Y80.835 E16.84459
G1 X147.821 Y81.482 E16.8764
G1 X147.964 Y82.15 E16.90821
G1 X148.029 Y82.869 E16.94183
G1 X148.038 Y83.189 E16.95673
G1 X148.04 Y83.353 E16.96437
G1 X148.04 Y126.313 E18.96477
G1 X148.031 Y127.04 E18.99862
G1 X147.982 Y127.722 E19.03046
G1 X147.854 Y128.393 E19.06227
G1 X147.649 Y129.045 E19.09409
G1 X147.369 Y129.668 E19.1259
G1 X147.019 Y130.254 E19.15768
G1 X146.602 Y130.796 E19.18953
G1 X146.125 Y131.285 E19.22133
G1 X145.594 Y131.714 E19.25312
G1 X145.016 Y132.079 E19.28495
G1 X144.4 Y132.374 E19.31675
G1 X143.753 Y132.595 E19.34859
G1 X143.085 Y132.739 E19.38041
G1 X142.354 Y132.806 E19.41459
G1 X142.032 Y132.815 E19.42959
G1 X141.87 Y132.817 E19.43713
G1 X133.978 Y132.818 E19.80462
G1 X72.541 Y132.817 E22.66538
G1 X68.432 Y132.817 E22.85672
G1 X67.734 Y132.808 E22.88922
G1 X67.052 Y132.759 E22.92106
G1 X66.381 Y132.631 E22.95287
G1 X65.73 Y132.425 E22.98466
G1 X65.106 Y132.145 E23.01651
G1 X64.52 Y131.794 E23.04832
G1 X63.979 Y131.377 E23.08012
G1 X63.49 Y130.899 E23.11196
G1 X63.061 Y130.368 E23.14375
G1 X62.696 Y129.79 E23.17558
G1 X62.402 Y129.174 E23.20736
G1 X62.181 Y128.527 E23.2392
G1 X62.037 Y127.859 E23.27102
G1 X61.971 Y127.126 E23.30529
G1 X61.962 Y126.793 E23.3208
G1 X61.96 Y126.635 E23.32816
G1 X61.96 Y83.697 E25.32753
G1 X61.961 Y83.618 E25.33121
G1 X61.97 Y82.953 E25.36218
G1 X62.019 Y82.272 E25.39397
G1 X62.147 Y81.6 E25.42582
G1 X62.353 Y80.949 E25.45762
G1 X62.634 Y80.326 E25.48944
G1 X62.985 Y79.74 E25.52125
G1 X63.403 Y79.199 E25.55308
G1 X63.88 Y78.711 E25.58486
G1 X64.412 Y78.282 E25.61668
M204 S3000
M205 X10 Y10
G0 F3000 X64.426 Y78.978
M204 S1800
M205 X8 Y8
G1 F2400 X64.949 Y78.594 E25.6469
G1 X65.516 Y78.276 E25.67717
G1 X66.117 Y78.03 E25.70741
G1 X66.744 Y77.86 E25.73766
G1 X67.654 Y77.754 E25.78032
G1 X67.96 Y77.745 E25.79457
G1 X68.114 Y77.743 E25.80174
G1 X76.022 Y77.742 E26.16997
G1 X137.46 Y77.743 E29.03078
G1 X141.493 Y77.743 E29.21857
G1 X141.569 Y77.744 E29.22211
G1 X142.267 Y77.754 E29.25462
G1 X142.914 Y77.803 E29.28483
G1 X143.551 Y77.931 E29.31509
G1 X144.167 Y78.137 E29.34533
G1 X144.754 Y78.417 E29.37562
G1 X145.301 Y78.766 E29.40583
G1 X145.802 Y79.18 E29.43609
G1 X146.247 Y79.653 E29.46633
G1 X146.632 Y80.177 E29.49661
G1 X146.949 Y80.744 E29.52686
G1 X147.194 Y81.345 E29.55708
G1 X147.363 Y81.972 E29.58732
G1 X147.469 Y82.885 E29.63011
G1 X147.478 Y83.205 E29.64502
G1 X147.48 Y83.353 E29.65191
G1 X147.48 Y126.306 E31.65198
G1 X147.471 Y127.033 E31.68584
G1 X147.423 Y127.681 E31.7161
G1 X147.295 Y128.318 E31.74635
G1 X147.091 Y128.935 E31.77661
G1 X146.812 Y129.522 E31.80687
G1 X146.464 Y130.07 E31.8371
G1 X146.051 Y130.571 E31.86733
G1 X145.579 Y131.018 E31.8976
G1 X145.056 Y131.403 E31.92784
G1 X144.49 Y131.721 E31.95807
G1 X143.888 Y131.968 E31.98837
G1 X143.262 Y132.138 E32.01858
G1 X142.339 Y132.246 E32.06185
G1 X142.017 Y132.255 E32.07685
G1 X141.87 Y132.257 E32.0837
G1 X133.978 Y132.258 E32.45118
G1 X72.541 Y132.257 E35.31194
G1 X68.439 Y132.257 E35.50295
G1 X67.741 Y132.248 E35.53546
G1 X67.093 Y132.199 E35.56572
G1 X66.456 Y132.072 E35.59596
G1 X65.84 Y131.867 E35.62619
G1 X65.253 Y131.588 E35.65645
G1 X64.705 Y131.239 E35.68671
G1 X64.204 Y130.826 E35.71694
G1 X63.757 Y130.354 E35.74721
G1 X63.372 Y129.831 E35.77745
G1 X63.054 Y129.264 E35.80772
G1 X62.808 Y128.663 E35.83796
G1 X62.638 Y128.036 E35.86821
G1 X62.531 Y127.111 E35.91157
G1 X62.522 Y126.778 E35.92708
G1 X62.52 Y126.635 E35.93374
G1 X62.52 Y83.626 E37.93642
G1 X62.529 Y82.961 E37.96739
G1 X62.578 Y82.313 E37.99765
G1 X62.706 Y81.676 E38.0279
G1 X62.911 Y81.059 E38.05817
G1 X63.191 Y80.473 E38.08842
G1 X63.54 Y79.925 E38.11867
G1 X63.954 Y79.424 E38.14893
G1 X64.426 Y78.978 E38.17917
M204 S3000
M205 X10 Y10
G1 F2400 E32.17917
;MESH:Wago_Halterung_8er_v1.stl
G0 F3000 X68.653 Y82.358
G0 X68.654 Y83.877
G0 X72.54 Y125.577
M204 S1800
M205 X8 Y8
;TYPE:WALL-INNER
G1 F2400 E38.17917
G1 F1500 X69.2 Y125.577 E38.33469
G1 X69.2 Y84.423 E40.251
G1 X76.023 Y84.422 E40.5687
G1 X137.46 Y84.423 E43.42947
G1 X140.8 Y84.423 E43.58499
G1 X140.8 Y125.577 E45.5013
G1 X133.977 Y125.578 E45.819
G1 X72.54 Y125.577 E48.67977
M204 S3000
M205 X10 Y10
G0 F3000 X72.54 Y126.137
M204 S1800
M205 X8 Y8
G1 F1500 X68.64 Y126.137 E48.86137
G1 X68.64 Y83.863 E50.82982
G1 X76.023 Y83.862 E51.17361
G1 X137.46 Y83.863 E54.03437
G1 X141.36 Y83.863 E54.21597
G1 X141.36 Y126.137 E56.18442
G1 X133.977 Y126.138 E56.52821
G1 X72.54 Y126.137 E59.38897
M204 S3000
M205 X10 Y10
G0 F3000 X72.54 Y126.697
M204 S1800
M205 X8 Y8
;TYPE:WALL-OUTER
G1 F1500 X68.08 Y126.697 E59.59665
G1 X68.08 Y83.303 E61.61725
G1 X76.023 Y83.302 E61.98711
G1 X137.46 Y83.303 E64.84788
G1 X141.92 Y83.303 E65.05555
G1 X141.92 Y126.697 E67.07616
G1 X133.977 Y126.698 E67.44602
G1 X72.54 Y126.697 E70.30678
M204 S3000
M205 X10 Y10
G0 F3000 X72.34 Y126.697
G0 X72.34 Y126.037
G0 X72.54 Y125.027
M204 S1800
M205 X8 Y8
;TYPE:SKIN
G1 F1500 X69.75 Y125.027 E70.4367
G1 X69.75 Y84.973 E72.30178
G1 X76.023 Y84.972 E72.59388
G1 X137.46 Y84.973 E75.45464
G1 X140.25 Y84.973 E75.58456
G1 X140.25 Y125.027 E77.44964
G1 X133.977 Y125.028 E77.74173
G1 X72.54 Y125.027 E80.6025
M204 S3000
M205 X10 Y10
G0 F3000 X70.121 Y124.766
M204 S1800
M205 X8 Y8
G1 F1500 X70.009 Y124.655 E80.60984
M204 S3000
M205 X10 Y10
G0 F3000 X70.009 Y123.863
M204 S1800
M205 X8 Y8
G1 F1500 X70.913 Y124.766 E80.66934
M204 S3000
M205 X10 Y10
G0 F3000 X71.705 Y124.766
M204 S1800
M205 X8 Y8
G1 F1500 X70.009 Y123.071 E80.78099
M204 S3000
M205 X10 Y10
G0 F3000 X70.009 Y122.279
M204 S1800
M205 X8 Y8
G1 F1500 X72.497 Y124.766 E80.9448
M204 S3000
M205 X10 Y10
G0 F3000 X73.289 Y124.766
M204 S1800
M205 X8 Y8
G1 F1500 X70.009 Y121.487 E81.16076
M204 S3000
M205 X10 Y10
G0 F3000 X70.009 Y120.695
M204 S1800
M205 X8 Y8
G1 F1500 X74.081 Y124.766 E81.42887
M204 S3000
M205 X10 Y10
G0 F3000 X74.873 Y124.766
M204 S1800
M205 X8 Y8
G1 F1500 X70.009 Y119.903 E81.74914
M204 S3000
M205 X10 Y10
G0 F3000 X70.009 Y119.111
M204 S1800
M205 X8 Y8
G1 F1500 X75.665 Y124.766 E82.12157
M204 S3000
M205 X10 Y10
G0 F3000 X76.457 Y124.766
M204 S1800
M205 X8 Y8
G1 F1500 X70.009 Y118.319 E82.54615
M204 S3000
M205 X10 Y10
G0 F3000 X70.009 Y117.527
M204 S1800
M205 X8 Y8
G1 F1500 X77.249 Y124.766 E83.02288
M204 S3000
M205 X10 Y10
G0 F3000 X78.041 Y124.766
M204 S1800
M205 X8 Y8
G1 F1500 X70.009 Y116.735 E83.55177
M204 S3000
M205 X10 Y10
G0 F3000 X70.009 Y115.943
M204 S1800
M205 X8 Y8
G1 F1500 X78.833 Y124.766 E84.13281
M204 S3000
M205 X10 Y10
G0 F3000 X79.625 Y124.766
M204 S1800
M205 X8 Y8
G1 F1500 X70.009 Y115.151 E84.76601
M204 S3000
M205 X10 Y10
G0 F3000 X70.009 Y114.359
M204 S1800
M205 X8 Y8
G1 F1500 X80.417 Y124.766 E85.45136
M204 S3000
M205 X10 Y10
G0 F3000 X81.209 Y124.766
M204 S1800
M205 X8 Y8
G1 F1500 X70.009 Y113.567 E86.18886
M204 S3000
M205 X10 Y10
G0 F3000 X70.009 Y112.775
M204 S1800
M205 X8 Y8
G1 F1500 X82.001 Y124.766 E86.97852
M204 S3000
M205 X10 Y10
G0 F3000 X82.793 Y124.766
M204 S1800
M205 X8 Y8
G1 F1500 X70.009 Y111.983 E87.82034
M204 S3000
M205 X10 Y10
G0 F3000 X70.009 Y111.191
M204 S1800
M205 X8 Y8
G1 F1500 X83.584 Y124.766 E88.71428
M204 S3000
M205 X10 Y10
G0 F3000 X84.376 Y124.766
M204 S1800
M205 X8 Y8
G1 F1500 X70.009 Y110.399 E89.66037
M204 S3000
M205 X10 Y10
G0 F3000 X70.009 Y109.607
M204 S1800
M205 X8 Y8
G1 F1500 X85.168 Y124.766 E90.65861
M204 S3000
M205 X10 Y10
G0 F3000 X85.96 Y124.766
M204 S1800
M205 X8 Y8
G1 F1500 X70.009 Y108.815 E91.70902
M204 S3000
M205 X10 Y10
G0 F3000 X70.009 Y108.023
M204 S1800
M205 X8 Y8
G1 F1500 X86.752 Y124.766 E92.81157
M204 S3000
M205 X10 Y10
G0 F3000 X87.544 Y124.766
M204 S1800
M205 X8 Y8
G1 F1500 X70.009 Y107.232 E93.96625
M204 S3000
M205 X10 Y10
G0 F3000 X70.009 Y106.44
M204 S1800
M205 X8 Y8
G1 F1500 X88.336 Y124.766 E95.17308
M204 S3000
M205 X10 Y10
G0 F3000 X89.128 Y124.766
M204 S1800
M205 X8 Y8
G1 F1500 X70.009 Y105.648 E96.43206
M204 S3000
M205 X10 Y10
G0 F3000 X70.009 Y104.856
M204 S1800
M205 X8 Y8
G1 F1500 X89.92 Y124.766 E97.7432
M204 S3000
M205 X10 Y10
G0 F3000 X90.712 Y124.766
M204 S1800
M205 X8 Y8
G1 F1500 X70.009 Y104.064 E99.1065
M204 S3000
M205 X10 Y10
G0 F3000 X70.009 Y103.272
M204 S1800
M205 X8 Y8
G1 F1500 X91.504 Y124.766 E100.52195
M204 S3000
M205 X10 Y10
G0 F3000 X92.296 Y124.766
M204 S1800
M205 X8 Y8
G1 F1500 X70.009 Y102.48 E101.98955
M204 S3000
M205 X10 Y10
G0 F3000 X70.009 Y101.688
M204 S1800
M205 X8 Y8
G1 F1500 X93.088 Y124.766 E103.50931
M204 S3000
M205 X10 Y10
G0 F3000 X93.88 Y124.766
M204 S1800
M205 X8 Y8
G1 F1500 X70.009 Y100.896 E105.08123
M204 S3000
M205 X10 Y10
G0 F3000 X70.009 Y100.104
M204 S1800
M205 X8 Y8
G1 F1500 X94.672 Y124.766 E106.70529
M204 S3000
M205 X10 Y10
G0 F3000 X95.464 Y124.766
M204 S1800
M205 X8 Y8
G1 F1500 X70.009 Y99.312 E108.38152
M204 S3000
M205 X10 Y10
G0 F3000 X70.009 Y98.52
M204 S1800
M205 X8 Y8
G1 F1500 X96.256 Y124.766 E110.10989
M204 S3000
M205 X10 Y10
G0 F3000 X97.048 Y124.766
M204 S1800
M205 X8 Y8
G1 F1500 X70.009 Y97.728 E111.89042
M204 S3000
M205 X10 Y10
G0 F3000 X70.009 Y96.936
M204 S1800
M205 X8 Y8
G1 F1500 X97.84 Y124.766 E113.72311
M204 S3000
M205 X10 Y10
G0 F3000 X98.632 Y124.766
M204 S1800
M205 X8 Y8
G1 F1500 X70.009 Y96.144 E115.60795
M204 S3000
M205 X10 Y10
G0 F3000 X70.009 Y95.352
M204 S1800
M205 X8 Y8
G1 F1500 X99.424 Y124.766 E117.54494
M204 S3000
M205 X10 Y10
G0 F3000 X100.216 Y124.766
M204 S1800
M205 X8 Y8
G1 F1500 X70.009 Y94.56 E119.53409
M204 S3000
M205 X10 Y10
G0 F3000 X70.009 Y93.768
M204 S1800
M205 X8 Y8
G1 F1500 X101.008 Y124.766 E121.5754
M204 S3000
M205 X10 Y10
G0 F3000 X101.8 Y124.766
M204 S1800
M205 X8 Y8
G1 F1500 X70.009 Y92.976 E123.66886
M204 S3000
M205 X10 Y10
G0 F3000 X70.009 Y92.184
M204 S1800
M205 X8 Y8
G1 F1500 X102.592 Y124.766 E125.81447
M204 S3000
M205 X10 Y10
G0 F3000 X103.384 Y124.767
M204 S1800
M205 X8 Y8
G1 F1500 X70.009 Y91.392 E128.01227
M204 S3000
M205 X10 Y10
G0 F3000 X70.009 Y90.6
M204 S1800
M205 X8 Y8
G1 F1500 X104.176 Y124.767 E130.26223
M204 S3000
M205 X10 Y10
G0 F3000 X104.968 Y124.767
M204 S1800
M205 X8 Y8
G1 F1500 X70.009 Y89.808 E132.56434
M204 S3000
M205 X10 Y10
G0 F3000 X70.009 Y89.016
M204 S1800
M205 X8 Y8
G1 F1500 X105.76 Y124.767 E134.9186
M204 S3000
M205 X10 Y10
G0 F3000 X106.552 Y124.767
M204 S1800
M205 X8 Y8
G1 F1500 X70.009 Y88.225 E137.32499
M204 S3000
M205 X10 Y10
G0 F3000 X70.009 Y87.433
M204 S1800
M205 X8 Y8
G1 F1500 X107.344 Y124.767 E139.78353
M204 S3000
M205 X10 Y10
G0 F3000 X108.136 Y124.767
M204 S1800
M205 X8 Y8
G1 F1500 X70.009 Y86.641 E142.29422
M204 S3000
M205 X10 Y10
G0 F3000 X70.009 Y85.849
M204 S1800
M205 X8 Y8
G1 F1500 X108.928 Y124.767 E144.85707
M204 S3000
M205 X10 Y10
G0 F3000 X109.72 Y124.767
M204 S1800
M205 X8 Y8
G1 F1500 X70.185 Y85.232 E147.46052
M204 S3000
M205 X10 Y10
G0 F3000 X70.977 Y85.232
M204 S1800
M205 X8 Y8
G1 F1500 X110.512 Y124.767 E150.06397
M204 S3000
M205 X10 Y10
G0 F3000 X111.304 Y124.767
M204 S1800
M205 X8 Y8
G1 F1500 X71.769 Y85.232 E152.66741
M204 S3000
M205 X10 Y10
G0 F3000 X72.561 Y85.232
M204 S1800
M205 X8 Y8
G1 F1500 X112.096 Y124.767 E155.27086
M204 S3000
M205 X10 Y10
G0 F3000 X112.888 Y124.767
M204 S1800
M205 X8 Y8
G1 F1500 X73.352 Y85.231 E157.87437
M204 S3000
M205 X10 Y10
G0 F3000 X74.144 Y85.231
M204 S1800
M205 X8 Y8
G1 F1500 X113.68 Y124.767 E160.47789
M204 S3000
M205 X10 Y10
G0 F3000 X114.472 Y124.767
M204 S1800
M205 X8 Y8
G1 F1500 X74.936 Y85.231 E163.0814
M204 S3000
M205 X10 Y10
G0 F3000 X75.728 Y85.231
M204 S1800
M205 X8 Y8
G1 F1500 X115.264 Y124.767 E165.68491
M204 S3000
M205 X10 Y10
G0 F3000 X116.056 Y124.767
M204 S1800
M205 X8 Y8
G1 F1500 X76.52 Y85.231 E168.28843
M204 S3000
