;FLAVOR:Marlin
;TIME:5988
;Filament used: 4.43007m
;Layer height: 0.2
;MINX:61.4
;MINY:76.624
;MINZ:0.2
;MAXX:148.6
;MAXY:133.376
;MAXZ:17.2
;Generated with Cura_SteamEngine 4.4.1
M140 S60
M105
M190 S60
M104 S200
M105
M109 S200
M82 ;absolute extrusion mode
G21 ;metric values
G90 ;absolute positioning
M82 ;set extruder to absolute mode
M107 ;start with the fan off
G28 X0 Y0 ;move X/Y to min endstops
G28 Z0 ;move Z to min endstops
G1 Z15.0 F100 ;move the platform down 15mm
G92 E0 ;zero the extruded length
G1 F200 E3 ;extrude 3mm of feed stock
G92 E0 ;zero the extruded length again
G1 F100
G0 Y20 F100
M117 Printing...
G5
G92 E0
G92 E0
G1 F2400 E-6
;LAYER_COUNT:86
;LAYER:0
M106 S255
M204 S3000
M205 X10 Y10
G1 F600 Z0.275
G0 F3000 X63.871 Y77.988 Z0.275
M204 S1800
M205 X8 Y8
;TYPE:SKIRT
G1 F600 Z0.2
G1 F2400 E0
G1 X64.459 Y77.58 E0.03333
G1 X65.088 Y77.24 E0.06662
G1 X65.752 Y76.973 E0.09994
G1 X66.441 Y76.781 E0.13325
G1 X67.147 Y76.667 E0.16655
G1 X67.63 Y76.636 E0.18909
G1 X67.951 Y76.627 E0.20404
G1 X68.13 Y76.624 E0.21238
G1 X136.869 Y76.625 E3.41315
G1 X141.535 Y76.624 E3.63042
G1 X141.625 Y76.625 E3.63461
G1 X142.269 Y76.634 E3.6646
G1 X142.983 Y76.684 E3.69793
G1 X143.686 Y76.813 E3.73121
G1 X144.371 Y77.02 E3.76453
G1 X145.028 Y77.302 E3.79782
G1 X145.65 Y77.655 E3.83113
G1 X146.229 Y78.076 E3.86446
G1 X146.756 Y78.559 E3.89775
G1 X147.227 Y79.098 E3.93108
G1 X147.635 Y79.685 E3.96436
G1 X147.974 Y80.315 E3.99768
G1 X148.241 Y80.978 E4.03096
G1 X148.433 Y81.668 E4.06431
G1 X148.567 Y82.626 E4.10935
G1 X148.586 Y82.924 E4.12325
G1 X148.599 Y83.331 E4.14222
G1 X148.6 Y126.235 E6.14001
G1 X148.6 Y126.314 E6.14368
G1 X148.591 Y127.046 E6.17777
G1 X148.542 Y127.759 E6.21105
G1 X148.414 Y128.463 E6.24437
G1 X148.208 Y129.148 E6.27768
G1 X147.927 Y129.806 E6.31099
G1 X147.574 Y130.428 E6.3443
G1 X147.155 Y131.007 E6.37757
G1 X146.673 Y131.536 E6.4109
G1 X146.135 Y132.007 E6.44419
G1 X145.548 Y132.416 E6.47751
G1 X144.919 Y132.757 E6.51082
G1 X144.256 Y133.025 E6.54412
G1 X143.567 Y133.217 E6.57743
G1 X142.861 Y133.332 E6.61074
G1 X142.37 Y133.364 E6.63365
G1 X142.049 Y133.373 E6.6486
G1 X141.87 Y133.376 E6.65694
G1 X73.131 Y133.375 E9.85771
G1 X68.465 Y133.376 E10.07498
G1 X68.386 Y133.376 E10.07866
G1 X67.732 Y133.368 E10.10911
G1 X67.018 Y133.319 E10.14244
G1 X66.314 Y133.191 E10.17576
G1 X65.629 Y132.985 E10.20907
G1 X64.972 Y132.704 E10.24234
G1 X64.349 Y132.352 E10.27566
G1 X63.77 Y131.932 E10.30897
G1 X63.241 Y131.45 E10.34229
G1 X62.77 Y130.912 E10.37558
G1 X62.361 Y130.325 E10.4089
G1 X62.021 Y129.696 E10.44219
G1 X61.752 Y129.033 E10.47551
G1 X61.56 Y128.344 E10.50881
G1 X61.445 Y127.638 E10.54212
G1 X61.413 Y127.149 E10.56494
G1 X61.404 Y126.831 E10.57975
G1 X61.401 Y126.65 E10.58818
G1 X61.4 Y83.697 E12.58825
G1 X61.401 Y83.61 E12.59231
G1 X61.41 Y82.946 E12.62323
G1 X61.459 Y82.233 E12.65651
G1 X61.588 Y81.529 E12.68983
G1 X61.795 Y80.844 E12.72315
G1 X62.077 Y80.187 E12.75645
G1 X62.43 Y79.565 E12.78975
G1 X62.851 Y78.987 E12.82304
G1 X63.333 Y78.459 E12.85633
G1 X63.871 Y77.988 E12.88963
M204 S3000
M205 X10 Y10
G0 F3000 X64.412 Y78.283
M204 S1800
M205 X8 Y8
G1 F2400 X64.99 Y77.918 E12.92146
G1 X65.607 Y77.624 E12.95329
G1 X66.254 Y77.404 E12.98511
G1 X66.922 Y77.261 E13.01692
G1 X67.645 Y77.195 E13.05072
G1 X67.966 Y77.186 E13.06568
G1 X68.13 Y77.184 E13.07331
G1 X136.869 Y77.185 E16.27409
G1 X141.535 Y77.184 E16.49136
G1 X141.618 Y77.185 E16.49522
G1 X142.262 Y77.194 E16.52521
G1 X142.943 Y77.243 E16.557
G1 X143.614 Y77.372 E16.58882
G1 X144.265 Y77.578 E16.62062
G1 X144.888 Y77.859 E16.65244
G1 X145.474 Y78.211 E16.68427
G1 X146.015 Y78.628 E16.71608
G1 X146.503 Y79.106 E16.74788
G1 X146.932 Y79.638 E16.77971
G1 X147.296 Y80.216 E16.81151
G1 X147.59 Y80.833 E16.84334
G1 X147.81 Y81.48 E16.87516
G1 X147.953 Y82.148 E16.90697
G1 X148.008 Y82.661 E16.93099
G1 X148.027 Y82.959 E16.9449
G1 X148.039 Y83.331 E16.96223
G1 X148.04 Y126.235 E18.96002
G1 X148.04 Y126.307 E18.96337
G1 X148.031 Y127.039 E18.99746
G1 X147.982 Y127.72 E19.02925
G1 X147.855 Y128.392 E19.0611
G1 X147.649 Y129.043 E19.09289
G1 X147.37 Y129.667 E19.12472
G1 X147.019 Y130.253 E19.15653
G1 X146.602 Y130.794 E19.18833
G1 X146.125 Y131.283 E19.22014
G1 X145.594 Y131.713 E19.25196
G1 X145.016 Y132.078 E19.28379
G1 X144.4 Y132.373 E19.31559
G1 X143.754 Y132.594 E19.34738
G1 X143.086 Y132.738 E19.3792
G1 X142.355 Y132.805 E19.41338
G1 X142.034 Y132.814 E19.42834
G1 X141.87 Y132.816 E19.43597
G1 X73.131 Y132.815 E22.63675
G1 X68.465 Y132.816 E22.85402
G1 X68.393 Y132.816 E22.85737
G1 X67.739 Y132.808 E22.88783
G1 X67.057 Y132.759 E22.91967
G1 X66.386 Y132.632 E22.95146
G1 X65.734 Y132.427 E22.98329
G1 X65.111 Y132.147 E23.01509
G1 X64.524 Y131.796 E23.04694
G1 X63.983 Y131.379 E23.07875
G1 X63.494 Y130.902 E23.11056
G1 X63.064 Y130.371 E23.14237
G1 X62.699 Y129.794 E23.17416
G1 X62.404 Y129.177 E23.20601
G1 X62.183 Y128.531 E23.2378
G1 X62.039 Y127.863 E23.26962
G1 X61.972 Y127.133 E23.30376
G1 X61.963 Y126.815 E23.31857
G1 X61.961 Y126.65 E23.32625
G1 X61.96 Y83.697 E25.32632
G1 X61.961 Y83.618 E25.33
G1 X61.97 Y82.954 E25.36092
G1 X62.019 Y82.272 E25.39276
G1 X62.147 Y81.601 E25.42457
G1 X62.353 Y80.95 E25.45637
G1 X62.634 Y80.327 E25.48819
G1 X62.985 Y79.741 E25.52
G1 X63.403 Y79.2 E25.55183
G1 X63.88 Y78.712 E25.58361
G1 X64.412 Y78.283 E25.61543
M204 S3000
M205 X10 Y10
G0 F3000 X64.426 Y78.979
M204 S1800
M205 X8 Y8
G1 F2400 X64.949 Y78.594 E25.64567
G1 X65.516 Y78.277 E25.67592
G1 X66.117 Y78.031 E25.70616
G1 X66.744 Y77.861 E25.73641
G1 X67.661 Y77.755 E25.77939
G1 X67.982 Y77.746 E25.79434
G1 X68.13 Y77.744 E25.80123
G1 X136.869 Y77.745 E29.00201
G1 X141.535 Y77.744 E29.21928
G1 X141.61 Y77.745 E29.22277
G1 X142.254 Y77.754 E29.25276
G1 X142.902 Y77.803 E29.28302
G1 X143.538 Y77.931 E29.31323
G1 X144.155 Y78.136 E29.3435
G1 X144.741 Y78.416 E29.37375
G1 X145.289 Y78.765 E29.404
G1 X145.789 Y79.179 E29.43423
G1 X146.235 Y79.652 E29.4645
G1 X146.62 Y80.175 E29.49474
G1 X146.937 Y80.742 E29.52499
G1 X147.182 Y81.343 E29.55521
G1 X147.352 Y81.971 E29.5855
G1 X147.449 Y82.697 E29.61961
G1 X147.468 Y82.995 E29.63351
G1 X147.479 Y83.331 E29.64917
G1 X147.48 Y126.235 E31.64696
G1 X147.48 Y126.3 E31.64998
G1 X147.471 Y127.032 E31.68407
G1 X147.423 Y127.68 E31.71433
G1 X147.296 Y128.317 E31.74457
G1 X147.091 Y128.933 E31.7748
G1 X146.813 Y129.52 E31.80505
G1 X146.464 Y130.069 E31.83534
G1 X146.051 Y130.57 E31.86557
G1 X145.579 Y131.016 E31.89581
G1 X145.056 Y131.402 E31.92608
G1 X144.49 Y131.72 E31.95631
G1 X143.889 Y131.967 E31.98656
G1 X143.262 Y132.137 E32.01681
G1 X142.339 Y132.245 E32.06008
G1 X142.018 Y132.254 E32.07504
G1 X141.87 Y132.256 E32.08193
G1 X73.131 Y132.255 E35.28271
G1 X68.465 Y132.256 E35.49997
G1 X68.399 Y132.256 E35.50305
G1 X67.745 Y132.248 E35.5335
G1 X67.098 Y132.2 E35.56371
G1 X66.461 Y132.073 E35.59396
G1 X65.844 Y131.868 E35.62423
G1 X65.257 Y131.59 E35.65448
G1 X64.709 Y131.241 E35.68473
G1 X64.207 Y130.828 E35.715
G1 X63.761 Y130.356 E35.74524
G1 X63.375 Y129.834 E35.77547
G1 X63.057 Y129.267 E35.80574
G1 X62.811 Y128.666 E35.83598
G1 X62.64 Y128.039 E35.86624
G1 X62.532 Y127.117 E35.90946
G1 X62.523 Y126.799 E35.92428
G1 X62.521 Y126.65 E35.93121
G1 X62.52 Y83.697 E37.93129
G1 X62.52 Y83.625 E37.93464
G1 X62.529 Y82.961 E37.96556
G1 X62.578 Y82.314 E37.99577
G1 X62.706 Y81.677 E38.02603
G1 X62.911 Y81.06 E38.0563
G1 X63.191 Y80.474 E38.08654
G1 X63.54 Y79.926 E38.1168
G1 X63.954 Y79.425 E38.14706
G1 X64.426 Y78.979 E38.1773
M204 S3000
M205 X10 Y10
G1 F2400 E32.1773
;MESH:Wago_Halterung_8er_v5.stl
G0 F3000 X68.654 Y82.359
G0 X68.654 Y83.878
G0 X81.351 Y113.782
G0 X82.203 Y114.686
G0 X84.267 Y115.594
M204 S1800
M205 X8 Y8
;TYPE:WALL-INNER
G1 F2400 E38.1773
G1 F1500 X85.017 Y115.34 E38.21417
G1 X85.683 Y114.912 E38.25103
G1 X86.222 Y114.329 E38.288
G1 X86.595 Y113.634 E38.32473
G1 X86.788 Y112.863 E38.36174
G1 X86.78 Y112.071 E38.39862
G1 X86.578 Y111.306 E38.43546
G1 X86.191 Y110.616 E38.4723
G1 X85.644 Y110.041 E38.50926
G1 X84.971 Y109.622 E38.54617
G1 X84.218 Y109.384 E38.58294
G1 X83.425 Y109.34 E38.61993
G1 X82.648 Y109.495 E38.65682
G1 X81.934 Y109.838 E38.6937
G1 X81.33 Y110.348 E38.73051
G1 X80.87 Y110.989 E38.76725
G1 X80.581 Y111.731 E38.80433
G1 X80.49 Y112.518 E38.84122
G1 X80.593 Y113.302 E38.87804
G1 X80.893 Y114.04 E38.91514
G1 X81.364 Y114.674 E38.95191
G1 X81.976 Y115.174 E38.98871
G1 X82.695 Y115.505 E39.02557
G1 X83.473 Y115.649 E39.06241
G1 X84.267 Y115.594 E39.09947
M204 S3000
M205 X10 Y10
G0 F3000 X73.111 Y125.575
M204 S1800
M205 X8 Y8
G1 F1500 X69.48 Y125.576 E39.26855
G1 X69.2 Y125.576 E39.28158
G1 X69.2 Y125.296 E39.29002
G1 X69.2 Y84.704 E41.18016
G1 X69.2 Y84.424 E41.19319
G1 X69.48 Y84.424 E41.20163
G1 X136.889 Y84.425 E44.34048
G1 X140.52 Y84.424 E44.50955
G1 X140.8 Y84.424 E44.52259
G1 X140.8 Y84.704 E44.53103
G1 X140.8 Y125.296 E46.42117
G1 X140.8 Y125.576 E46.4342
G1 X140.52 Y125.576 E46.44264
G1 X73.111 Y125.575 E49.58149
M204 S3000
M205 X10 Y10
G0 F3000 X125.477 Y92.509
G0 X127.473 Y91.611
M204 S1800
M205 X8 Y8
G1 F1500 X126.682 Y91.571 E49.61837
G1 X125.907 Y91.723 E49.65514
G1 X125.192 Y92.068 E49.69211
G1 X124.586 Y92.577 E49.72896
G1 X124.124 Y93.222 E49.7659
G1 X123.838 Y93.961 E49.8028
G1 X123.747 Y94.746 E49.8396
G1 X123.85 Y95.533 E49.87656
G1 X124.15 Y96.267 E49.91348
G1 X124.618 Y96.903 E49.95025
G1 X125.235 Y97.405 E49.98729
G1 X125.954 Y97.735 E50.02412
G1 X126.731 Y97.879 E50.06092
G1 X127.525 Y97.823 E50.09799
G1 X128.275 Y97.569 E50.13486
G1 X128.937 Y97.142 E50.17154
G1 X129.478 Y96.561 E50.2085
G1 X129.854 Y95.862 E50.24546
G1 X130.045 Y95.093 E50.28236
G1 X130.037 Y94.301 E50.31924
G1 X129.835 Y93.535 E50.35613
G1 X129.448 Y92.843 E50.39305
G1 X128.9 Y92.271 E50.42993
G1 X128.23 Y91.854 E50.46668
G1 X127.473 Y91.611 E50.5037
M204 S3000
M205 X10 Y10
G0 F3000 X127.372 Y92.167
M204 S1800
M205 X8 Y8
G1 F1500 X126.722 Y92.134 E50.53401
G1 X126.085 Y92.259 E50.56423
G1 X125.498 Y92.542 E50.59458
G1 X125 Y92.96 E50.62485
G1 X124.621 Y93.49 E50.65519
G1 X124.386 Y94.097 E50.6855
G1 X124.311 Y94.742 E50.71574
G1 X124.396 Y95.388 E50.74608
G1 X124.642 Y95.991 E50.7764
G1 X125.027 Y96.514 E50.80664
G1 X125.533 Y96.926 E50.83702
G1 X126.124 Y97.197 E50.8673
G1 X126.763 Y97.315 E50.89756
G1 X127.414 Y97.269 E50.92795
G1 X128.03 Y97.061 E50.95822
G1 X128.575 Y96.709 E50.98843
G1 X129.019 Y96.232 E51.01877
G1 X129.327 Y95.659 E51.04907
G1 X129.484 Y95.027 E51.07939
G1 X129.478 Y94.376 E51.1097
G1 X129.312 Y93.747 E51.14
G1 X128.994 Y93.179 E51.17031
G1 X128.544 Y92.709 E51.20061
G1 X127.993 Y92.366 E51.23083
G1 X127.372 Y92.167 E51.26119
M204 S3000
M205 X10 Y10
G0 F3000 X127.389 Y92.069
G0 X126.073 Y92.222
G0 X84.789 Y114.868
G0 X84.156 Y115.04
M204 S1800
M205 X8 Y8
G1 F1500 X84.772 Y114.832 E51.29147
G1 X85.32 Y114.48 E51.3218
G1 X85.762 Y114.001 E51.35214
G1 X86.069 Y113.43 E51.38233
G1 X86.227 Y112.797 E51.41271
G1 X86.221 Y112.146 E51.44303
G1 X86.055 Y111.518 E51.47327
G1 X85.737 Y110.951 E51.50354
G1 X85.288 Y110.479 E51.53388
G1 X84.735 Y110.135 E51.5642
G1 X84.116 Y109.939 E51.59444
G1 X83.465 Y109.903 E51.6248
G1 X82.827 Y110.03 E51.65509
G1 X82.241 Y110.312 E51.68537
G1 X81.744 Y110.731 E51.71564
G1 X81.366 Y111.258 E51.74584
G1 X81.129 Y111.867 E51.77627
G1 X81.054 Y112.514 E51.80659
G1 X81.139 Y113.158 E51.83684
G1 X81.385 Y113.763 E51.86725
G1 X81.772 Y114.284 E51.89747
G1 X82.275 Y114.695 E51.92772
G1 X82.866 Y114.967 E51.95801
G1 X83.505 Y115.085 E51.98827
G1 X84.156 Y115.04 E52.01866
M204 S3000
M205 X10 Y10
G0 F3000 X84.175 Y115.138
G0 X73.111 Y126.035
G0 X73.111 Y126.135
M204 S1800
M205 X8 Y8
G1 F1500 X68.92 Y126.136 E52.21381
G1 X68.64 Y126.136 E52.22685
G1 X68.64 Y125.856 E52.23529
G1 X68.64 Y84.144 E54.17757
G1 X68.64 Y83.864 E54.19061
G1 X68.92 Y83.864 E54.19905
G1 X136.889 Y83.865 E57.36397
G1 X141.08 Y83.864 E57.55912
G1 X141.36 Y83.864 E57.57216
G1 X141.36 Y84.144 E57.5806
G1 X141.36 Y125.856 E59.52288
G1 X141.36 Y126.136 E59.53592
G1 X141.08 Y126.136 E59.54436
G1 X73.111 Y126.135 E62.70928
M204 S3000
M205 X10 Y10
G0 F3000 X73.111 Y126.695
M204 S1800
M205 X8 Y8
;TYPE:WALL-OUTER
G1 F1500 X68.36 Y126.696 E62.93051
G1 X68.08 Y126.696 E62.94355
G1 X68.08 Y126.416 E62.95199
G1 X68.08 Y83.584 E64.94642
G1 X68.08 Y83.304 E64.95946
G1 X68.36 Y83.304 E64.9679
G1 X136.889 Y83.305 E68.1589
G1 X141.64 Y83.304 E68.38013
G1 X141.92 Y83.304 E68.39316
G1 X141.92 Y83.584 E68.4016
G1 X141.92 Y126.416 E70.39604
G1 X141.92 Y126.696 E70.40908
G1 X141.64 Y126.696 E70.41752
G1 X73.111 Y126.695 E73.60852
M204 S3000
M205 X10 Y10
G0 F3000 X72.911 Y126.695
G0 X72.911 Y126.035
G0 X85.313 Y114.603
G0 X84.957 Y114.048
M204 S1800
M205 X8 Y8
G1 F1500 X85.302 Y113.673 E73.63224
G1 X85.543 Y113.226 E73.65589
G1 X85.666 Y112.731 E73.67964
G1 X85.662 Y112.221 E73.70339
G1 X85.532 Y111.73 E73.72704
G1 X85.283 Y111.286 E73.75074
G1 X84.932 Y110.917 E73.77446
G1 X84.499 Y110.648 E73.79819
G1 X84.014 Y110.494 E73.82189
G1 X83.505 Y110.466 E73.84563
G1 X83.006 Y110.565 E73.86931
G1 X82.548 Y110.786 E73.89299
G1 X82.158 Y111.114 E73.91672
G1 X81.862 Y111.527 E73.94038
G1 X81.677 Y112.003 E73.96416
G1 X81.618 Y112.509 E73.98788
G1 X81.685 Y113.013 E74.01156
G1 X81.877 Y113.486 E74.03533
G1 X82.18 Y113.894 E74.05899
G1 X82.574 Y114.216 E74.08269
G1 X83.036 Y114.429 E74.10638
G1 X83.537 Y114.521 E74.13009
G1 X84.045 Y114.486 E74.1538
G1 X84.528 Y114.323 E74.17754
G1 X84.957 Y114.048 E74.20127
M204 S3000
M205 X10 Y10
G0 F3000 X85.092 Y113.901
G0 X85.576 Y114.348
G0 X126.073 Y92.222
G0 X127.305 Y92.064
G0 X127.271 Y92.723
M204 S1800
M205 X8 Y8
G1 F1500 X126.762 Y92.697 E74.225
G1 X126.263 Y92.795 E74.24868
G1 X125.804 Y93.016 E74.2724
G1 X125.414 Y93.343 E74.2961
G1 X125.118 Y93.758 E74.31984
G1 X124.934 Y94.233 E74.34356
G1 X124.875 Y94.738 E74.36723
G1 X124.942 Y95.243 E74.39095
G1 X125.134 Y95.715 E74.41468
G1 X125.436 Y96.125 E74.43839
G1 X125.831 Y96.447 E74.46212
G1 X126.294 Y96.659 E74.48583
G1 X126.794 Y96.751 E74.5095
G1 X127.303 Y96.715 E74.53327
G1 X127.785 Y96.553 E74.55694
G1 X128.212 Y96.277 E74.58062
G1 X128.56 Y95.903 E74.60441
G1 X128.8 Y95.456 E74.62803
G1 X128.923 Y94.961 E74.65178
G1 X128.919 Y94.451 E74.67553
G1 X128.789 Y93.959 E74.69922
G1 X128.54 Y93.515 E74.72293
G1 X128.188 Y93.147 E74.74664
G1 X127.756 Y92.878 E74.77034
G1 X127.271 Y92.723 E74.79405
M204 S3000
M205 X10 Y10
G0 F3000 X127.071 Y92.713
G0 X127.105 Y92.054
G0 X127.573 Y91.065
M204 S1800
M205 X8 Y8
;TYPE:SKIN
G1 F1500 X126.643 Y91.019 E74.8374
G1 X125.732 Y91.197 E74.88063
G1 X124.891 Y91.603 E74.92411
G1 X124.179 Y92.2 E74.96738
G1 X123.637 Y92.959 E75.01081
G1 X123.3 Y93.828 E75.05421
G1 X123.193 Y94.75 E75.09743
G1 X123.314 Y95.675 E75.14087
G1 X123.667 Y96.538 E75.18428
G1 X124.217 Y97.286 E75.22751
G1 X124.942 Y97.876 E75.27104
G1 X125.787 Y98.263 E75.31432
G1 X126.7 Y98.433 E75.35756
G1 X127.635 Y98.367 E75.40121
G1 X128.516 Y98.068 E75.44453
G1 X129.293 Y97.567 E75.48758
G1 X129.929 Y96.884 E75.53103
G1 X130.371 Y96.062 E75.57449
G1 X130.595 Y95.158 E75.61786
G1 X130.587 Y94.227 E75.66121
G1 X130.349 Y93.327 E75.70456
G1 X129.894 Y92.513 E75.74798
G1 X129.249 Y91.841 E75.79135
G1 X128.463 Y91.351 E75.83448
G1 X127.573 Y91.065 E75.87801
M204 S3000
M205 X10 Y10
G0 F3000 X136.889 Y84.975
M204 S1800
M205 X8 Y8
G1 F1500 X140.25 Y84.974 E76.03452
G1 X140.25 Y125.026 E77.8995
G1 X73.111 Y125.025 E81.02578
G1 X69.75 Y125.026 E81.18228
G1 X69.75 Y84.974 E83.04727
G1 X136.889 Y84.975 E86.17354
M204 S3000
M205 X10 Y10
