;FLAVOR:Marlin
;TIME:4892
;Filament used: 4.31259m
;Layer height: 0.2
;MINX:49.68
;MINY:49.202
;MINZ:0.3
;MAXX:129.92
;MAXY:128.37
;MAXZ:28.5
;POSTPROCESSED
;ChangeAtZ instances: 1
;Generated with Cura_SteamEngine 4.4.1
M140 S80
M105
M190 S80
M104 S250
M105
M109 S250
M82 ;absolute extrusion mode
G21 ;metric values
G90 ;absolute positioning
M82 ;set extruder to absolute mode
M107 ;start with the fan off
G28 X0 Y0 ;move X/Y to min endstops
G28 Z0 ;move Z to min endstops
G1 Z15.0 F250 ;move the platform down 15mm
G92 E0 ;zero the extruded length
G1 F200 E3 ;extrude 3mm of feed stock
G92 E0 ;zero the extruded length again
G1 F250
G0 Y20 F250
M117 Printing...
G5
G92 E0
G92 E0
G1 F2700 E-6
;LAYER_COUNT:142
;LAYER:0
M107
G0 F4800 X68.171 Y51.776 Z0.3
;TYPE:SKIRT
G1 F2700 E0
G1 F1200 X68.662 Y51.225 E0.04547
G1 X69.21 Y50.73 E0.09097
G1 X69.809 Y50.297 E0.13651
G1 X70.45 Y49.931 E0.18199
G1 X71.127 Y49.637 E0.22747
G1 X71.833 Y49.418 E0.27301
G1 X72.557 Y49.277 E0.31846
G1 X73.309 Y49.214 E0.36496
G1 X73.628 Y49.205 E0.38462
G1 X73.82 Y49.202 E0.39645
G1 X110.692 Y49.202 E2.6683
G1 X110.792 Y49.203 E2.67446
G1 X111.474 Y49.213 E2.71648
G1 X111.729 Y49.221 E2.7322
G1 X112.036 Y49.237 E2.75115
G1 X112.77 Y49.316 E2.79663
G1 X113.492 Y49.473 E2.84216
G1 X114.192 Y49.707 E2.88763
G1 X114.863 Y50.016 E2.93315
G1 X115.496 Y50.395 E2.97861
G1 X116.085 Y50.841 E3.02413
G1 X116.622 Y51.347 E3.06959
G1 X117.101 Y51.909 E3.11509
G1 X117.517 Y52.519 E3.16058
G1 X117.864 Y53.171 E3.20609
G1 X118.139 Y53.856 E3.25157
G1 X118.338 Y54.567 E3.29706
G1 X118.458 Y55.284 E3.34185
G1 X118.609 Y56.626 E3.42506
G1 X118.945 Y59.261 E3.58873
G1 X119.352 Y61.872 E3.75155
G1 X119.827 Y64.441 E3.91252
G1 X120.378 Y67.006 E4.07416
G1 X121.012 Y69.607 E4.23911
G1 X121.705 Y72.131 E4.40038
G1 X122.475 Y74.657 E4.56309
G1 X123.323 Y77.175 E4.7268
G1 X124.225 Y79.626 E4.88772
G1 X125.205 Y82.073 E5.05013
G1 X126.244 Y84.468 E5.21099
G1 X127.378 Y86.89 E5.37576
G1 X128.661 Y89.438 E5.55154
G1 X129.119 Y90.313 E5.61239
G1 X129.426 Y90.985 E5.65791
G1 X129.658 Y91.686 E5.7034
G1 X129.812 Y92.408 E5.74889
G1 X129.881 Y93.015 E5.78653
G1 X129.905 Y93.371 E5.80852
G1 X129.92 Y93.83 E5.83681
G1 X129.92 Y98.043 E6.09639
G1 X129.919 Y98.14 E6.10237
G1 X129.909 Y98.845 E6.14581
G1 X129.904 Y99.034 E6.15746
G1 X129.869 Y99.869 E6.20895
G1 X129.864 Y99.969 E6.21512
G1 X129.799 Y101.116 E6.28591
G1 X129.726 Y103.727 E6.44685
G1 X129.728 Y106.383 E6.61049
G1 X129.803 Y109.012 E6.77254
G1 X129.901 Y110.897 E6.88884
G1 X129.907 Y111.043 E6.89785
G1 X129.917 Y111.373 E6.91819
G1 X129.92 Y111.58 E6.93095
G1 X129.92 Y115.764 E7.18874
G1 X129.919 Y115.858 E7.19453
G1 X129.909 Y116.585 E7.23933
G1 X129.859 Y117.321 E7.28478
G1 X129.73 Y118.048 E7.33028
G1 X129.523 Y118.757 E7.37578
G1 X129.24 Y119.439 E7.42128
G1 X128.885 Y120.087 E7.46681
G1 X128.462 Y120.692 E7.51229
G1 X127.977 Y121.248 E7.55775
G1 X127.434 Y121.749 E7.60327
G1 X126.84 Y122.188 E7.64878
G1 X126.291 Y122.513 E7.68809
G1 X125.42 Y122.976 E7.74887
G1 X125.379 Y122.998 E7.75173
G1 X124.264 Y123.581 E7.82926
G1 X123.592 Y123.887 E7.87475
G1 X122.891 Y124.119 E7.92025
G1 X122.169 Y124.273 E7.96574
G1 X121.369 Y124.352 E8.01527
G1 X121.035 Y124.365 E8.03586
G1 X120.77 Y124.37 E8.05219
G1 X113.623 Y124.37 E8.49255
G1 X110.979 Y124.407 E8.65547
G1 X108.327 Y124.52 E8.81902
G1 X105.706 Y124.706 E8.98092
G1 X103.078 Y124.966 E9.14363
G1 X100.467 Y125.301 E9.30583
G1 X97.653 Y125.744 E9.48135
G1 X97.469 Y125.77 E9.4928
G1 X96.753 Y125.863 E9.53728
G1 X96.556 Y125.886 E9.5495
G1 X94.887 Y126.053 E9.65285
G1 X92.299 Y126.386 E9.81362
G1 X89.677 Y126.8 E9.97718
G1 X87.086 Y127.285 E10.13959
G1 X84.43 Y127.859 E10.30702
G1 X83.065 Y128.178 E10.39339
G1 X82.338 Y128.307 E10.43888
G1 X81.772 Y128.352 E10.47387
G1 X81.427 Y128.365 E10.49514
G1 X81.17 Y128.37 E10.51098
G1 X57.207 Y128.37 E11.98744
G1 X57.119 Y128.369 E11.99287
G1 X56.421 Y128.36 E12.03588
G1 X55.684 Y128.311 E12.08139
G1 X54.957 Y128.182 E12.12688
G1 X54.248 Y127.975 E12.17239
G1 X53.566 Y127.693 E12.21786
G1 X52.918 Y127.339 E12.26335
G1 X52.312 Y126.917 E12.30885
G1 X51.756 Y126.432 E12.35431
G1 X51.255 Y125.889 E12.39984
G1 X50.816 Y125.296 E12.4453
G1 X50.443 Y124.658 E12.49083
G1 X50.142 Y123.984 E12.53631
G1 X49.915 Y123.282 E12.58177
G1 X49.765 Y122.558 E12.62733
G1 X49.691 Y121.725 E12.67885
G1 X49.682 Y121.392 E12.69938
G1 X49.68 Y121.208 E12.71072
G1 X49.68 Y89.157 E14.68552
G1 X49.681 Y89.059 E14.69156
G1 X49.691 Y88.361 E14.73457
G1 X49.741 Y87.625 E14.78002
G1 X49.871 Y86.898 E14.82553
G1 X50.079 Y86.189 E14.87105
G1 X50.362 Y85.507 E14.91655
G1 X50.717 Y84.86 E14.96202
G1 X51.082 Y84.33 E15.00167
G1 X52.885 Y81.96 E15.18515
G1 X54.41 Y79.832 E15.34646
G1 X55.885 Y77.645 E15.50899
G1 X57.309 Y75.401 E15.67274
G1 X58.656 Y73.139 E15.83495
G1 X59.927 Y70.858 E15.99584
G1 X61.16 Y68.492 E16.16023
G1 X62.289 Y66.168 E16.31942
G1 X63.39 Y63.728 E16.48436
G1 X64.42 Y61.266 E16.64879
G1 X65.354 Y58.832 E16.80943
G1 X66.224 Y56.366 E16.97054
G1 X66.965 Y54.063 E17.11961
G1 X67.048 Y53.821 E17.13537
G1 X67.092 Y53.7 E17.1433
G1 X67.381 Y53.021 E17.18877
G1 X67.742 Y52.377 E17.23426
G1 X68.171 Y51.776 E17.27976
G0 F4800 X68.63 Y52.036
G1 F1200 X69.11 Y51.514 E17.32345
G1 X69.646 Y51.048 E17.36721
G1 X70.231 Y50.646 E17.41095
G1 X70.857 Y50.313 E17.45463
G1 X71.517 Y50.052 E17.49836
G1 X72.202 Y49.866 E17.5421
G1 X72.903 Y49.759 E17.58579
G1 X73.323 Y49.734 E17.61171
G1 X73.642 Y49.725 E17.63138
G1 X73.82 Y49.722 E17.64235
G1 X110.692 Y49.722 E19.91419
G1 X110.784 Y49.723 E19.91986
G1 X111.466 Y49.733 E19.96189
G1 X111.702 Y49.741 E19.97644
G1 X112.009 Y49.757 E19.99538
G1 X112.714 Y49.833 E20.03907
G1 X113.407 Y49.989 E20.08283
G1 X114.077 Y50.221 E20.12652
G1 X114.717 Y50.528 E20.17026
G1 X115.319 Y50.904 E20.21399
G1 X115.874 Y51.346 E20.2577
G1 X116.376 Y51.848 E20.30145
G1 X116.819 Y52.402 E20.34515
G1 X117.196 Y53.003 E20.38886
G1 X117.504 Y53.643 E20.43263
G1 X117.737 Y54.313 E20.47633
G1 X117.941 Y55.342 E20.54097
G1 X118.085 Y56.619 E20.62015
G1 X118.431 Y59.338 E20.78903
G1 X118.841 Y61.967 E20.95297
G1 X119.323 Y64.576 E21.11644
G1 X119.864 Y67.095 E21.27519
G1 X120.508 Y69.734 E21.44256
G1 X121.206 Y72.278 E21.6051
G1 X121.982 Y74.82 E21.76886
G1 X122.832 Y77.345 E21.93301
G1 X123.733 Y79.793 E22.09374
G1 X124.736 Y82.298 E22.26
G1 X125.774 Y84.691 E22.42071
G1 X126.914 Y87.127 E22.58643
G1 X128.17 Y89.619 E22.75837
G1 X128.659 Y90.554 E22.82338
G1 X128.952 Y91.201 E22.86714
G1 X129.17 Y91.876 E22.91085
G1 X129.311 Y92.571 E22.95454
G1 X129.362 Y93.05 E22.98422
G1 X129.386 Y93.406 E23.00621
G1 X129.4 Y93.83 E23.03235
G1 X129.4 Y98.043 E23.29193
G1 X129.399 Y98.132 E23.29741
G1 X129.389 Y98.837 E23.34085
G1 X129.384 Y99.012 E23.35164
G1 X129.349 Y99.847 E23.40314
G1 X129.345 Y99.939 E23.40881
G1 X129.281 Y101.071 E23.47867
G1 X129.206 Y103.748 E23.64367
G1 X129.208 Y106.398 E23.80695
G1 X129.283 Y109.01 E23.96796
G1 X129.382 Y110.924 E24.08604
G1 X129.387 Y111.059 E24.09437
G1 X129.397 Y111.389 E24.11471
G1 X129.4 Y111.58 E24.12648
G1 X129.4 Y115.764 E24.38427
G1 X129.399 Y115.851 E24.38963
G1 X129.389 Y116.578 E24.43443
G1 X129.34 Y117.286 E24.47816
G1 X129.211 Y117.983 E24.52183
G1 X129.004 Y118.662 E24.56557
G1 X128.722 Y119.314 E24.60934
G1 X128.369 Y119.929 E24.65303
G1 X127.949 Y120.501 E24.69676
G1 X127.467 Y121.022 E24.74049
G1 X126.93 Y121.486 E24.78421
G1 X126.047 Y122.054 E24.8489
G1 X125.176 Y122.517 E24.90968
G1 X125.138 Y122.537 E24.91233
G1 X124.023 Y123.12 E24.98985
G1 X123.377 Y123.413 E25.03356
G1 X122.702 Y123.631 E25.07726
G1 X122.006 Y123.772 E25.12102
G1 X121.349 Y123.832 E25.16167
G1 X121.015 Y123.845 E25.18226
G1 X120.77 Y123.85 E25.19736
G1 X113.616 Y123.85 E25.63815
G1 X110.949 Y123.888 E25.80249
G1 X108.306 Y124 E25.96548
G1 X105.653 Y124.188 E26.12936
G1 X103.03 Y124.448 E26.29176
G1 X100.388 Y124.786 E26.45588
G1 X97.572 Y125.23 E26.63153
G1 X97.402 Y125.255 E26.64211
G1 X96.686 Y125.348 E26.6866
G1 X96.504 Y125.369 E26.69789
G1 X94.803 Y125.54 E26.80322
G1 X92.225 Y125.871 E26.96337
G1 X89.603 Y126.285 E27.12692
G1 X86.989 Y126.774 E27.29078
G1 X84.328 Y127.35 E27.45853
G1 X82.947 Y127.672 E27.5459
G1 X82.248 Y127.794 E27.58962
G1 X81.752 Y127.833 E27.62028
G1 X81.407 Y127.846 E27.64155
G1 X81.17 Y127.85 E27.65615
G1 X57.207 Y127.85 E29.13262
G1 X57.126 Y127.849 E29.13761
G1 X56.428 Y127.84 E29.18062
G1 X55.72 Y127.791 E29.22435
G1 X55.022 Y127.663 E29.26807
G1 X54.343 Y127.457 E29.31179
G1 X53.691 Y127.176 E29.35553
G1 X53.075 Y126.823 E29.39928
G1 X52.503 Y126.403 E29.443
G1 X51.982 Y125.922 E29.48669
G1 X51.518 Y125.385 E29.53042
G1 X51.117 Y124.799 E29.57417
G1 X50.785 Y124.172 E29.61788
G1 X50.525 Y123.512 E29.66159
G1 X50.342 Y122.826 E29.70534
G1 X50.236 Y122.125 E29.74902
G1 X50.211 Y121.711 E29.77457
G1 X50.202 Y121.378 E29.7951
G1 X50.2 Y121.208 E29.80557
G1 X50.2 Y89.157 E31.78038
G1 X50.201 Y89.067 E31.78592
G1 X50.211 Y88.369 E31.82893
G1 X50.261 Y87.661 E31.87267
G1 X50.39 Y86.963 E31.9164
G1 X50.597 Y86.284 E31.96014
G1 X50.879 Y85.633 E32.00385
G1 X51.233 Y85.018 E32.04757
G1 X51.495 Y84.645 E32.07566
G1 X53.322 Y82.243 E32.2616
G1 X54.831 Y80.138 E32.42118
G1 X56.323 Y77.926 E32.58558
G1 X57.752 Y75.673 E32.74997
G1 X59.099 Y73.411 E32.91218
G1 X60.384 Y71.105 E33.07483
G1 X61.616 Y68.741 E33.23908
G1 X62.772 Y66.362 E33.40205
G1 X63.871 Y63.925 E33.56677
G1 X64.89 Y61.489 E33.72946
G1 X65.844 Y59.004 E33.89347
G1 X66.723 Y56.513 E34.05623
G1 X67.46 Y54.223 E34.20445
G1 X67.536 Y53.999 E34.21902
G1 X67.58 Y53.878 E34.22696
G1 X67.86 Y53.226 E34.27068
G1 X68.211 Y52.609 E34.31441
G1 X68.63 Y52.036 E34.35815
G0 F4800 X69.087 Y52.3
G1 F1200 X69.555 Y51.807 E34.40003
G1 X70.078 Y51.373 E34.44191
G1 X70.649 Y51.004 E34.4838
G1 X71.259 Y50.704 E34.52568
G1 X71.9 Y50.477 E34.56758
G1 X72.563 Y50.328 E34.60945
G1 X73.338 Y50.253 E34.65742
G1 X73.657 Y50.244 E34.67709
G1 X73.82 Y50.242 E34.68713
G1 X110.692 Y50.242 E36.95898
G1 X110.777 Y50.243 E36.96421
G1 X111.459 Y50.253 E37.00624
G1 X111.675 Y50.26 E37.01956
G1 X111.982 Y50.276 E37.0385
G1 X112.657 Y50.351 E37.08034
G1 X113.319 Y50.505 E37.12222
G1 X113.959 Y50.736 E37.16414
G1 X114.567 Y51.04 E37.20603
G1 X115.135 Y51.413 E37.2479
G1 X115.655 Y51.851 E37.28979
G1 X116.12 Y52.346 E37.33163
G1 X116.524 Y52.893 E37.37353
G1 X116.861 Y53.483 E37.4154
G1 X117.126 Y54.109 E37.45728
G1 X117.316 Y54.762 E37.49918
G1 X117.425 Y55.4 E37.53906
G1 X117.576 Y56.736 E37.6219
G1 X117.917 Y59.415 E37.7883
G1 X118.326 Y62.039 E37.95193
G1 X118.812 Y64.671 E38.11684
G1 X119.367 Y67.252 E38.2795
G1 X120.001 Y69.852 E38.44439
G1 X120.709 Y72.434 E38.60935
G1 X121.481 Y74.963 E38.77227
G1 X122.34 Y77.515 E38.93818
G1 X123.252 Y79.992 E39.10082
G1 X124.248 Y82.482 E39.26606
G1 X125.298 Y84.901 E39.42854
G1 X126.444 Y87.348 E39.59502
G1 X127.709 Y89.86 E39.76831
G1 X128.198 Y90.795 E39.83333
G1 X128.477 Y91.415 E39.87522
G1 X128.681 Y92.063 E39.91708
G1 X128.808 Y92.731 E39.95897
G1 X128.843 Y93.085 E39.98089
G1 X128.867 Y93.441 E40.00287
G1 X128.88 Y93.83 E40.02686
G1 X128.88 Y98.043 E40.28644
G1 X128.879 Y98.125 E40.29149
G1 X128.869 Y98.83 E40.33493
G1 X128.865 Y98.99 E40.34479
G1 X128.83 Y99.825 E40.39629
G1 X128.826 Y99.91 E40.40153
G1 X128.761 Y101.064 E40.47275
G1 X128.686 Y103.733 E40.63726
G1 X128.688 Y106.376 E40.80011
G1 X128.766 Y109.096 E40.96777
G1 X128.862 Y110.951 E41.08221
G1 X128.867 Y111.075 E41.08986
G1 X128.877 Y111.405 E41.1102
G1 X128.88 Y111.58 E41.12099
G1 X128.88 Y115.764 E41.37878
G1 X128.879 Y115.843 E41.38365
G1 X128.869 Y116.57 E41.42845
G1 X128.82 Y117.248 E41.47033
G1 X128.692 Y117.916 E41.51224
G1 X128.486 Y118.564 E41.55413
G1 X128.205 Y119.183 E41.59602
G1 X127.854 Y119.765 E41.63789
G1 X127.436 Y120.301 E41.67977
G1 X126.959 Y120.785 E41.72164
G1 X126.428 Y121.21 E41.76355
G1 X125.803 Y121.595 E41.80878
G1 X124.932 Y122.058 E41.86956
G1 X124.897 Y122.076 E41.87198
G1 X123.782 Y122.659 E41.94951
G1 X123.162 Y122.938 E41.9914
G1 X122.514 Y123.142 E42.03325
G1 X121.846 Y123.269 E42.07515
G1 X121.329 Y123.313 E42.10712
G1 X120.995 Y123.326 E42.12771
G1 X120.77 Y123.33 E42.14158
G1 X113.609 Y123.33 E42.5828
G1 X110.955 Y123.368 E42.74634
G1 X108.281 Y123.481 E42.91125
G1 X105.602 Y123.671 E43.07673
G1 X102.947 Y123.934 E43.24111
G1 X100.344 Y124.267 E43.4028
G1 X97.491 Y124.717 E43.58076
G1 X97.336 Y124.739 E43.59041
G1 X96.62 Y124.832 E43.63489
G1 X96.452 Y124.851 E43.64531
G1 X94.793 Y125.017 E43.74804
G1 X92.112 Y125.362 E43.91459
G1 X89.501 Y125.775 E44.07747
G1 X86.886 Y126.264 E44.24138
G1 X84.29 Y126.825 E44.40502
G1 X82.829 Y127.166 E44.49746
G1 X82.159 Y127.281 E44.53935
G1 X81.733 Y127.313 E44.56567
G1 X81.388 Y127.326 E44.58694
G1 X81.17 Y127.33 E44.60037
G1 X57.132 Y127.33 E46.08146
G1 X56.434 Y127.321 E46.12447
G1 X55.757 Y127.272 E46.16629
G1 X55.089 Y127.144 E46.2082
G1 X54.441 Y126.938 E46.2501
G1 X53.822 Y126.658 E46.29196
G1 X53.24 Y126.307 E46.33383
G1 X52.703 Y125.891 E46.37569
G1 X52.218 Y125.414 E46.4176
G1 X51.793 Y124.883 E46.45951
G1 X51.434 Y124.307 E46.50132
G1 X51.144 Y123.692 E46.54322
G1 X50.929 Y123.047 E46.58511
G1 X50.79 Y122.382 E46.62697
G1 X50.731 Y121.697 E46.66933
G1 X50.722 Y121.364 E46.68986
G1 X50.72 Y121.208 E46.69947
G1 X50.72 Y89.157 E48.67427
G1 X50.721 Y89.074 E48.67939
G1 X50.731 Y88.376 E48.7224
G1 X50.78 Y87.698 E48.76428
G1 X50.909 Y87.031 E48.80614
G1 X51.116 Y86.383 E48.84805
G1 X51.397 Y85.764 E48.88994
G1 X51.909 Y84.96 E48.94867
G1 X53.726 Y82.571 E49.1336
G1 X55.257 Y80.435 E49.29553
G1 X56.771 Y78.191 E49.46231
G1 X58.196 Y75.945 E49.6262
G1 X59.542 Y73.684 E49.78833
G1 X60.85 Y71.338 E49.95383
G1 X62.08 Y68.976 E50.11791
G1 X63.242 Y66.585 E50.28171
G1 X64.353 Y64.122 E50.44819
G1 X65.378 Y61.672 E50.61182
G1 X66.319 Y59.222 E50.77353
G1 X67.219 Y56.67 E50.94026
G1 X67.955 Y54.382 E51.08835
G1 X68.025 Y54.177 E51.10169
G1 X68.069 Y54.056 E51.10963
G1 X68.338 Y53.432 E51.15149
G1 X68.679 Y52.844 E51.19338
G1 X69.087 Y52.3 E51.23527
G0 F4800 X69.542 Y52.567
G1 F1200 X69.999 Y52.107 E51.27523
G1 X70.508 Y51.706 E51.31515
G1 X71.063 Y51.37 E51.35512
G1 X71.655 Y51.106 E51.39506
G1 X72.275 Y50.916 E51.43502
G1 X72.914 Y50.804 E51.47499
G1 X73.353 Y50.773 E51.50211
G1 X73.672 Y50.764 E51.52177
G1 X73.82 Y50.762 E51.53089
G1 X110.692 Y50.762 E53.80273
G1 X110.769 Y50.763 E53.80748
G1 X111.451 Y50.773 E53.8495
G1 X111.648 Y50.779 E53.86165
G1 X111.955 Y50.795 E53.88059
G1 X112.599 Y50.869 E53.92053
G1 X113.229 Y51.021 E53.96046
G1 X113.836 Y51.25 E54.00043
G1 X114.41 Y51.551 E54.04037
G1 X114.942 Y51.921 E54.0803
G1 X115.425 Y52.354 E54.12026
G1 X115.851 Y52.843 E54.16022
G1 X116.214 Y53.38 E54.20016
G1 X116.508 Y53.958 E54.24011
G1 X116.728 Y54.568 E54.28007
G1 X116.908 Y55.459 E54.33608
G1 X117.058 Y56.786 E54.41836
G1 X117.401 Y59.488 E54.58618
G1 X117.815 Y62.14 E54.75156
G1 X118.296 Y64.739 E54.91441
G1 X118.862 Y67.376 E55.08059
G1 X119.497 Y69.979 E55.24568
G1 X120.208 Y72.571 E55.41128
G1 X120.995 Y75.148 E55.5773
G1 X121.845 Y77.675 E55.74157
G1 X122.77 Y80.189 E55.90662
G1 X123.766 Y82.677 E56.07175
G1 X124.828 Y85.124 E56.2361
G1 X125.967 Y87.556 E56.40157
G1 X127.268 Y90.139 E56.57977
G1 X127.737 Y91.036 E56.64213
G1 X128.002 Y91.628 E56.6821
G1 X128.191 Y92.248 E56.72203
G1 X128.324 Y93.12 E56.77638
G1 X128.348 Y93.476 E56.79837
G1 X128.36 Y93.83 E56.82019
G1 X128.36 Y98.043 E57.07977
G1 X128.359 Y98.118 E57.0844
G1 X128.349 Y98.823 E57.12784
G1 X128.345 Y98.968 E57.13678
G1 X128.31 Y99.803 E57.18827
G1 X128.307 Y99.88 E57.19302
