;FLAVOR:Marlin
;TIME:8544
;Filament used: 8.65243m
;Layer height: 0.2
;MINX:75.8
;MINY:117.219
;MINZ:0.2
;MAXX:134.2
;MAXY:175.119
;MAXZ:79.2
;Generated with Cura_SteamEngine 4.4.1
M140 S60
M105
M190 S60
M104 S200
M105
M109 S200
M82 ;absolute extrusion mode
G21 ;metric values
G90 ;absolute positioning
M82 ;set extruder to absolute mode
M107 ;start with the fan off
G28 X0 Y0 ;move X/Y to min endstops
G28 Z0 ;move Z to min endstops
G1 Z15.0 F100 ;move the platform down 15mm
G92 E0 ;zero the extruded length
G1 F200 E3 ;extrude 3mm of feed stock
G92 E0 ;zero the extruded length again
G1 F100
G0 Y20 F100
M117 Printing...
G5
G92 E0
G92 E0
G1 F2400 E-6
;LAYER_COUNT:396
;LAYER:0
M106 S255
M204 S3000
M205 X10 Y10
G1 F600 Z0.275
G0 F3000 X77.631 Y118.069 Z0.275
M204 S1800
M205 X8 Y8
;TYPE:SKIRT
G1 F600 Z0.2
G1 F2400 E0
G1 X78.116 Y117.752 E0.02698
G1 X78.64 Y117.505 E0.05395
G1 X79.193 Y117.333 E0.08092
G1 X79.765 Y117.238 E0.10792
G1 X80.164 Y117.219 E0.12652
G1 X129.836 Y117.219 E2.43946
G1 X130.414 Y117.259 E2.46644
G1 X130.981 Y117.378 E2.49341
G1 X131.526 Y117.574 E2.52038
G1 X132.039 Y117.843 E2.54735
G1 X132.51 Y118.18 E2.57432
G1 X132.93 Y118.579 E2.6013
G1 X133.292 Y119.032 E2.6283
G1 X133.587 Y119.53 E2.65525
G1 X133.812 Y120.064 E2.68223
G1 X133.96 Y120.624 E2.7092
G1 X134.036 Y121.405 E2.74574
G1 X134.2 Y170.741 E5.04305
G1 X134.162 Y171.319 E5.07002
G1 X134.045 Y171.886 E5.09698
G1 X133.851 Y172.432 E5.12396
G1 X133.583 Y172.946 E5.15095
G1 X133.248 Y173.418 E5.1779
G1 X132.97 Y173.725 E5.19719
G1 X132.806 Y173.889 E5.20799
G1 X132.369 Y174.269 E5.23495
G1 X131.884 Y174.586 E5.26193
G1 X131.36 Y174.833 E5.28891
G1 X130.807 Y175.005 E5.31587
G1 X130.235 Y175.1 E5.34287
G1 X129.836 Y175.119 E5.36147
G1 X80.164 Y175.119 E7.67441
G1 X79.586 Y175.079 E7.70139
G1 X79.019 Y174.96 E7.72836
G1 X78.474 Y174.764 E7.75533
G1 X77.961 Y174.495 E7.7823
G1 X77.49 Y174.158 E7.80927
G1 X77.194 Y173.889 E7.8279
G1 X77.03 Y173.725 E7.8387
G1 X76.65 Y173.288 E7.86566
G1 X76.333 Y172.803 E7.89264
G1 X76.086 Y172.279 E7.91962
G1 X75.914 Y171.726 E7.94658
G1 X75.819 Y171.154 E7.97358
G1 X75.8 Y170.755 E7.99218
G1 X75.8 Y121.583 E10.28184
G1 X75.84 Y121.005 E10.30882
G1 X75.959 Y120.438 E10.33579
G1 X76.155 Y119.893 E10.36276
G1 X76.424 Y119.38 E10.38973
G1 X76.761 Y118.909 E10.4167
G1 X77.03 Y118.613 E10.43533
G1 X77.194 Y118.449 E10.44612
G1 X77.631 Y118.069 E10.47309
M204 S3000
M205 X10 Y10
G0 F3000 X77.999 Y118.493
M204 S1800
M205 X8 Y8
G1 F2400 X78.455 Y118.205 E10.4982
G1 X78.948 Y117.988 E10.52329
G1 X79.468 Y117.846 E10.54839
G1 X80.164 Y117.779 E10.58094
G1 X129.836 Y117.779 E12.89388
G1 X130.374 Y117.819 E12.919
G1 X130.9 Y117.938 E12.94411
G1 X131.402 Y118.133 E12.96919
G1 X131.871 Y118.401 E12.99434
G1 X132.294 Y118.734 E13.01941
G1 X132.664 Y119.127 E13.04454
G1 X132.971 Y119.57 E13.06964
G1 X133.21 Y120.054 E13.09478
G1 X133.375 Y120.567 E13.11987
G1 X133.462 Y121.099 E13.14497
G1 X133.476 Y121.407 E13.15933
G1 X133.64 Y170.743 E15.45663
G1 X133.602 Y171.281 E15.48174
G1 X133.485 Y171.807 E15.50684
G1 X133.291 Y172.31 E15.53194
G1 X133.025 Y172.78 E15.55709
G1 X132.574 Y173.329 E15.59017
G1 X132.41 Y173.493 E15.60097
G1 X132.001 Y173.845 E15.6261
G1 X131.545 Y174.133 E15.65121
G1 X131.052 Y174.35 E15.67629
G1 X130.532 Y174.492 E15.70139
G1 X129.836 Y174.559 E15.73395
G1 X80.164 Y174.559 E18.04689
G1 X79.626 Y174.519 E18.07201
G1 X79.1 Y174.4 E18.09712
G1 X78.598 Y174.205 E18.1222
G1 X78.129 Y173.937 E18.14735
G1 X77.59 Y173.493 E18.17986
G1 X77.426 Y173.329 E18.19066
G1 X77.074 Y172.92 E18.21579
G1 X76.786 Y172.464 E18.2409
G1 X76.569 Y171.971 E18.26599
G1 X76.427 Y171.451 E18.29109
G1 X76.36 Y170.755 E18.32364
G1 X76.36 Y121.583 E20.6133
G1 X76.4 Y121.045 E20.63842
G1 X76.519 Y120.519 E20.66353
G1 X76.714 Y120.017 E20.68861
G1 X76.982 Y119.548 E20.71376
G1 X77.426 Y119.009 E20.74628
G1 X77.59 Y118.845 E20.75708
G1 X77.999 Y118.493 E20.7822
M204 S3000
M205 X10 Y10
G0 F3000 X78.364 Y118.92
M204 S1800
M205 X8 Y8
G1 F2400 X78.788 Y118.663 E20.80529
G1 X79.249 Y118.478 E20.82842
G1 X79.732 Y118.369 E20.85148
G1 X80.164 Y118.339 E20.87164
G1 X129.836 Y118.339 E23.18458
G1 X130.33 Y118.379 E23.20766
G1 X130.812 Y118.498 E23.23077
G1 X131.268 Y118.692 E23.25385
G1 X131.687 Y118.957 E23.27693
G1 X132.058 Y119.287 E23.30005
G1 X132.372 Y119.671 E23.32315
G1 X132.62 Y120.101 E23.34627
G1 X132.795 Y120.564 E23.36931
G1 X132.894 Y121.051 E23.39245
G1 X132.916 Y121.409 E23.40916
G1 X133.08 Y170.745 E25.70646
G1 X133.042 Y171.239 E25.72953
G1 X132.925 Y171.721 E25.75263
G1 X132.732 Y172.178 E25.77573
G1 X132.468 Y172.598 E25.79882
G1 X132.178 Y172.933 E25.81946
G1 X132.014 Y173.097 E25.83026
G1 X131.636 Y173.418 E25.85335
G1 X131.212 Y173.675 E25.87643
G1 X130.751 Y173.86 E25.89957
G1 X130.268 Y173.969 E25.92262
G1 X129.836 Y173.999 E25.94279
G1 X80.164 Y173.999 E28.25572
G1 X79.67 Y173.959 E28.2788
G1 X79.188 Y173.84 E28.30192
G1 X78.732 Y173.646 E28.32499
G1 X78.313 Y173.381 E28.34808
G1 X77.986 Y173.097 E28.36825
G1 X77.822 Y172.933 E28.37904
G1 X77.501 Y172.555 E28.40214
G1 X77.244 Y172.131 E28.42522
G1 X77.059 Y171.67 E28.44835
G1 X76.95 Y171.187 E28.47141
G1 X76.92 Y170.755 E28.49157
G1 X76.92 Y121.583 E30.78123
G1 X76.96 Y121.089 E30.80431
G1 X77.079 Y120.607 E30.82742
G1 X77.273 Y120.151 E30.8505
G1 X77.538 Y119.732 E30.87358
G1 X77.822 Y119.405 E30.89375
G1 X77.986 Y119.241 E30.90455
G1 X78.364 Y118.92 E30.92764
M204 S3000
M205 X10 Y10
G0 F3000 X78.726 Y119.349
M204 S1800
M205 X8 Y8
G1 F2400 X79.116 Y119.127 E30.94854
G1 X79.539 Y118.978 E30.96942
G1 X80.164 Y118.899 E30.99876
G1 X129.836 Y118.899 E33.31169
G1 X130.283 Y118.939 E33.33259
G1 X130.715 Y119.057 E33.35344
G1 X131.12 Y119.251 E33.37435
G1 X131.484 Y119.513 E33.39524
G1 X131.796 Y119.835 E33.41611
G1 X132.046 Y120.208 E33.43702
G1 X132.226 Y120.619 E33.45791
G1 X132.33 Y121.055 E33.47879
G1 X132.356 Y121.411 E33.49541
G1 X132.52 Y170.747 E35.79271
G1 X132.482 Y171.194 E35.8136
G1 X132.364 Y171.627 E35.8345
G1 X132.173 Y172.032 E35.85535
G1 X131.782 Y172.537 E35.88509
G1 X131.618 Y172.701 E35.89589
G1 X131.274 Y172.989 E35.91678
G1 X130.884 Y173.211 E35.93767
G1 X130.461 Y173.36 E35.95856
G1 X129.836 Y173.439 E35.98789
G1 X80.164 Y173.439 E38.30083
G1 X79.717 Y173.399 E38.32172
G1 X79.285 Y173.281 E38.34258
G1 X78.88 Y173.087 E38.36349
G1 X78.382 Y172.701 E38.39283
G1 X78.218 Y172.537 E38.40363
G1 X77.93 Y172.193 E38.42452
G1 X77.708 Y171.803 E38.44541
G1 X77.559 Y171.38 E38.4663
G1 X77.48 Y170.755 E38.49563
G1 X77.48 Y121.583 E40.78528
G1 X77.52 Y121.136 E40.80618
G1 X77.638 Y120.704 E40.82703
G1 X77.832 Y120.299 E40.84795
G1 X78.218 Y119.801 E40.87728
G1 X78.382 Y119.637 E40.88808
G1 X78.726 Y119.349 E40.90897
M204 S3000
M205 X10 Y10
G0 F3000 X79.084 Y119.783
M204 S1800
M205 X8 Y8
G1 F2400 X79.435 Y119.6 E40.92741
G1 X79.815 Y119.49 E40.94583
G1 X80.164 Y119.459 E40.96214
G1 X129.836 Y119.459 E43.27508
G1 X130.229 Y119.499 E43.29347
G1 X130.607 Y119.617 E43.31191
G1 X130.953 Y119.808 E43.33032
G1 X131.254 Y120.065 E43.34874
G1 X131.496 Y120.378 E43.36717
G1 X131.672 Y120.732 E43.38558
G1 X131.772 Y121.115 E43.40401
G1 X131.796 Y121.412 E43.41788
G1 X131.96 Y170.748 E45.71519
G1 X131.921 Y171.142 E45.73362
G1 X131.805 Y171.52 E45.75203
G1 X131.614 Y171.867 E45.77048
G1 X131.386 Y172.141 E45.78708
G1 X131.222 Y172.305 E45.79788
G1 X130.916 Y172.555 E45.81627
G1 X130.565 Y172.738 E45.83471
G1 X130.185 Y172.848 E45.85313
G1 X129.836 Y172.879 E45.86944
G1 X80.164 Y172.879 E48.18238
G1 X79.771 Y172.839 E48.20077
G1 X79.393 Y172.721 E48.21921
G1 X79.047 Y172.53 E48.23761
G1 X78.778 Y172.305 E48.25394
G1 X78.614 Y172.141 E48.26474
G1 X78.364 Y171.835 E48.28314
G1 X78.181 Y171.484 E48.30158
G1 X78.071 Y171.104 E48.32
G1 X78.04 Y170.755 E48.33631
G1 X78.04 Y121.583 E50.62597
G1 X78.08 Y121.19 E50.64436
G1 X78.198 Y120.812 E50.6628
G1 X78.389 Y120.466 E50.6812
G1 X78.614 Y120.197 E50.69753
G1 X78.778 Y120.033 E50.70833
G1 X79.084 Y119.783 E50.72673
M204 S3000
M205 X10 Y10
G0 F3000 X79.437 Y120.223
M204 S1800
M205 X8 Y8
G1 F2400 X79.741 Y120.084 E50.7423
G1 X80.164 Y120.019 E50.76222
G1 X129.836 Y120.019 E53.07516
G1 X130.168 Y120.059 E53.09073
G1 X130.48 Y120.176 E53.10625
G1 X130.757 Y120.364 E53.12184
G1 X130.98 Y120.612 E53.13737
G1 X131.139 Y120.906 E53.15293
G1 X131.223 Y121.23 E53.16851
G1 X131.236 Y121.414 E53.1771
G1 X131.4 Y170.75 E55.47441
G1 X131.361 Y171.082 E55.48997
G1 X131.245 Y171.395 E55.50552
G1 X130.99 Y171.745 E55.52568
G1 X130.826 Y171.909 E55.53648
G1 X130.563 Y172.115 E55.55204
G1 X130.259 Y172.254 E55.5676
G1 X129.836 Y172.319 E55.58753
G1 X80.164 Y172.319 E57.90047
G1 X79.832 Y172.279 E57.91604
G1 X79.52 Y172.162 E57.93155
G1 X79.174 Y171.909 E57.95151
G1 X79.01 Y171.745 E57.96231
G1 X78.804 Y171.482 E57.97787
G1 X78.665 Y171.178 E57.99343
G1 X78.6 Y170.755 E58.01336
G1 X78.6 Y121.583 E60.30301
G1 X78.64 Y121.251 E60.31859
G1 X78.757 Y120.939 E60.3341
G1 X79.01 Y120.593 E60.35406
G1 X79.174 Y120.429 E60.36486
G1 X79.437 Y120.223 E60.38042
M204 S3000
M205 X10 Y10
G0 F3000 X79.57 Y120.825
M204 S1800
M205 X8 Y8
G1 F2400 X79.779 Y120.673 E60.39245
G1 X80.024 Y120.591 E60.40448
G1 X80.164 Y120.579 E60.41102
G1 X129.836 Y120.579 E62.72396
G1 X130.091 Y120.619 E62.73598
G1 X130.323 Y120.734 E62.74803
G1 X130.508 Y120.915 E62.76009
G1 X130.629 Y121.143 E62.77211
G1 X130.676 Y121.416 E62.785
G1 X130.84 Y170.752 E65.08231
G1 X130.801 Y171.008 E65.09437
G1 X130.686 Y171.239 E65.10638
G1 X130.594 Y171.349 E65.11306
G1 X130.43 Y171.513 E65.12386
G1 X130.221 Y171.665 E65.13589
G1 X129.976 Y171.747 E65.14792
G1 X129.836 Y171.759 E65.15447
G1 X80.164 Y171.759 E67.4674
G1 X79.909 Y171.719 E67.47942
G1 X79.677 Y171.604 E67.49148
G1 X79.57 Y171.513 E67.49802
G1 X79.406 Y171.349 E67.50882
G1 X79.254 Y171.14 E67.52085
G1 X79.172 Y170.895 E67.53288
G1 X79.16 Y170.755 E67.53942
G1 X79.16 Y121.583 E69.82908
G1 X79.2 Y121.328 E69.8411
G1 X79.315 Y121.096 E69.85316
G1 X79.406 Y120.989 E69.8597
G1 X79.57 Y120.825 E69.8705
M204 S3000
M205 X10 Y10
G0 F3000 X79.966 Y121.221
M204 S1800
M205 X8 Y8
G1 F2400 X80.164 Y121.139 E69.88047
G1 X129.836 Y121.139 E72.19341
G1 X129.979 Y121.178 E72.20031
G1 X130.082 Y121.285 E72.20723
G1 X130.116 Y121.418 E72.21362
G1 X130.28 Y170.754 E74.51092
G1 X130.198 Y170.953 E74.52095
G1 X130.034 Y171.117 E74.53175
G1 X129.836 Y171.199 E74.54173
G1 X80.164 Y171.199 E76.85466
G1 X79.966 Y171.117 E76.86464
G1 X79.802 Y170.953 E76.87544
G1 X79.72 Y170.755 E76.88542
G1 X79.72 Y121.583 E79.17507
G1 X79.802 Y121.385 E79.18505
G1 X79.966 Y121.221 E79.19585
M204 S3000
M205 X10 Y10
G1 F2400 E73.19585
;MESH:Xbox_Cover_Back.STL
G0 F3000 X80.854 Y122.273
G0 X80.91 Y170.009
G0 X80.28 Y170.639
M204 S1800
M205 X8 Y8
;TYPE:WALL-OUTER
G1 F2400 E79.19585
G1 F1500 X80.28 Y121.699 E81.4747
G1 X129.72 Y121.699 E83.77684
G1 X129.72 Y170.639 E86.05569
G1 X80.28 Y170.639 E88.35782
M204 S3000
M205 X10 Y10
G0 F3000 X80.28 Y170.439
G0 X80.84 Y170.079
M204 S1800
M205 X8 Y8
;TYPE:WALL-INNER
G1 F1500 X80.84 Y122.259 E90.58452
G1 X129.16 Y122.259 E92.8345
G1 X129.16 Y170.079 E95.0612
G1 X80.84 Y170.079 E97.31118
M204 S3000
M205 X10 Y10
G0 F3000 X81.4 Y169.519
M204 S1800
M205 X8 Y8
G1 F1500 X81.4 Y122.819 E99.48573
G1 X128.6 Y122.819 E101.68356
G1 X128.6 Y169.519 E103.85811
G1 X81.4 Y169.519 E106.05594
M204 S3000
M205 X10 Y10
G0 F3000 X81.95 Y168.969
M204 S1800
M205 X8 Y8
;TYPE:SKIN
G1 F1500 X81.95 Y123.369 E108.17927
G1 X128.05 Y123.369 E110.32588
G1 X128.05 Y168.969 E112.4492
G1 X81.95 Y168.969 E114.59581
M204 S3000
M205 X10 Y10
G0 F3000 X82.385 Y168.708
M204 S1800
M205 X8 Y8
G1 F1500 X82.209 Y168.533 E114.60737
M204 S3000
M205 X10 Y10
G0 F3000 X82.209 Y167.741
M204 S1800
M205 X8 Y8
G1 F1500 X83.176 Y168.708 E114.67105
M204 S3000
M205 X10 Y10
G0 F3000 X83.968 Y168.708
M204 S1800
M205 X8 Y8
G1 F1500 X82.209 Y166.949 E114.78688
M204 S3000
M205 X10 Y10
G0 F3000 X82.209 Y166.157
M204 S1800
M205 X8 Y8
G1 F1500 X84.76 Y168.708 E114.95487
M204 S3000
M205 X10 Y10
G0 F3000 X85.552 Y168.708
M204 S1800
M205 X8 Y8
G1 F1500 X82.209 Y165.365 E115.17501
M204 S3000
M205 X10 Y10
G0 F3000 X82.209 Y164.573
M204 S1800
M205 X8 Y8
G1 F1500 X86.344 Y168.708 E115.44731
M204 S3000
M205 X10 Y10
G0 F3000 X87.136 Y168.708
M204 S1800
M205 X8 Y8
G1 F1500 X82.209 Y163.781 E115.77176
M204 S3000
M205 X10 Y10
G0 F3000 X82.209 Y162.989
M204 S1800
M205 X8 Y8
G1 F1500 X87.928 Y168.708 E116.14836
M204 S3000
M205 X10 Y10
G0 F3000 X88.72 Y168.708
M204 S1800
M205 X8 Y8
G1 F1500 X82.209 Y162.197 E116.57713
M204 S3000
M205 X10 Y10
G0 F3000 X82.209 Y161.405
M204 S1800
M205 X8 Y8
G1 F1500 X89.512 Y168.708 E117.05804
M204 S3000
M205 X10 Y10
G0 F3000 X90.304 Y168.708
M204 S1800
M205 X8 Y8
G1 F1500 X82.209 Y160.613 E117.59111
M204 S3000
M205 X10 Y10
G0 F3000 X82.209 Y159.821
M204 S1800
M205 X8 Y8
G1 F1500 X91.096 Y168.708 E118.17633
M204 S3000
M205 X10 Y10
G0 F3000 X91.888 Y168.708
M204 S1800
M205 X8 Y8
G1 F1500 X82.209 Y159.029 E118.81371
M204 S3000
M205 X10 Y10
G0 F3000 X82.209 Y158.237
M204 S1800
M205 X8 Y8
G1 F1500 X92.68 Y168.708 E119.50325
M204 S3000
M205 X10 Y10
G0 F3000 X93.472 Y168.708
M204 S1800
M205 X8 Y8
G1 F1500 X82.209 Y157.445 E120.24493
M204 S3000
M205 X10 Y10
G0 F3000 X82.209 Y156.653
M204 S1800
M205 X8 Y8
G1 F1500 X94.264 Y168.708 E121.03878
M204 S3000
M205 X10 Y10
G0 F3000 X95.056 Y168.708
M204 S1800
M205 X8 Y8
G1 F1500 X82.209 Y155.861 E121.88477
M204 S3000
M205 X10 Y10
G0 F3000 X82.209 Y155.069
M204 S1800
M205 X8 Y8
G1 F1500 X95.848 Y168.708 E122.78292
M204 S3000
M205 X10 Y10
G0 F3000 X96.64 Y168.708
M204 S1800
M205 X8 Y8
G1 F1500 X82.209 Y154.277 E123.73323
M204 S3000
M205 X10 Y10
G0 F3000 X82.209 Y153.486
M204 S1800
M205 X8 Y8
G1 F1500 X97.432 Y168.708 E124.73566
M204 S3000
M205 X10 Y10
G0 F3000 X98.224 Y168.708
M204 S1800
M205 X8 Y8
G1 F1500 X82.209 Y152.694 E125.79024
M204 S3000
M205 X10 Y10
G0 F3000 X82.209 Y151.902
M204 S1800
M205 X8 Y8
G1 F1500 X99.016 Y168.708 E126.89698
M204 S3000
M205 X10 Y10
G0 F3000 X99.808 Y168.708
M204 S1800
M205 X8 Y8
G1 F1500 X82.209 Y151.11 E128.05587
M204 S3000
M205 X10 Y10
G0 F3000 X82.209 Y150.318
M204 S1800
M205 X8 Y8
G1 F1500 X100.6 Y168.708 E129.26691
M204 S3000
M205 X10 Y10
G0 F3000 X101.392 Y168.708
M204 S1800
M205 X8 Y8
G1 F1500 X82.209 Y149.526 E130.53011
M204 S3000
M205 X10 Y10
G0 F3000 X82.209 Y148.734
M204 S1800
M205 X8 Y8
G1 F1500 X102.184 Y168.708 E131.84547
M204 S3000
M205 X10 Y10
G0 F3000 X102.975 Y168.708
M204 S1800
M205 X8 Y8
G1 F1500 X82.209 Y147.942 E133.21295
M204 S3000
M205 X10 Y10
G0 F3000 X82.209 Y147.15
M204 S1800
M205 X8 Y8
G1 F1500 X103.767 Y168.708 E134.63258
M204 S3000
M205 X10 Y10
G0 F3000 X104.559 Y168.708
M204 S1800
M205 X8 Y8
G1 F1500 X82.209 Y146.358 E136.10436
M204 S3000
M205 X10 Y10
G0 F3000 X82.209 Y145.566
M204 S1800
M205 X8 Y8
G1 F1500 X105.351 Y168.708 E137.6283
M204 S3000
M205 X10 Y10
G0 F3000 X106.143 Y168.708
M204 S1800
M205 X8 Y8
G1 F1500 X82.209 Y144.774 E139.2044
M204 S3000
M205 X10 Y10
G0 F3000 X82.209 Y143.982
M204 S1800
M205 X8 Y8
G1 F1500 X106.935 Y168.708 E140.83265
M204 S3000
M205 X10 Y10
G0 F3000 X107.727 Y168.708
M204 S1800
M205 X8 Y8
G1 F1500 X82.209 Y143.19 E142.51305
M204 S3000
M205 X10 Y10
G0 F3000 X82.209 Y142.398
M204 S1800
M205 X8 Y8
G1 F1500 X108.519 Y168.708 E144.24561
M204 S3000
M205 X10 Y10
G0 F3000 X109.311 Y168.708
M204 S1800
M205 X8 Y8
G1 F1500 X82.209 Y141.606 E146.03032
M204 S3000
M205 X10 Y10
G0 F3000 X82.209 Y140.814
M204 S1800
M205 X8 Y8
