;FLAVOR:Marlin
;TIME:4426
;Filament used: 3.2658m
;Layer height: 0.2
;MINX:51.123
;MINY:69.309
;MINZ:0.2
;MAXX:150.376
;MAXY:136.192
;MAXZ:16.6
;Generated with Cura_SteamEngine 4.4.0
M140 S60
M105
M190 S60
M104 S200
M105
M109 S200
M82 ;absolute extrusion mode
G21 ;metric values
G90 ;absolute positioning
M82 ;set extruder to absolute mode
M107 ;start with the fan off
G28 X0 Y0 ;move X/Y to min endstops
G28 Z0 ;move Z to min endstops
G1 Z15.0 F100 ;move the platform down 15mm
G92 E0 ;zero the extruded length
G1 F200 E3 ;extrude 3mm of feed stock
G92 E0 ;zero the extruded length again
G1 F100
G0 Y20 F100
M117 Printing...
G5
G92 E0
G92 E0
G1 F2400 E-6
;LAYER_COUNT:83
;LAYER:0
M106 S255
M204 S3000
M205 X10 Y10
G1 F600 Z0.275
G0 F3000 X54.804 Y79.291 Z0.275
M204 S1800
M205 X8 Y8
;TYPE:SKIRT
G1 F600 Z0.2
G1 F2400 E0
G1 X55.606 Y78.879 E0.04198
G1 X56.885 Y78.332 E0.10676
G1 X56.964 Y78.299 E0.11074
G1 X58.255 Y77.767 E0.17576
G1 X58.93 Y77.532 E0.20904
G1 X59.297 Y77.438 E0.22668
G1 X59.843 Y77.316 E0.25274
G1 X60.025 Y77.278 E0.26139
G1 X60.351 Y77.215 E0.27685
G1 X60.913 Y77.132 E0.30331
G1 X61.362 Y77.086 E0.32432
G1 X62.076 Y77.053 E0.35761
G1 X62.877 Y77.111 E0.395
G1 X65.044 Y77.406 E0.49684
G1 X65.095 Y77.414 E0.49924
G1 X66.033 Y77.549 E0.54337
G1 X68.7 Y77.858 E0.66839
G1 X71.327 Y78.086 E0.79117
G1 X73.975 Y78.242 E0.91468
G1 X76.619 Y78.321 E1.03786
G1 X78.165 Y78.334 E1.10985
G1 X88.052 Y78.335 E1.57023
G1 X88.142 Y78.336 E1.57442
G1 X88.849 Y78.346 E1.60734
G1 X89.122 Y78.355 E1.62006
G1 X91.988 Y78.518 E1.75373
G1 X94.655 Y78.593 E1.87796
G1 X97.299 Y78.593 E2.00108
G1 X99.911 Y78.518 E2.12276
G1 X101.439 Y78.425 E2.19404
G1 X101.521 Y78.42 E2.19786
G1 X102.937 Y78.352 E2.26387
G1 X103.056 Y78.348 E2.26942
G1 X103.363 Y78.339 E2.28372
G1 X103.546 Y78.336 E2.29224
G1 X106.077 Y78.334 E2.4101
G1 X106.175 Y78.335 E2.41466
G1 X106.861 Y78.345 E2.44661
G1 X107.027 Y78.349 E2.45434
G1 X107.213 Y78.357 E2.46301
G1 X109.947 Y78.433 E2.59036
G1 X112.59 Y78.431 E2.71343
G1 X115.226 Y78.356 E2.83622
G1 X117.839 Y78.206 E2.9581
G1 X120.501 Y77.978 E3.08251
G1 X123.141 Y77.676 E3.20624
G1 X125.867 Y77.285 E3.33447
G1 X126.576 Y77.173 E3.36789
G1 X126.932 Y77.127 E3.38461
G1 X127.289 Y77.091 E3.40132
G1 X128.27 Y77.068 E3.44701
G1 X128.666 Y77.089 E3.46547
G1 X129.423 Y77.174 E3.50094
G1 X130.223 Y77.313 E3.53875
G1 X130.919 Y77.475 E3.57203
G1 X131.576 Y77.706 E3.60446
G1 X133.268 Y78.407 E3.68974
G1 X134.255 Y78.805 E3.73929
G1 X134.902 Y79.109 E3.77258
G1 X135.512 Y79.484 E3.80592
G1 X136.075 Y79.924 E3.83919
G1 X136.586 Y80.425 E3.87252
G1 X137.038 Y80.979 E3.90581
G1 X137.426 Y81.58 E3.93912
G1 X137.624 Y81.958 E3.95899
G1 X137.846 Y82.418 E3.98277
G1 X137.924 Y82.586 E3.9914
G1 X138.086 Y82.948 E4.00986
G1 X138.32 Y83.551 E4.03998
G1 X139.235 Y86.317 E4.17564
G1 X140.134 Y88.784 E4.29791
G1 X141.114 Y91.257 E4.42177
G1 X142.154 Y93.678 E4.54447
G1 X143.265 Y96.076 E4.66753
G1 X144.449 Y98.454 E4.79122
G1 X145.699 Y100.795 E4.9148
G1 X147.003 Y103.079 E5.03726
G1 X148.26 Y105.119 E5.14884
G1 X148.291 Y105.17 E5.15162
G1 X148.734 Y105.904 E5.19154
G1 X148.91 Y106.214 E5.20814
G1 X149.14 Y106.648 E5.23101
G1 X149.221 Y106.806 E5.23928
G1 X149.416 Y107.2 E5.25975
G1 X149.697 Y107.858 E5.29306
G1 X149.82 Y108.232 E5.31139
G1 X149.958 Y108.701 E5.33416
G1 X150.01 Y108.888 E5.3432
G1 X150.111 Y109.274 E5.36178
G1 X150.253 Y109.975 E5.39508
G1 X150.296 Y110.352 E5.41275
G1 X150.342 Y110.893 E5.43803
G1 X150.355 Y111.071 E5.44634
G1 X150.376 Y111.44 E5.46355
G1 X150.376 Y112.156 E5.49689
G1 X150.346 Y112.517 E5.51376
G1 X150.298 Y112.945 E5.53381
G1 X150.276 Y113.121 E5.54207
G1 X150.214 Y113.563 E5.56286
G1 X150.075 Y114.265 E5.59618
G1 X149.96 Y114.659 E5.61529
G1 X149.777 Y115.22 E5.64277
G1 X149.71 Y115.416 E5.65241
G1 X149.602 Y115.714 E5.66717
G1 X149.321 Y116.371 E5.70044
G1 X149.152 Y116.689 E5.71721
G1 X148.881 Y117.167 E5.7428
G1 X148.774 Y117.35 E5.75267
G1 X148.585 Y117.659 E5.76954
G1 X148.4 Y117.944 E5.78536
G1 X148.06 Y118.439 E5.81332
G1 X148.001 Y118.524 E5.81814
G1 X147.139 Y119.737 E5.88743
G1 X145.682 Y121.912 E6.00933
G1 X144.268 Y124.157 E6.13288
G1 X142.927 Y126.431 E6.2558
G1 X141.707 Y128.631 E6.37294
G1 X141.156 Y129.655 E6.42709
G1 X140.783 Y130.265 E6.46038
G1 X140.344 Y130.83 E6.4937
G1 X139.844 Y131.342 E6.52702
G1 X139.291 Y131.795 E6.56031
G1 X138.69 Y132.184 E6.59364
G1 X138.05 Y132.503 E6.62694
G1 X137.378 Y132.748 E6.66025
G1 X136.683 Y132.917 E6.69355
G1 X135.717 Y133.021 E6.73879
G1 X135.393 Y133.031 E6.75389
G1 X135.208 Y133.034 E6.7625
G1 X131.655 Y133.041 E6.92795
G1 X128.988 Y133.083 E7.05215
G1 X126.314 Y133.201 E7.17678
G1 X123.712 Y133.389 E7.29826
G1 X121.056 Y133.657 E7.42256
G1 X118.408 Y134.001 E7.5469
G1 X115.826 Y134.409 E7.66862
G1 X113.227 Y134.897 E7.79175
G1 X110.621 Y135.462 E7.91592
G1 X108.862 Y135.891 E8.00023
G1 X108.664 Y135.936 E8.00968
G1 X108.327 Y136.007 E8.02572
G1 X108.071 Y136.055 E8.03785
G1 X107.792 Y136.102 E8.05102
G1 X106.743 Y136.191 E8.10004
G1 X106.299 Y136.192 E8.12072
G1 X105.585 Y136.154 E8.15401
G1 X105.202 Y136.1 E8.17202
G1 X105.004 Y136.066 E8.18138
G1 X104.737 Y136.014 E8.19404
G1 X104.445 Y135.951 E8.20795
G1 X104.258 Y135.908 E8.21689
G1 X104.06 Y135.859 E8.22638
G1 X101.51 Y135.268 E8.34827
G1 X98.869 Y134.733 E8.47374
G1 X96.278 Y134.285 E8.59618
G1 X93.678 Y133.91 E8.7185
G1 X91.021 Y133.603 E8.84305
G1 X88.394 Y133.376 E8.96583
G1 X85.748 Y133.221 E9.08925
G1 X83.102 Y133.143 E9.21251
G1 X81.409 Y133.13 E9.29134
G1 X78.209 Y133.136 E9.44035
G1 X78.12 Y133.136 E9.44449
G1 X77.457 Y133.128 E9.47537
G1 X76.743 Y133.079 E9.50869
G1 X76.039 Y132.951 E9.54201
G1 X75.354 Y132.745 E9.57532
G1 X74.697 Y132.465 E9.60857
G1 X74.074 Y132.112 E9.64192
G1 X73.495 Y131.692 E9.67522
G1 X72.966 Y131.211 E9.70852
G1 X72.495 Y130.673 E9.74181
G1 X71.913 Y129.788 E9.79113
G1 X70.668 Y127.501 E9.91238
G1 X69.36 Y125.246 E10.03377
G1 X67.954 Y122.973 E10.15822
G1 X66.495 Y120.757 E10.28177
G1 X64.765 Y118.291 E10.42203
G1 X64.705 Y118.204 E10.42695
G1 X64.451 Y117.829 E10.44804
G1 X64.21 Y117.445 E10.46915
G1 X63.904 Y116.916 E10.49761
G1 X63.581 Y116.277 E10.53095
G1 X63.441 Y115.93 E10.54837
G1 X63.254 Y115.424 E10.57349
G1 X63.191 Y115.246 E10.58228
G1 X62.736 Y113.894 E10.64871
G1 X62.705 Y113.798 E10.65341
G1 X62.548 Y113.305 E10.6775
G1 X61.675 Y110.819 E10.80019
G1 X60.723 Y108.334 E10.9241
G1 X59.712 Y105.903 E11.0467
G1 X58.629 Y103.492 E11.16977
G1 X57.46 Y101.077 E11.2947
G1 X56.248 Y98.746 E11.41704
G1 X54.959 Y96.426 E11.54062
G1 X53.611 Y94.156 E11.66355
G1 X52.876 Y92.98 E11.72813
G1 X52.678 Y92.64 E11.74645
G1 X52.381 Y92.093 E11.77543
G1 X52.26 Y91.859 E11.7877
G1 X52.072 Y91.476 E11.80757
G1 X51.793 Y90.817 E11.84089
G1 X51.67 Y90.438 E11.85944
G1 X51.523 Y89.931 E11.88402
G1 X51.474 Y89.752 E11.89267
G1 X51.378 Y89.381 E11.91051
G1 X51.238 Y88.68 E11.9438
G1 X51.196 Y88.303 E11.96146
G1 X51.16 Y87.866 E11.98188
G1 X51.148 Y87.703 E11.98949
G1 X51.123 Y87.262 E12.01005
G1 X51.123 Y86.547 E12.04335
G1 X51.158 Y86.146 E12.06209
G1 X51.223 Y85.598 E12.08779
G1 X51.245 Y85.432 E12.09558
G1 X51.296 Y85.081 E12.1121
G1 X51.438 Y84.38 E12.1454
G1 X51.555 Y83.985 E12.16459
G1 X51.715 Y83.503 E12.18824
G1 X51.769 Y83.347 E12.19592
G1 X51.887 Y83.02 E12.21211
G1 X52.191 Y82.314 E12.2479
G1 X52.407 Y81.885 E12.27027
G1 X52.764 Y81.265 E12.30358
G1 X53.187 Y80.689 E12.33686
G1 X53.673 Y80.163 E12.37021
G1 X54.214 Y79.696 E12.40348
G1 X54.804 Y79.291 E12.43681
M204 S3000
M205 X10 Y10
G0 F3000 X55.226 Y79.692
M204 S1800
M205 X8 Y8
G1 F2400 X55.827 Y79.393 E12.46806
G1 X57.106 Y78.846 E12.53284
G1 X57.177 Y78.816 E12.53643
G1 X58.468 Y78.284 E12.60144
G1 X59.419 Y77.985 E12.64786
G1 X59.965 Y77.863 E12.67392
G1 X60.131 Y77.828 E12.68181
G1 X60.457 Y77.765 E12.69728
G1 X60.97 Y77.689 E12.72142
G1 X61.419 Y77.643 E12.74244
G1 X62.101 Y77.614 E12.77423
G1 X62.802 Y77.666 E12.80696
G1 X64.969 Y77.961 E12.90879
G1 X65.015 Y77.968 E12.91096
G1 X65.993 Y78.109 E12.95697
G1 X68.622 Y78.413 E13.0802
G1 X71.283 Y78.645 E13.20458
G1 X73.959 Y78.802 E13.3294
G1 X76.599 Y78.881 E13.45238
G1 X78.16 Y78.894 E13.52507
G1 X88.052 Y78.895 E13.98569
G1 X88.134 Y78.896 E13.98951
G1 X88.841 Y78.906 E14.02243
G1 X89.091 Y78.914 E14.03408
G1 X91.977 Y79.079 E14.16868
G1 X94.639 Y79.153 E14.29268
G1 X97.28 Y79.153 E14.41566
G1 X99.961 Y79.076 E14.54055
G1 X101.473 Y78.984 E14.61108
G1 X101.548 Y78.98 E14.61458
G1 X102.964 Y78.912 E14.68059
G1 X103.073 Y78.908 E14.68567
G1 X103.38 Y78.899 E14.69997
G1 X103.546 Y78.896 E14.7077
G1 X106.077 Y78.894 E14.82556
G1 X106.167 Y78.895 E14.82975
G1 X106.853 Y78.905 E14.86169
G1 X107.004 Y78.909 E14.86873
G1 X107.178 Y78.916 E14.87684
G1 X109.931 Y78.993 E15.00508
G1 X112.57 Y78.991 E15.12796
G1 X115.274 Y78.914 E15.25392
G1 X117.882 Y78.764 E15.37556
G1 X120.577 Y78.534 E15.50151
G1 X123.184 Y78.236 E15.62369
G1 X125.965 Y77.836 E15.75452
G1 X126.664 Y77.726 E15.78747
G1 X126.988 Y77.684 E15.80268
G1 X127.345 Y77.648 E15.81939
G1 X128.24 Y77.627 E15.86108
G1 X128.636 Y77.648 E15.87954
G1 X129.327 Y77.726 E15.91192
G1 X130.127 Y77.865 E15.94973
G1 X130.792 Y78.021 E15.98154
G1 X131.362 Y78.223 E16.00969
G1 X133.074 Y78.932 E16.09598
G1 X134.045 Y79.324 E16.14474
G1 X134.663 Y79.617 E16.17658
G1 X135.242 Y79.979 E16.20838
G1 X135.775 Y80.407 E16.24021
G1 X136.254 Y80.893 E16.27199
G1 X136.673 Y81.433 E16.30381
G1 X137.12 Y82.202 E16.34523
G1 X137.342 Y82.662 E16.36901
G1 X137.413 Y82.814 E16.37682
G1 X137.575 Y83.176 E16.39529
G1 X137.788 Y83.727 E16.4228
G1 X138.702 Y86.488 E16.55822
G1 X139.615 Y88.993 E16.68237
G1 X140.587 Y91.446 E16.80524
G1 X141.644 Y93.909 E16.93004
G1 X142.756 Y96.311 E17.05329
G1 X143.955 Y98.717 E17.17846
G1 X145.205 Y101.059 E17.30208
G1 X146.513 Y103.351 E17.42496
G1 X147.784 Y105.413 E17.53775
G1 X147.812 Y105.459 E17.54026
G1 X148.255 Y106.193 E17.58018
G1 X148.415 Y106.476 E17.59532
G1 X148.645 Y106.91 E17.61819
G1 X148.719 Y107.055 E17.62577
G1 X148.914 Y107.449 E17.64624
G1 X149.283 Y108.391 E17.69335
G1 X149.421 Y108.86 E17.71611
G1 X149.468 Y109.03 E17.72432
G1 X149.569 Y109.416 E17.7429
G1 X149.738 Y110.399 E17.78935
G1 X149.784 Y110.94 E17.81463
G1 X149.796 Y111.103 E17.82224
G1 X149.817 Y111.472 E17.83945
G1 X149.79 Y112.455 E17.88524
G1 X149.742 Y112.883 E17.90529
G1 X149.721 Y113.043 E17.91281
G1 X149.659 Y113.485 E17.93359
G1 X149.525 Y114.155 E17.96541
G1 X149.428 Y114.485 E17.98142
G1 X149.245 Y115.046 E18.0089
G1 X149.184 Y115.225 E18.01771
G1 X149.076 Y115.523 E18.03246
G1 X148.665 Y116.413 E18.07811
G1 X148.394 Y116.891 E18.1037
G1 X148.296 Y117.058 E18.11271
G1 X148.107 Y117.367 E18.12958
G1 X147.939 Y117.626 E18.14396
G1 X147.599 Y118.121 E18.17192
G1 X147.544 Y118.199 E18.17636
G1 X146.694 Y119.395 E18.24469
G1 X145.214 Y121.605 E18.36854
G1 X143.789 Y123.867 E18.49302
G1 X142.432 Y126.169 E18.61745
G1 X141.234 Y128.329 E18.73246
G1 X140.663 Y129.39 E18.78857
G1 X140.305 Y129.972 E18.82039
G1 X139.881 Y130.508 E18.85221
G1 X139.398 Y130.991 E18.88402
G1 X138.861 Y131.414 E18.91585
G1 X138.279 Y131.771 E18.94764
G1 X137.659 Y132.058 E18.97945
G1 X137.01 Y132.271 E19.01126
G1 X136.34 Y132.406 E19.04308
G1 X135.7 Y132.461 E19.07299
G1 X135.376 Y132.471 E19.08809
G1 X135.207 Y132.474 E19.09596
G1 X131.645 Y132.481 E19.26182
G1 X128.954 Y132.524 E19.38714
G1 X126.318 Y132.639 E19.51
G1 X123.653 Y132.832 E19.63442
G1 X120.962 Y133.104 E19.76036
G1 X118.358 Y133.442 E19.88263
G1 X115.739 Y133.856 E20.0061
G1 X113.108 Y134.35 E20.13075
G1 X110.486 Y134.918 E20.25567
G1 X108.729 Y135.347 E20.33989
G1 X108.549 Y135.388 E20.34849
G1 X108.212 Y135.459 E20.36452
G1 X107.978 Y135.503 E20.37561
G1 X107.699 Y135.55 E20.38878
G1 X106.742 Y135.631 E20.43351
G1 X106.298 Y135.632 E20.45418
G1 X105.297 Y135.548 E20.50095
G1 X105.099 Y135.514 E20.51031
G1 X104.855 Y135.467 E20.52188
G1 X104.563 Y135.404 E20.53579
G1 X104.392 Y135.364 E20.54397
G1 X104.242 Y135.327 E20.55116
G1 X101.597 Y134.713 E20.6776
G1 X99.007 Y134.189 E20.80064
G1 X96.35 Y133.73 E20.9262
G1 X93.753 Y133.355 E21.04838
G1 X91.064 Y133.045 E21.17442
G1 X88.44 Y132.818 E21.29706
G1 X85.761 Y132.661 E21.42202
G1 X83.123 Y132.583 E21.54491
G1 X81.412 Y132.57 E21.62458
G1 X78.208 Y132.576 E21.77377
G1 X78.127 Y132.576 E21.77755
G1 X77.464 Y132.568 E21.80842
G1 X76.782 Y132.519 E21.84026
G1 X76.111 Y132.392 E21.87206
G1 X75.459 Y132.187 E21.90388
G1 X74.836 Y131.907 E21.93569
G1 X74.249 Y131.557 E21.96751
G1 X73.708 Y131.14 E21.99932
G1 X73.219 Y130.663 E22.03113
G1 X72.789 Y130.132 E22.06294
G1 X72.405 Y129.52 E22.09658
G1 X71.167 Y127.246 E22.21715
G1 X69.834 Y124.948 E22.34085
G1 X68.421 Y122.664 E22.46591
G1 X66.965 Y120.453 E22.58918
G1 X65.223 Y117.969 E22.73045
G1 X65.169 Y117.89 E22.73491
G1 X64.915 Y117.515 E22.756
G1 X64.695 Y117.164 E22.77529
G1 X64.389 Y116.635 E22.80375
G1 X63.966 Y115.735 E22.85005
G1 X63.779 Y115.229 E22.87517
G1 X63.722 Y115.068 E22.88312
G1 X63.267 Y113.716 E22.94955
G1 X63.238 Y113.628 E22.95386
G1 X63.075 Y113.116 E22.97888
G1 X62.199 Y110.621 E23.10201
G1 X61.244 Y108.127 E23.22637
G1 X60.226 Y105.68 E23.34978
G1 X59.123 Y103.226 E23.47506
G1 X57.967 Y100.839 E23.59855
G1 X56.756 Y98.508 E23.72087
G1 X55.443 Y96.145 E23.84674
G1 X54.074 Y93.838 E23.97166
G1 X53.351 Y92.683 E24.03511
G1 X53.17 Y92.373 E24.05182
G1 X52.873 Y91.826 E24.08081
G1 X52.763 Y91.612 E24.09201
G1 X52.575 Y91.229 E24.11188
G1 X52.208 Y90.282 E24.15917
G1 X52.061 Y89.775 E24.18375
G1 X52.016 Y89.612 E24.19162
G1 X51.92 Y89.241 E24.20947
G1 X51.754 Y88.257 E24.25593
G1 X51.718 Y87.82 E24.27635
G1 X51.707 Y87.672 E24.28326
G1 X51.682 Y87.231 E24.30383
G1 X51.714 Y86.212 E24.3513
G1 X51.779 Y85.664 E24.377
G1 X51.799 Y85.512 E24.38414
G1 X51.85 Y85.161 E24.40065
G1 X51.987 Y84.492 E24.43245
G1 X52.086 Y84.161 E24.44854
G1 X52.246 Y83.679 E24.47219
G1 X52.296 Y83.537 E24.4792
G1 X52.414 Y83.21 E24.49538
G1 X52.691 Y82.566 E24.52803
G1 X52.907 Y82.137 E24.55039
G1 X53.249 Y81.545 E24.58223
G1 X53.658 Y80.998 E24.61403
G1 X54.129 Y80.503 E24.64585
G1 X54.654 Y80.065 E24.67768
G1 X55.226 Y79.692 E24.70948
M204 S3000
M205 X10 Y10
G0 F3000 X55.644 Y80.101
M204 S1800
M205 X8 Y8
G1 F2400 X56.047 Y79.908 E24.73029
G1 X57.326 Y79.361 E24.79506
G1 X57.39 Y79.334 E24.79829
G1 X58.681 Y78.802 E24.86331
G1 X59.542 Y78.531 E24.90534
G1 X60.088 Y78.409 E24.9314
G1 X60.237 Y78.378 E24.93848
G1 X60.563 Y78.315 E24.95394
G1 X61.027 Y78.246 E24.97579
G1 X61.476 Y78.2 E24.9968
G1 X62.125 Y78.174 E25.02705
G1 X62.726 Y78.221 E25.05512
G1 X64.893 Y78.516 E25.15695
G1 X64.935 Y78.522 E25.15893
G1 X65.918 Y78.664 E25.20518
G1 X68.583 Y78.972 E25.3301
G1 X71.236 Y79.203 E25.4541
G1 X73.909 Y79.36 E25.57878
G1 X76.623 Y79.442 E25.70521
G1 X78.156 Y79.454 E25.7766
G1 X88.052 Y79.455 E26.2374
G1 X88.126 Y79.456 E26.24084
G1 X88.833 Y79.466 E26.27377
G1 X89.059 Y79.474 E26.2843
G1 X91.929 Y79.638 E26.41815
G1 X94.623 Y79.713 E26.54365
G1 X97.296 Y79.713 E26.66811
G1 X99.98 Y79.636 E26.79314
G1 X101.507 Y79.543 E26.86438
G1 X101.575 Y79.539 E26.86755
G1 X102.991 Y79.471 E26.93356
G1 X103.089 Y79.467 E26.93813
G1 X103.396 Y79.458 E26.95243
G1 X103.547 Y79.456 E26.95946
G1 X106.078 Y79.454 E27.07731
G1 X106.159 Y79.455 E27.08109
G1 X106.845 Y79.465 E27.11303
G1 X106.982 Y79.468 E27.11941
G1 X107.219 Y79.478 E27.13046
G1 X109.915 Y79.553 E27.25604
G1 X112.587 Y79.551 E27.38046
G1 X115.289 Y79.474 E27.50633
G1 X117.925 Y79.322 E27.62928
G1 X120.619 Y79.092 E27.75518
G1 X123.288 Y78.787 E27.88027
