;FLAVOR:Marlin
;TIME:5746
;Filament used: 4.54128m
;Layer height: 0.2
;MINX:18.757
;MINY:18.137
;MINZ:0.2
;MAXX:187.349
;MAXY:185.737
;MAXZ:21
;Generated with Cura_SteamEngine 4.4.1
M140 S60
M105
M190 S60
M104 S200
M105
M109 S200
M82 ;absolute extrusion mode
G21 ;metric values
G90 ;absolute positioning
M82 ;set extruder to absolute mode
M107 ;start with the fan off
G28 X0 Y0 ;move X/Y to min endstops
G28 Z0 ;move Z to min endstops
G1 Z15.0 F100 ;move the platform down 15mm
G92 E0 ;zero the extruded length
G1 F200 E3 ;extrude 3mm of feed stock
G92 E0 ;zero the extruded length again
G1 F100
G0 Y20 F100
M117 Printing...
G5
G92 E0
G92 E0
G1 F2400 E-6
;LAYER_COUNT:105
;LAYER:0
M106 S255
M204 S3000
M205 X10 Y10
G1 F600 Z0.275
G0 F3000 X46.656 Y88.963 Z0.275
M204 S1800
M205 X8 Y8
;TYPE:SKIRT
G1 F600 Z0.2
G1 F2400 E0
G1 X46.826 Y88.875 E0.00891
G1 X47.886 Y88.346 E0.06408
G1 X47.926 Y88.326 E0.06616
G1 X49.242 Y87.68 E0.13442
G1 X51.61 Y86.434 E0.25902
G1 X53.907 Y85.143 E0.38171
G1 X56.159 Y83.79 E0.50405
G1 X58.392 Y82.361 E0.62749
G1 X60.594 Y80.863 E0.7515
G1 X62.732 Y79.318 E0.87433
G1 X64.832 Y77.708 E0.99755
G1 X66.898 Y76.031 E1.12145
G1 X68.904 Y74.304 E1.24471
G1 X70.86 Y72.521 E1.36795
G1 X72.763 Y70.687 E1.49101
G1 X74.618 Y68.795 E1.61439
G1 X76.422 Y66.846 E1.73806
G1 X78.135 Y64.888 E1.8592
G1 X79.843 Y62.821 E1.98405
G1 X81.48 Y60.722 E2.108
G1 X83.047 Y58.59 E2.2312
G1 X84.524 Y56.456 E2.35205
G1 X85.998 Y54.195 E2.47773
G1 X87.373 Y51.945 E2.60051
G1 X88.681 Y49.668 E2.72279
G1 X90.537 Y46.154 E2.90784
G1 X90.871 Y45.487 E2.94257
G1 X90.955 Y45.324 E2.95111
G1 X91.105 Y45.045 E2.96586
G1 X91.199 Y44.876 E2.97486
G1 X92.293 Y42.981 E3.07675
G1 X92.34 Y42.902 E3.08103
G1 X92.732 Y42.245 E3.11666
G1 X92.823 Y42.097 E3.12475
G1 X92.972 Y41.862 E3.1377
G1 X93.078 Y41.7 E3.14672
G1 X94.304 Y39.89 E3.24851
G1 X94.354 Y39.818 E3.2526
G1 X94.799 Y39.18 E3.28882
G1 X94.918 Y39.014 E3.29833
G1 X95.062 Y38.821 E3.30954
G1 X95.167 Y38.685 E3.31754
G1 X96.562 Y36.916 E3.42244
G1 X96.62 Y36.843 E3.42678
G1 X97.071 Y36.288 E3.46008
G1 X97.197 Y36.137 E3.46924
G1 X97.421 Y35.878 E3.48519
G1 X97.534 Y35.752 E3.49307
G1 X98.999 Y34.146 E3.59429
G1 X99.062 Y34.077 E3.59864
G1 X99.557 Y33.55 E3.63231
G1 X99.742 Y33.362 E3.64459
G1 X100.096 Y33.015 E3.66767
G1 X100.175 Y32.938 E3.67281
G1 X101.628 Y31.562 E3.76599
G1 X101.69 Y31.504 E3.76994
G1 X102.23 Y31.006 E3.80415
G1 X102.382 Y30.87 E3.81364
G1 X102.604 Y30.678 E3.82731
G1 X102.734 Y30.569 E3.83521
G1 X104.43 Y29.179 E3.93732
G1 X104.497 Y29.125 E3.94133
G1 X105.084 Y28.657 E3.97628
G1 X105.24 Y28.536 E3.98548
G1 X105.494 Y28.346 E4.00025
G1 X105.641 Y28.24 E4.00869
G1 X107.444 Y26.969 E4.1114
G1 X107.524 Y26.913 E4.11595
G1 X108.078 Y26.535 E4.14718
G1 X108.204 Y26.451 E4.15423
G1 X108.491 Y26.265 E4.17016
G1 X108.671 Y26.153 E4.18003
G1 X110.536 Y25.03 E4.2814
G1 X110.624 Y24.978 E4.28616
G1 X111.277 Y24.599 E4.32132
G1 X111.412 Y24.523 E4.32853
G1 X111.68 Y24.376 E4.34276
G1 X111.86 Y24.281 E4.35224
G1 X113.839 Y23.276 E4.45559
G1 X113.934 Y23.228 E4.46055
G1 X114.556 Y22.925 E4.49276
G1 X114.68 Y22.867 E4.49914
G1 X114.975 Y22.731 E4.51426
G1 X115.178 Y22.641 E4.5246
G1 X117.202 Y21.792 E4.62681
G1 X117.283 Y21.759 E4.63088
G1 X117.957 Y21.487 E4.66472
G1 X118.136 Y21.418 E4.67366
G1 X118.434 Y21.308 E4.68845
G1 X118.606 Y21.247 E4.69694
G1 X120.722 Y20.534 E4.80092
G1 X120.809 Y20.506 E4.80517
G1 X121.441 Y20.303 E4.83608
G1 X121.605 Y20.252 E4.84408
G1 X121.934 Y20.156 E4.86004
G1 X122.127 Y20.103 E4.86936
G1 X124.281 Y19.547 E4.97294
G1 X124.376 Y19.523 E4.97751
G1 X125.025 Y19.366 E5.0086
G1 X125.184 Y19.33 E5.01619
G1 X125.5 Y19.262 E5.03124
G1 X125.695 Y19.223 E5.0405
G1 X127.899 Y18.82 E5.14483
G1 X127.992 Y18.804 E5.14922
G1 X128.66 Y18.692 E5.18076
G1 X128.828 Y18.666 E5.18868
G1 X129.127 Y18.624 E5.20274
G1 X129.323 Y18.6 E5.21193
G1 X131.522 Y18.36 E5.31494
G1 X131.62 Y18.35 E5.31952
G1 X132.358 Y18.281 E5.35404
G1 X132.523 Y18.268 E5.36174
G1 X132.819 Y18.248 E5.37556
G1 X133.018 Y18.237 E5.38484
G1 X135.252 Y18.156 E5.48893
G1 X135.341 Y18.154 E5.49308
G1 X136.014 Y18.139 E5.52442
G1 X136.195 Y18.137 E5.53285
G1 X136.534 Y18.139 E5.54864
G1 X136.726 Y18.143 E5.55758
G1 X138.947 Y18.223 E5.66106
G1 X139.042 Y18.227 E5.66549
G1 X139.692 Y18.26 E5.6958
G1 X139.871 Y18.272 E5.70415
G1 X140.238 Y18.301 E5.72129
G1 X140.423 Y18.318 E5.72994
G1 X142.585 Y18.552 E5.8312
G1 X142.687 Y18.564 E5.83599
G1 X143.418 Y18.655 E5.87029
G1 X143.573 Y18.676 E5.87757
G1 X143.894 Y18.724 E5.89268
G1 X144.097 Y18.758 E5.90227
G1 X146.288 Y19.158 E6.00598
G1 X146.381 Y19.176 E6.01039
G1 X147.033 Y19.305 E6.04134
G1 X147.209 Y19.342 E6.04971
G1 X147.539 Y19.417 E6.06547
G1 X147.721 Y19.461 E6.07419
G1 X149.874 Y20.017 E6.17773
G1 X149.964 Y20.041 E6.18207
G1 X150.585 Y20.211 E6.21205
G1 X150.739 Y20.255 E6.2195
G1 X151.098 Y20.363 E6.23696
G1 X151.298 Y20.427 E6.24674
G1 X153.405 Y21.137 E6.35027
G1 X153.486 Y21.165 E6.35426
G1 X154.111 Y21.385 E6.38511
G1 X154.287 Y21.45 E6.39385
G1 X154.588 Y21.566 E6.40887
G1 X154.764 Y21.637 E6.41771
G1 X156.789 Y22.487 E6.51997
G1 X156.876 Y22.524 E6.52437
G1 X157.546 Y22.817 E6.55842
G1 X157.705 Y22.889 E6.56655
G1 X157.99 Y23.023 E6.58122
G1 X158.159 Y23.106 E6.58998
G1 X160.155 Y24.117 E6.69417
G1 X160.243 Y24.162 E6.69877
G1 X160.819 Y24.465 E6.72908
G1 X160.965 Y24.544 E6.7368
G1 X161.283 Y24.722 E6.75377
G1 X161.454 Y24.822 E6.763
G1 X163.332 Y25.951 E6.86503
G1 X163.416 Y26.002 E6.86961
G1 X164.017 Y26.376 E6.90257
G1 X164.15 Y26.461 E6.90992
G1 X164.392 Y26.62 E6.9234
G1 X164.563 Y26.737 E6.93305
G1 X166.386 Y28.021 E7.03688
G1 X166.466 Y28.078 E7.04145
G1 X167.024 Y28.484 E7.07358
G1 X167.169 Y28.592 E7.082
G1 X167.445 Y28.805 E7.09824
G1 X167.585 Y28.917 E7.10659
G1 X169.255 Y30.282 E7.20702
G1 X169.332 Y30.346 E7.21168
G1 X169.921 Y30.843 E7.24757
G1 X170.063 Y30.966 E7.25631
G1 X170.273 Y31.154 E7.26944
G1 X170.401 Y31.271 E7.27751
G1 X171.995 Y32.778 E7.37966
G1 X172.064 Y32.845 E7.38414
G1 X172.605 Y33.372 E7.4193
G1 X172.739 Y33.506 E7.42813
G1 X172.947 Y33.721 E7.44206
G1 X173.074 Y33.857 E7.45072
G1 X174.579 Y35.506 E7.55468
G1 X174.641 Y35.575 E7.559
G1 X175.078 Y36.068 E7.58967
G1 X175.197 Y36.206 E7.59816
G1 X175.438 Y36.494 E7.61565
G1 X175.552 Y36.633 E7.62402
G1 X176.907 Y38.348 E7.72579
G1 X176.962 Y38.42 E7.73001
G1 X177.381 Y38.966 E7.76206
G1 X177.492 Y39.115 E7.77071
G1 X177.674 Y39.367 E7.78518
G1 X177.783 Y39.523 E7.79405
G1 X178.985 Y41.296 E7.89379
G1 X179.027 Y41.358 E7.89727
G1 X179.483 Y42.048 E7.93579
G1 X179.604 Y42.238 E7.94628
G1 X179.741 Y42.462 E7.9585
G1 X179.822 Y42.599 E7.96591
G1 X180.932 Y44.52 E8.06922
G1 X180.978 Y44.6 E8.07352
G1 X181.32 Y45.212 E8.10616
G1 X181.398 Y45.357 E8.11383
G1 X181.542 Y45.631 E8.12824
G1 X181.635 Y45.814 E8.1378
G1 X182.582 Y47.766 E8.23883
G1 X182.619 Y47.843 E8.24281
G1 X182.943 Y48.534 E8.27834
G1 X183.022 Y48.71 E8.28733
G1 X183.16 Y49.029 E8.30351
G1 X183.232 Y49.202 E8.31224
G1 X184.046 Y51.246 E8.41468
G1 X184.076 Y51.325 E8.41862
G1 X184.325 Y51.975 E8.45103
G1 X184.392 Y52.156 E8.46002
G1 X184.497 Y52.457 E8.47486
G1 X184.555 Y52.631 E8.4834
G1 X185.215 Y54.713 E8.5851
G1 X185.241 Y54.798 E8.58924
G1 X185.455 Y55.507 E8.62373
G1 X185.505 Y55.68 E8.63211
G1 X185.578 Y55.949 E8.64509
G1 X185.625 Y56.133 E8.65393
G1 X186.147 Y58.311 E8.75822
G1 X186.168 Y58.402 E8.76257
G1 X186.321 Y59.084 E8.79512
G1 X186.358 Y59.263 E8.80363
G1 X186.415 Y59.556 E8.81753
G1 X186.449 Y59.742 E8.82633
G1 X186.806 Y61.918 E8.92901
G1 X186.818 Y62 E8.93287
G1 X186.927 Y62.723 E8.96691
G1 X186.954 Y62.92 E8.97617
G1 X186.992 Y63.239 E8.99113
G1 X187.011 Y63.417 E8.99947
G1 X187.21 Y65.607 E9.10186
G1 X187.217 Y65.693 E9.10588
G1 X187.272 Y66.405 E9.13913
G1 X187.284 Y66.588 E9.14767
G1 X187.298 Y66.877 E9.16115
G1 X187.304 Y67.069 E9.17009
G1 X187.346 Y69.337 E9.27572
G1 X187.347 Y69.436 E9.28033
G1 X187.349 Y70.114 E9.3119
G1 X187.347 Y70.281 E9.31967
G1 X187.34 Y70.583 E9.33374
G1 X187.333 Y70.778 E9.34283
G1 X187.212 Y73.03 E9.44784
G1 X187.206 Y73.125 E9.45227
G1 X187.16 Y73.796 E9.48359
G1 X187.139 Y74.035 E9.49476
G1 X187.087 Y74.524 E9.51766
G1 X187.072 Y74.657 E9.52389
G1 X186.82 Y76.633 E9.61665
G1 X186.808 Y76.715 E9.62051
G1 X186.701 Y77.475 E9.65625
G1 X186.673 Y77.656 E9.66477
G1 X186.623 Y77.95 E9.67866
G1 X186.589 Y78.136 E9.68746
G1 X186.157 Y80.289 E9.78972
G1 X186.138 Y80.38 E9.79404
G1 X185.982 Y81.103 E9.82848
G1 X185.937 Y81.295 E9.83767
G1 X185.864 Y81.589 E9.85177
G1 X185.821 Y81.756 E9.8598
G1 X185.239 Y83.857 E9.96132
G1 X185.215 Y83.94 E9.96534
G1 X185.003 Y84.667 E10.0006
G1 X184.94 Y84.87 E10.0105
G1 X184.857 Y85.123 E10.0229
G1 X184.805 Y85.277 E10.03047
G1 X184.064 Y87.356 E10.13324
G1 X184.033 Y87.438 E10.13732
G1 X183.773 Y88.137 E10.17205
G1 X183.701 Y88.324 E10.18138
G1 X183.579 Y88.623 E10.19642
G1 X183.51 Y88.786 E10.20466
G1 X182.63 Y90.783 E10.30628
G1 X182.592 Y90.867 E10.31057
G1 X182.287 Y91.533 E10.34468
G1 X182.211 Y91.692 E10.35288
G1 X182.064 Y91.991 E10.3684
G1 X181.976 Y92.164 E10.37744
G1 X180.934 Y94.13 E10.48104
G1 X180.897 Y94.198 E10.48465
G1 X180.592 Y94.757 E10.5143
G1 X180.489 Y94.94 E10.52408
G1 X180.307 Y95.249 E10.54078
G1 X180.215 Y95.399 E10.54897
G1 X179.04 Y97.274 E10.65201
G1 X178.994 Y97.347 E10.65602
G1 X178.608 Y97.945 E10.68917
G1 X178.509 Y98.094 E10.6975
G1 X178.354 Y98.32 E10.71026
G1 X178.241 Y98.479 E10.71934
G1 X176.911 Y100.297 E10.82423
G1 X176.851 Y100.378 E10.82892
G1 X176.454 Y100.903 E10.85957
G1 X176.35 Y101.037 E10.86747
G1 X176.124 Y101.32 E10.88433
G1 X176.003 Y101.467 E10.8932
G1 X174.591 Y103.131 E10.99482
G1 X174.529 Y103.203 E10.99924
G1 X174.063 Y103.736 E11.03221
G1 X173.946 Y103.866 E11.04035
G1 X173.715 Y104.116 E11.0562
G1 X173.58 Y104.257 E11.06529
G1 X172.049 Y105.816 E11.16704
G1 X171.987 Y105.879 E11.17115
G1 X171.467 Y106.394 E11.20523
G1 X171.336 Y106.52 E11.2137
G1 X171.103 Y106.738 E11.22855
G1 X170.961 Y106.867 E11.23749
G1 X169.311 Y108.321 E11.33989
G1 X169.236 Y108.386 E11.34451
G1 X168.709 Y108.836 E11.37678
G1 X168.591 Y108.934 E11.38392
G1 X168.334 Y109.143 E11.39935
G1 X168.171 Y109.272 E11.40903
G1 X166.407 Y110.614 E11.51224
G1 X166.333 Y110.669 E11.51653
G1 X165.787 Y111.072 E11.54813
G1 X165.643 Y111.175 E11.55637
G1 X165.35 Y111.379 E11.573
G1 X165.19 Y111.487 E11.58199
G1 X163.381 Y112.667 E11.68256
G1 X163.311 Y112.712 E11.68643
G1 X162.677 Y113.114 E11.72139
G1 X162.499 Y113.223 E11.73111
G1 X162.241 Y113.375 E11.74505
G1 X162.093 Y113.46 E11.753
G1 X160.15 Y114.536 E11.85642
G1 X160.076 Y114.576 E11.86033
G1 X159.478 Y114.897 E11.89194
G1 X159.307 Y114.985 E11.90089
G1 X158.208 Y115.533 E11.95808
G1 X158.172 Y115.551 E11.95995
G1 X156.83 Y116.21 E12.02957
G1 X154.484 Y117.445 E12.15302
G1 X152.2 Y118.73 E12.27505
G1 X149.913 Y120.105 E12.39931
G1 X147.677 Y121.537 E12.52294
G1 X145.493 Y123.024 E12.64598
G1 X143.354 Y124.57 E12.76887
G1 X141.233 Y126.197 E12.89334
G1 X139.208 Y127.842 E13.01483
G1 X137.189 Y129.582 E13.13893
G1 X135.225 Y131.371 E13.26264
G1 X133.327 Y133.203 E13.38547
G1 X131.472 Y135.096 E13.50888
G1 X129.668 Y137.046 E13.63258
G1 X127.944 Y139.018 E13.75455
G1 X126.242 Y141.079 E13.87901
G1 X124.623 Y143.156 E14.00164
G1 X123.055 Y145.29 E14.12494
G1 X121.553 Y147.462 E14.24791
G1 X120.099 Y149.694 E14.37195
G1 X118.731 Y151.931 E14.49404
G1 X117.412 Y154.232 E14.61754
G1 X115.568 Y157.722 E14.80134
G1 X115.232 Y158.393 E14.83629
G1 X115.151 Y158.551 E14.84455
G1 X115.004 Y158.825 E14.85903
G1 X114.907 Y158.997 E14.86823
G1 X113.775 Y160.959 E14.9737
G1 X113.726 Y161.044 E14.97827
G1 X113.395 Y161.598 E15.00832
G1 X113.31 Y161.736 E15.01587
G1 X113.143 Y162 E15.03041
G1 X113.034 Y162.167 E15.0397
G1 X111.808 Y163.978 E15.14153
G1 X111.755 Y164.054 E15.14585
G1 X111.306 Y164.697 E15.18237
G1 X111.189 Y164.86 E15.19171
G1 X111.045 Y165.053 E15.20292
G1 X110.94 Y165.189 E15.21092
G1 X109.545 Y166.958 E15.31582
G1 X109.489 Y167.029 E15.32003
G1 X109.049 Y167.571 E15.35254
G1 X108.923 Y167.721 E15.36166
G1 X108.688 Y167.993 E15.3784
G1 X108.573 Y168.122 E15.38645
G1 X107.108 Y169.728 E15.48767
G1 X107.046 Y169.796 E15.49196
G1 X106.554 Y170.32 E15.52542
G1 X106.368 Y170.509 E15.53777
G1 X106.011 Y170.859 E15.56105
G1 X105.932 Y170.936 E15.56619
G1 X104.479 Y172.312 E15.65937
G1 X104.414 Y172.372 E15.66349
G1 X103.882 Y172.862 E15.69717
G1 X103.746 Y172.984 E15.70568
G1 X103.516 Y173.184 E15.71987
G1 X103.374 Y173.304 E15.72852
G1 X101.703 Y174.674 E15.82914
G1 X101.637 Y174.727 E15.83308
G1 X101.028 Y175.213 E15.86936
G1 X100.866 Y175.338 E15.87889
G1 X100.609 Y175.53 E15.89383
G1 X100.466 Y175.634 E15.90206
G1 X98.663 Y176.905 E16.00478
G1 X98.583 Y176.961 E16.00933
G1 X98.029 Y177.339 E16.04056
G1 X97.9 Y177.425 E16.04778
G1 X97.591 Y177.625 E16.06492
G1 X97.411 Y177.737 E16.07479
G1 X95.51 Y178.88 E16.17808
G1 X95.419 Y178.934 E16.183
G1 X94.837 Y179.271 E16.21432
G1 X94.723 Y179.335 E16.22041
G1 X94.473 Y179.473 E16.2337
G1 X94.28 Y179.575 E16.24387
G1 X92.269 Y180.597 E16.34891
G1 X92.175 Y180.644 E16.3538
G1 X91.554 Y180.947 E16.38597
G1 X91.409 Y181.015 E16.39343
G1 X91.105 Y181.154 E16.409
G1 X90.921 Y181.235 E16.41836
G1 X88.86 Y182.1 E16.52244
G1 X88.776 Y182.135 E16.52667
G1 X88.188 Y182.372 E16.55619
G1 X88.024 Y182.435 E16.56438
G1 X87.658 Y182.571 E16.58256
G1 X87.472 Y182.637 E16.59175
G1 X85.385 Y183.34 E16.69429
G1 X85.299 Y183.368 E16.6985
G1 X84.667 Y183.571 E16.72941
G1 X84.498 Y183.623 E16.73765
G1 X84.168 Y183.719 E16.75365
G1 X83.98 Y183.771 E16.76273
G1 X81.827 Y184.327 E16.86627
G1 X81.736 Y184.349 E16.87063
G1 X81.085 Y184.507 E16.90183
G1 X80.926 Y184.544 E16.90943
G1 X80.611 Y184.612 E16.92443
G1 X80.409 Y184.652 E16.93402
G1 X78.205 Y185.054 E17.03834
G1 X78.115 Y185.07 E17.0426
G1 X77.447 Y185.182 E17.07414
G1 X77.277 Y185.208 E17.08215
G1 X76.963 Y185.252 E17.09691
G1 X76.767 Y185.277 E17.10611
G1 X74.605 Y185.512 E17.20737
G1 X74.514 Y185.521 E17.21163
G1 X73.751 Y185.593 E17.24732
G1 X73.578 Y185.607 E17.2554
G1 X73.265 Y185.628 E17.27001
G1 X73.068 Y185.638 E17.27919
G1 X70.853 Y185.718 E17.3824
G1 X70.765 Y185.72 E17.3865
G1 X70.092 Y185.735 E17.41784
G1 X69.912 Y185.737 E17.42623
G1 X69.564 Y185.735 E17.44243
G1 X69.369 Y185.731 E17.45151
G1 X67.16 Y185.651 E17.55444
G1 X67.071 Y185.647 E17.55859
G1 X66.414 Y185.614 E17.58922
G1 X66.229 Y185.602 E17.59785
G1 X65.851 Y185.572 E17.61551
G1 X65.666 Y185.555 E17.62416
G1 X63.52 Y185.322 E17.72467
G1 X63.421 Y185.31 E17.72932
G1 X62.689 Y185.219 E17.76366
G1 X62.527 Y185.197 E17.77128
G1 X62.208 Y185.149 E17.7863
G1 X62.011 Y185.116 E17.7956
G1 X59.82 Y184.716 E17.89931
G1 X59.729 Y184.699 E17.90362
G1 X59.076 Y184.57 E17.93461
G1 X58.902 Y184.533 E17.9429
G1 X58.571 Y184.458 E17.9587
G1 X58.387 Y184.413 E17.96752
G1 X56.274 Y183.868 E18.06913
G1 X56.183 Y183.844 E18.07351
G1 X55.503 Y183.658 E18.10634
G1 X55.331 Y183.608 E18.11468
G1 X54.979 Y183.501 E18.13181
G1 X54.795 Y183.443 E18.14079
G1 X52.707 Y182.739 E18.2434
G1 X52.617 Y182.708 E18.24783
G1 X51.981 Y182.483 E18.27924
G1 X51.826 Y182.425 E18.28695
G1 X51.539 Y182.315 E18.30126
G1 X51.354 Y182.241 E18.31054
G1 X49.341 Y181.397 E18.41218
G1 X49.259 Y181.362 E18.41633
G1 X48.566 Y181.06 E18.45153
G1 X48.386 Y180.978 E18.46074
G1 X48.107 Y180.846 E18.47511
G1 X47.952 Y180.77 E18.48315
G1 X45.988 Y179.775 E18.58567
G1 X45.902 Y179.731 E18.59017
G1 X45.278 Y179.403 E18.62299
G1 X45.121 Y179.318 E18.63131
G1 X44.838 Y179.159 E18.64642
