;FLAVOR:Marlin
;TIME:4749
;Filament used: 4.92573m
;Layer height: 0.2
;MINX:65.193
;MINY:73.232
;MINZ:0.2
;MAXX:132.4
;MAXY:156.944
;MAXZ:32
;Generated with Cura_SteamEngine 4.4.0
M140 S60
M105
M190 S60
M104 S200
M105
M109 S200
M82 ;absolute extrusion mode
G21 ;metric values
G90 ;absolute positioning
M82 ;set extruder to absolute mode
M107 ;start with the fan off
G28 X0 Y0 ;move X/Y to min endstops
G28 Z0 ;move Z to min endstops
G1 Z15.0 F100 ;move the platform down 15mm
G92 E0 ;zero the extruded length
G1 F200 E3 ;extrude 3mm of feed stock
G92 E0 ;zero the extruded length again
G1 F100
G0 Y20 F100
M117 Printing...
G5
G92 E0
G92 E0
G1 F2400 E-6
;LAYER_COUNT:160
;LAYER:0
M106 S255
M204 S3000
M205 X10 Y10
G1 F600 Z0.275
G0 F3000 X79.541 Y75.06 Z0.275
M204 S1800
M205 X8 Y8
;TYPE:SKIRT
G1 F600 Z0.2
G1 F2400 E0
G1 X80.08 Y74.59 E0.0333
G1 X80.668 Y74.183 E0.0666
G1 X81.298 Y73.844 E0.09991
G1 X81.962 Y73.578 E0.13322
G1 X82.651 Y73.387 E0.16651
G1 X83.358 Y73.274 E0.19985
G1 X83.83 Y73.244 E0.22187
G1 X84.15 Y73.235 E0.23678
G1 X84.33 Y73.232 E0.24516
G1 X125.293 Y73.232 E2.15257
G1 X125.385 Y73.233 E2.15685
G1 X126.083 Y73.243 E2.18936
G1 X126.796 Y73.293 E2.22264
G1 X127.5 Y73.422 E2.25597
G1 X128.184 Y73.63 E2.28926
G1 X128.841 Y73.912 E2.32255
G1 X129.463 Y74.266 E2.35588
G1 X130.041 Y74.687 E2.38917
G1 X130.569 Y75.17 E2.42249
G1 X131.039 Y75.708 E2.45576
G1 X131.447 Y76.296 E2.48908
G1 X131.786 Y76.926 E2.5224
G1 X132.053 Y77.589 E2.55568
G1 X132.244 Y78.279 E2.58902
G1 X132.357 Y78.985 E2.62231
G1 X132.388 Y79.462 E2.64457
G1 X132.397 Y79.782 E2.65947
G1 X132.4 Y79.962 E2.66786
G1 X132.4 Y90.906 E3.17745
G1 X132.399 Y90.995 E3.1816
G1 X132.389 Y91.712 E3.21499
G1 X132.339 Y92.426 E3.24832
G1 X132.21 Y93.129 E3.2816
G1 X131.934 Y93.996 E3.32396
G1 X131.434 Y95.248 E3.38674
G1 X130.375 Y97.99 E3.52361
G1 X129.502 Y100.481 E3.64652
G1 X128.703 Y102.974 E3.76842
G1 X127.966 Y105.524 E3.89202
G1 X127.302 Y108.086 E4.01526
G1 X126.709 Y110.68 E4.13916
G1 X126.185 Y113.297 E4.26344
G1 X125.75 Y115.871 E4.38499
G1 X125.381 Y118.484 E4.50787
G1 X125.082 Y121.148 E4.6327
G1 X124.862 Y123.756 E4.75457
G1 X124.717 Y126.392 E4.8775
G1 X124.671 Y128.208 E4.96209
G1 X124.67 Y128.252 E4.96414
G1 X124.625 Y129.653 E5.02941
G1 X124.562 Y130.366 E5.06274
G1 X124.42 Y131.067 E5.09604
G1 X124.201 Y131.748 E5.12935
G1 X124.046 Y132.114 E5.14786
G1 X123.942 Y132.341 E5.15948
G1 X123.609 Y132.973 E5.19275
G1 X123.206 Y133.565 E5.22609
G1 X122.741 Y134.108 E5.25938
G1 X122.217 Y134.595 E5.29269
G1 X121.643 Y135.021 E5.32598
G1 X121.256 Y135.256 E5.34706
G1 X121.019 Y135.389 E5.35971
G1 X120.377 Y135.704 E5.39301
G1 X119.564 Y135.984 E5.43305
G1 X118.682 Y136.223 E5.4756
G1 X116.1 Y136.96 E5.60063
G1 X113.573 Y137.758 E5.72403
G1 X111.041 Y138.637 E5.84883
G1 X108.576 Y139.572 E5.97159
G1 X106.147 Y140.574 E6.09394
G1 X103.744 Y141.644 E6.21643
G1 X101.336 Y142.799 E6.34079
G1 X98.973 Y144.017 E6.46457
G1 X96.636 Y145.306 E6.58885
G1 X94.405 Y146.62 E6.70941
G1 X92.136 Y148.045 E6.83418
G1 X89.929 Y149.519 E6.95776
G1 X87.777 Y151.046 E7.08063
G1 X85.678 Y152.626 E7.20296
G1 X83.588 Y154.295 E7.3275
G1 X82.807 Y154.954 E7.37508
G1 X82.732 Y155.016 E7.37962
G1 X82.193 Y155.457 E7.41204
G1 X81.615 Y155.879 E7.44537
G1 X80.993 Y156.233 E7.47869
G1 X80.069 Y156.606 E7.52509
G1 X79.933 Y156.649 E7.53173
G1 X79.24 Y156.826 E7.56504
G1 X78.532 Y156.925 E7.59833
G1 X77.817 Y156.944 E7.63163
G1 X77.104 Y156.883 E7.66495
G1 X76.403 Y156.743 E7.69824
G1 X75.446 Y156.414 E7.74536
G1 X75.196 Y156.305 E7.75806
G1 X74.557 Y155.983 E7.79138
G1 X73.959 Y155.591 E7.82467
G1 X73.397 Y155.126 E7.85864
G1 X72.577 Y154.364 E7.91076
G1 X72.418 Y154.211 E7.92104
G1 X67.559 Y149.373 E8.24032
G1 X67.499 Y149.313 E8.24427
G1 X67.013 Y148.816 E8.27664
G1 X66.542 Y148.277 E8.30997
G1 X66.135 Y147.689 E8.34327
G1 X65.795 Y147.06 E8.37656
G1 X65.528 Y146.396 E8.40989
G1 X65.337 Y145.707 E8.44318
G1 X65.223 Y145.001 E8.47648
G1 X65.193 Y144.115 E8.51776
G1 X65.199 Y143.945 E8.52568
G1 X65.264 Y143.233 E8.55897
G1 X65.408 Y142.532 E8.59229
G1 X65.63 Y141.852 E8.6256
G1 X65.964 Y141.129 E8.66269
G1 X66.441 Y140.246 E8.70942
G1 X67.661 Y137.908 E8.83222
G1 X68.816 Y135.536 E8.95507
G1 X69.924 Y133.082 E9.08044
G1 X70.928 Y130.682 E9.20158
G1 X71.903 Y128.156 E9.32766
G1 X72.773 Y125.689 E9.44947
G1 X73.582 Y123.176 E9.5724
G1 X74.324 Y120.627 E9.69602
G1 X74.991 Y118.066 E9.81924
G1 X75.578 Y115.521 E9.94086
G1 X76.111 Y112.876 E10.0665
G1 X76.554 Y110.284 E10.18894
G1 X76.925 Y107.678 E10.31151
G1 X77.227 Y105.03 E10.43562
G1 X77.451 Y102.41 E10.55806
G1 X77.603 Y99.731 E10.683
G1 X77.678 Y97.125 E10.8044
G1 X77.678 Y94.464 E10.92831
G1 X77.646 Y92.953 E10.99868
G1 X77.603 Y91.477 E11.06744
G1 X77.6 Y91.289 E11.0762
G1 X77.6 Y80.306 E11.58761
G1 X77.601 Y80.21 E11.59208
G1 X77.611 Y79.545 E11.62305
G1 X77.661 Y78.831 E11.65638
G1 X77.791 Y78.128 E11.68967
G1 X77.999 Y77.444 E11.72296
G1 X78.282 Y76.787 E11.75627
G1 X78.636 Y76.165 E11.78959
G1 X79.058 Y75.587 E11.82292
G1 X79.541 Y75.06 E11.8562
M204 S3000
M205 X10 Y10
G0 F3000 X80.088 Y75.314
M204 S1800
M205 X8 Y8
G1 F2400 X80.62 Y74.886 E11.888
G1 X81.199 Y74.522 E11.91984
G1 X81.816 Y74.229 E11.95165
G1 X82.463 Y74.01 E11.98345
G1 X83.131 Y73.868 E12.01525
G1 X83.846 Y73.803 E12.04868
G1 X84.166 Y73.794 E12.06359
G1 X84.33 Y73.792 E12.07123
G1 X125.293 Y73.792 E13.97864
G1 X125.377 Y73.793 E13.98255
G1 X126.075 Y73.803 E14.01505
G1 X126.756 Y73.852 E14.04685
G1 X127.427 Y73.981 E14.07866
G1 X128.078 Y74.188 E14.11047
G1 X128.701 Y74.469 E14.1423
G1 X129.287 Y74.821 E14.17413
G1 X129.827 Y75.239 E14.20592
G1 X130.315 Y75.717 E14.23773
G1 X130.744 Y76.249 E14.26956
G1 X131.108 Y76.827 E14.30136
G1 X131.402 Y77.444 E14.33319
G1 X131.621 Y78.091 E14.36499
G1 X131.764 Y78.759 E14.3968
G1 X131.829 Y79.478 E14.43042
G1 X131.838 Y79.798 E14.44532
G1 X131.84 Y79.962 E14.45296
G1 X131.84 Y90.906 E14.96256
G1 X131.839 Y90.987 E14.96633
G1 X131.829 Y91.704 E14.99972
G1 X131.78 Y92.386 E15.03156
G1 X131.651 Y93.057 E15.06338
G1 X131.414 Y93.788 E15.09916
G1 X130.887 Y95.108 E15.16534
G1 X129.848 Y97.799 E15.29966
G1 X128.986 Y100.258 E15.421
G1 X128.161 Y102.835 E15.54699
G1 X127.426 Y105.371 E15.66994
G1 X126.757 Y107.956 E15.79427
G1 X126.164 Y110.548 E15.91808
G1 X125.635 Y113.197 E16.04387
G1 X125.198 Y115.779 E16.16581
G1 X124.821 Y118.447 E16.29127
G1 X124.526 Y121.073 E16.41432
G1 X124.304 Y123.713 E16.53768
G1 X124.157 Y126.38 E16.66206
G1 X124.111 Y128.194 E16.74655
G1 X124.11 Y128.234 E16.74842
G1 X124.065 Y129.635 E16.81369
G1 X124.003 Y130.316 E16.84553
G1 X123.862 Y130.984 E16.87732
G1 X123.537 Y131.88 E16.9217
G1 X123.433 Y132.107 E16.93333
G1 X123.113 Y132.711 E16.96515
G1 X122.724 Y133.273 E16.99698
G1 X122.273 Y133.785 E17.02875
G1 X121.764 Y134.242 E17.0606
G1 X120.982 Y134.768 E17.10449
G1 X120.745 Y134.901 E17.11714
G1 X120.131 Y135.2 E17.14894
G1 X119.417 Y135.444 E17.18408
G1 X118.54 Y135.682 E17.22639
G1 X115.933 Y136.426 E17.35263
G1 X113.387 Y137.23 E17.47695
G1 X110.879 Y138.101 E17.60058
G1 X108.372 Y139.051 E17.72542
G1 X105.914 Y140.065 E17.84923
G1 X103.481 Y141.149 E17.97325
G1 X101.087 Y142.297 E18.09688
G1 X98.696 Y143.53 E18.22215
G1 X96.4 Y144.795 E18.34421
G1 X94.101 Y146.15 E18.46848
G1 X91.825 Y147.579 E18.59361
G1 X89.612 Y149.057 E18.71753
G1 X87.476 Y150.573 E18.83949
G1 X85.294 Y152.216 E18.96668
G1 X83.235 Y153.859 E19.08934
G1 X82.445 Y154.526 E19.13748
G1 X82.377 Y154.583 E19.14161
G1 X81.838 Y155.024 E19.17404
G1 X81.285 Y155.425 E19.20585
G1 X80.689 Y155.759 E19.23766
G1 X79.901 Y156.072 E19.27714
G1 X79.765 Y156.115 E19.28379
G1 X79.102 Y156.283 E19.31563
G1 X78.425 Y156.372 E19.34743
G1 X77.742 Y156.381 E19.37923
G1 X77.062 Y156.311 E19.41107
G1 X76.395 Y156.161 E19.4429
G1 X75.67 Y155.9 E19.47878
G1 X75.42 Y155.791 E19.49148
G1 X74.811 Y155.482 E19.52328
G1 X74.242 Y155.104 E19.55509
G1 X73.779 Y154.716 E19.58321
G1 X72.959 Y153.954 E19.63534
G1 X72.813 Y153.814 E19.64476
G1 X67.954 Y148.976 E19.96404
G1 X67.9 Y148.921 E19.96763
G1 X67.414 Y148.424 E20
G1 X66.965 Y147.908 E20.03185
G1 X66.58 Y147.344 E20.06364
G1 X66.264 Y146.738 E20.09547
G1 X66.02 Y146.1 E20.12728
G1 X65.853 Y145.438 E20.15907
G1 X65.764 Y144.76 E20.19091
G1 X65.753 Y144.135 E20.22001
G1 X65.759 Y143.965 E20.22794
G1 X65.823 Y143.285 E20.25974
G1 X65.966 Y142.617 E20.29155
G1 X66.186 Y141.97 E20.32337
G1 X66.457 Y141.395 E20.35297
G1 X66.908 Y140.561 E20.39712
G1 X68.176 Y138.131 E20.52475
G1 X69.329 Y135.762 E20.64743
G1 X70.418 Y133.351 E20.77062
G1 X71.471 Y130.834 E20.89766
G1 X72.419 Y128.378 E21.02025
G1 X73.303 Y125.869 E21.14412
G1 X74.124 Y123.32 E21.26881
G1 X74.853 Y120.813 E21.39038
G1 X75.535 Y118.197 E21.51627
G1 X76.13 Y115.612 E21.63978
G1 X76.662 Y112.977 E21.76496
G1 X77.105 Y110.383 E21.88749
G1 X77.485 Y107.716 E22.01293
G1 X77.783 Y105.103 E22.13539
G1 X78.009 Y102.457 E22.25905
G1 X78.161 Y99.777 E22.38404
G1 X78.238 Y97.106 E22.50847
G1 X78.238 Y94.452 E22.63205
G1 X78.206 Y92.941 E22.70242
G1 X78.207 Y92.941 E22.70247
G1 X78.163 Y91.461 E22.77142
G1 X78.16 Y91.289 E22.77943
G1 X78.16 Y80.306 E23.29084
G1 X78.161 Y80.218 E23.29494
G1 X78.171 Y79.553 E23.32591
G1 X78.221 Y78.872 E23.3577
G1 X78.35 Y78.201 E23.38952
G1 X78.557 Y77.55 E23.42133
G1 X78.839 Y76.927 E23.45317
G1 X79.191 Y76.342 E23.48496
G1 X79.609 Y75.802 E23.51676
G1 X80.088 Y75.314 E23.5486
M204 S3000
M205 X10 Y10
G0 F3000 X80.16 Y76.028
M204 S1800
M205 X8 Y8
G1 F2400 X80.633 Y75.582 E23.57887
G1 X81.157 Y75.198 E23.60912
G1 X81.724 Y74.882 E23.63935
G1 X82.326 Y74.637 E23.66961
G1 X82.953 Y74.468 E23.69985
G1 X83.862 Y74.363 E23.74246
G1 X84.182 Y74.354 E23.75737
G1 X84.33 Y74.352 E23.76426
G1 X125.293 Y74.352 E25.67167
G1 X125.369 Y74.353 E25.67521
G1 X126.067 Y74.363 E25.70771
G1 X126.714 Y74.412 E25.73792
G1 X127.351 Y74.54 E25.76818
G1 X127.967 Y74.746 E25.79842
G1 X128.554 Y75.026 E25.82871
G1 X129.101 Y75.375 E25.85892
G1 X129.602 Y75.789 E25.88918
G1 X130.047 Y76.262 E25.91942
G1 X130.432 Y76.786 E25.9497
G1 X130.749 Y77.353 E25.97995
G1 X130.994 Y77.954 E26.01017
G1 X131.163 Y78.581 E26.04041
G1 X131.269 Y79.494 E26.08321
G1 X131.278 Y79.814 E26.09811
G1 X131.28 Y79.962 E26.105
G1 X131.28 Y90.906 E26.6146
G1 X131.279 Y90.98 E26.61805
G1 X131.269 Y91.697 E26.65144
G1 X131.22 Y92.344 E26.68165
G1 X131.092 Y92.981 E26.71191
G1 X130.894 Y93.581 E26.74133
G1 X130.367 Y94.901 E26.80751
G1 X129.322 Y97.609 E26.94267
G1 X128.441 Y100.123 E27.06671
G1 X127.633 Y102.643 E27.18994
G1 X126.887 Y105.22 E27.31486
G1 X126.211 Y107.835 E27.44063
G1 X125.618 Y110.423 E27.56426
G1 X125.084 Y113.097 E27.69123
G1 X124.641 Y115.711 E27.81468
G1 X124.27 Y118.341 E27.93836
G1 X123.967 Y121.037 E28.06469
G1 X123.746 Y123.67 E28.18772
G1 X123.597 Y126.368 E28.31354
G1 X123.551 Y128.18 E28.39795
G1 X123.55 Y128.217 E28.39967
G1 X123.505 Y129.618 E28.46494
G1 X123.445 Y130.264 E28.49515
G1 X123.305 Y130.899 E28.52543
G1 X123.028 Y131.647 E28.56257
G1 X122.924 Y131.874 E28.5742
G1 X122.618 Y132.447 E28.60444
G1 X122.243 Y132.978 E28.63471
G1 X121.807 Y133.459 E28.66494
G1 X121.314 Y133.882 E28.69519
G1 X120.708 Y134.28 E28.72895
G1 X120.471 Y134.413 E28.7416
G1 X119.886 Y134.695 E28.77184
G1 X119.27 Y134.904 E28.80213
G1 X118.349 Y135.154 E28.84657
G1 X115.778 Y135.887 E28.97106
G1 X113.212 Y136.698 E29.09637
G1 X110.673 Y137.579 E29.22151
G1 X108.168 Y138.529 E29.34626
G1 X105.693 Y139.55 E29.47093
G1 X103.261 Y140.633 E29.59489
G1 X100.825 Y141.802 E29.72071
G1 X98.463 Y143.02 E29.84445
G1 X96.097 Y144.323 E29.97023
G1 X93.796 Y145.679 E30.09459
G1 X91.555 Y147.086 E30.2178
G1 X89.296 Y148.595 E30.3443
G1 X87.11 Y150.146 E30.46911
G1 X84.966 Y151.761 E30.5941
G1 X82.89 Y153.418 E30.71778
G1 X82.084 Y154.098 E30.76688
G1 X82.022 Y154.149 E30.77062
G1 X81.483 Y154.59 E30.80305
G1 X80.956 Y154.97 E30.8333
G1 X80.387 Y155.282 E30.86352
G1 X79.732 Y155.538 E30.89627
G1 X79.596 Y155.581 E30.90291
G1 X78.965 Y155.739 E30.9332
G1 X78.321 Y155.817 E30.9634
G1 X77.671 Y155.816 E30.99367
G1 X77.026 Y155.736 E31.02394
G1 X76.397 Y155.576 E31.05416
G1 X75.894 Y155.387 E31.07918
G1 X75.644 Y155.278 E31.09188
G1 X75.065 Y154.982 E31.12216
G1 X74.528 Y154.618 E31.15236
G1 X74.16 Y154.306 E31.17483
G1 X73.34 Y153.544 E31.22695
G1 X73.209 Y153.418 E31.23542
G1 X68.35 Y148.58 E31.5547
G1 X68.3 Y148.53 E31.55799
G1 X67.814 Y148.033 E31.59036
G1 X67.389 Y147.541 E31.62063
G1 X67.028 Y147.001 E31.65088
G1 X66.736 Y146.421 E31.68112
G1 X66.517 Y145.809 E31.71138
G1 X66.375 Y145.175 E31.74164
G1 X66.312 Y144.529 E31.77186
G1 X66.312 Y144.155 E31.78928
G1 X66.318 Y143.985 E31.7972
G1 X66.381 Y143.338 E31.82747
G1 X66.523 Y142.704 E31.85772
G1 X66.741 Y142.092 E31.88797
G1 X66.949 Y141.661 E31.91025
G1 X67.426 Y140.778 E31.95699
G1 X68.66 Y138.416 E32.08108
G1 X69.835 Y136 E32.20617
G1 X70.943 Y133.547 E32.33151
G1 X71.977 Y131.078 E32.45615
G1 X72.956 Y128.539 E32.58286
G1 X73.826 Y126.072 E32.70467
G1 X74.651 Y123.51 E32.83
G1 X75.398 Y120.943 E32.95449
G1 X76.081 Y118.32 E33.0807
G1 X76.676 Y115.739 E33.20403
G1 X77.212 Y113.085 E33.33011
G1 X77.662 Y110.446 E33.45476
G1 X78.036 Y107.82 E33.57828
G1 X78.342 Y105.148 E33.70351
G1 X78.57 Y102.464 E33.82894
G1 X78.721 Y99.825 E33.95202
G1 X78.798 Y97.122 E34.07793
G1 X78.798 Y94.44 E34.20282
G1 X78.766 Y92.929 E34.27319
G1 X78.722 Y91.444 E34.34237
G1 X78.72 Y91.289 E34.34959
G1 X78.72 Y80.306 E34.86101
G1 X78.721 Y80.227 E34.86468
G1 X78.731 Y79.562 E34.89565
G1 X78.78 Y78.914 E34.92591
G1 X78.909 Y78.277 E34.95618
G1 X79.115 Y77.661 E34.98642
G1 X79.395 Y77.075 E35.01666
G1 X79.745 Y76.528 E35.0469
G1 X80.16 Y76.028 E35.07716
M204 S3000
M205 X10 Y10
G1 F2400 E29.07716
G0 F3000 X83.339 Y91.742
G0 X100.28 Y92.612
M204 S1800
M205 X8 Y8
;TYPE:SUPPORT
G1 F2400 E35.07716
G1 F1500 X109.72 Y92.612 E35.51672
G1 X109.72 Y101.626 E35.93645
G1 X109.689 Y102.029 E35.95527
G1 X109.614 Y102.399 E35.97285
G1 X109.493 Y102.722 E35.98891
G1 X109.293 Y103.085 E36.00821
G1 X109.036 Y103.43 E36.02824
G1 X108.784 Y103.682 E36.04484
G1 X108.472 Y103.918 E36.06306
G1 X108.124 Y104.109 E36.08154
G1 X107.772 Y104.239 E36.09901
G1 X107.365 Y104.329 E36.11842
G1 X107.059 Y104.352 E36.13271
G1 X103.07 Y104.352 E36.31846
G1 X102.649 Y104.331 E36.33808
G1 X102.232 Y104.237 E36.35799
G1 X101.885 Y104.114 E36.37513
G1 X101.524 Y103.912 E36.39439
G1 X101.243 Y103.702 E36.41073
G1 X100.935 Y103.403 E36.43072
G1 X100.697 Y103.086 E36.44917
G1 X100.51 Y102.738 E36.46757
G1 X100.395 Y102.42 E36.48332
G1 X100.308 Y101.989 E36.50379
G1 X100.28 Y101.299 E36.53595
G1 X100.28 Y92.612 E36.94045
M204 S3000
M205 X10 Y10
G0 F3000 X100.499 Y94.973
M204 S1800
M205 X8 Y8
G1 F1500 X109.5 Y100.17 E37.42442
M204 S3000
M205 X10 Y10
G0 F3000 X108.421 Y103.679
M204 S1800
M205 X8 Y8
G1 F1500 X108.013 Y103.915 E37.44637
M204 S3000
M205 X10 Y10
G0 F3000 X104 Y104.132
M204 S1800
M205 X8 Y8
G1 F1500 X104 Y92.832 E37.97254
M204 S3000
M205 X10 Y10
G0 F3000 X109.498 Y93.82
M204 S1800
M205 X8 Y8
G1 F1500 X100.499 Y99.015 E38.45638
M204 S3000
M205 X10 Y10
G1 F2400 E32.45638
G0 F3000 X92.329 Y103.415
G0 X91.746 Y104.223
G0 X91.406 Y127.417
M204 S1800
M205 X8 Y8
G1 F2400 E38.45638
G1 F1500 X91.399 Y130.065 E38.57968
G1 X91.534 Y130.201 E38.58861
G1 X91.534 Y130.227 E38.58982
G1 X91.98 Y130.673 E38.61919
G1 X92 Y130.673 E38.62012
G1 X92.134 Y130.808 E38.62898
G1 X94.302 Y130.807 E38.72993
G1 X93.693 Y131.416 E38.77003
G1 X93.696 Y131.905 E38.7928
G1 X83.762 Y141.834 E39.44681
G1 X83.639 Y142.381 E39.47291
