;FLAVOR:Marlin
;TIME:4570
;Filament used: 3.47863m
;Layer height: 0.2
;MINX:80.419
;MINY:55.8
;MINZ:0.2
;MAXX:129.581
;MAXY:154.2
;MAXZ:49
;Generated with Cura_SteamEngine 4.4.1
M140 S70
M105
M190 S70
M104 S210
M105
M109 S210
M82 ;absolute extrusion mode
G21 ;metric values
G90 ;absolute positioning
M82 ;set extruder to absolute mode
M107 ;start with the fan off
G28 X0 Y0 ;move X/Y to min endstops
G28 Z0 ;move Z to min endstops
G1 Z15.0 F100 ;move the platform down 15mm
G92 E0 ;zero the extruded length
G1 F200 E3 ;extrude 3mm of feed stock
G92 E0 ;zero the extruded length again
G1 F100
G0 Y20 F100
M117 Printing...
G5
G92 E0
G92 E0
G1 F2400 E-6
;LAYER_COUNT:245
;LAYER:0
M106 S255
M204 S3000
M205 X10 Y10
G1 F600 Z0.275
G0 F3000 X93.924 Y57.961 Z0.275
M204 S1800
M205 X8 Y8
;TYPE:SKIRT
G1 F600 Z0.2
G1 F2400 E0
G1 X94.261 Y57.49 E0.02697
G1 X94.53 Y57.194 E0.04559
G1 X94.694 Y57.03 E0.05639
G1 X95.131 Y56.65 E0.08336
G1 X95.616 Y56.333 E0.11034
G1 X96.14 Y56.086 E0.13731
G1 X96.693 Y55.914 E0.16428
G1 X97.265 Y55.819 E0.19128
G1 X97.664 Y55.8 E0.20988
G1 X112.336 Y55.8 E0.89307
G1 X112.914 Y55.84 E0.92005
G1 X113.481 Y55.959 E0.94702
G1 X114.026 Y56.155 E0.97399
G1 X114.539 Y56.424 E1.00096
G1 X115.01 Y56.761 E1.02793
G1 X115.43 Y57.16 E1.05491
G1 X115.792 Y57.613 E1.08191
G1 X116.087 Y58.111 E1.10886
G1 X116.312 Y58.645 E1.13584
G1 X116.46 Y59.205 E1.16281
G1 X116.536 Y59.989 E1.19949
G1 X116.689 Y115.8 E3.7983
G1 X124.381 Y115.8 E4.15647
G1 X125.153 Y115.872 E4.19257
G1 X125.522 Y115.941 E4.21005
G1 X126.083 Y116.086 E4.23703
G1 X126.858 Y116.437 E4.27665
G1 X127.144 Y116.603 E4.29205
G1 X127.624 Y116.927 E4.31901
G1 X128.236 Y117.515 E4.35853
G1 X128.446 Y117.762 E4.37363
G1 X128.79 Y118.228 E4.4006
G1 X129.151 Y118.935 E4.43756
G1 X129.275 Y119.248 E4.45324
G1 X129.45 Y119.8 E4.4802
G1 X129.562 Y120.538 E4.51496
G1 X129.581 Y120.848 E4.52942
G1 X129.568 Y121.523 E4.56086
G1 X126.798 Y149.231 E5.85749
G1 X126.778 Y149.401 E5.86546
G1 X126.712 Y149.868 E5.88742
G1 X126.591 Y150.434 E5.91437
G1 X126.33 Y151.117 E5.94842
G1 X126.186 Y151.413 E5.96375
G1 X125.897 Y151.916 E5.99076
G1 X125.392 Y152.533 E6.02789
G1 X125.165 Y152.762 E6.0429
G1 X124.73 Y153.144 E6.06986
G1 X124.055 Y153.564 E6.10688
G1 X123.76 Y153.711 E6.12222
G1 X123.225 Y153.933 E6.1492
G1 X122.544 Y154.1 E6.18184
G1 X122.241 Y154.148 E6.19613
G1 X121.584 Y154.2 E6.22682
G1 X88.812 Y154.2 E7.75282
G1 X88.719 Y154.199 E7.75715
G1 X88.176 Y154.187 E7.78244
G1 X87.599 Y154.134 E7.80942
G1 X86.914 Y153.963 E7.8423
G1 X86.562 Y153.843 E7.85961
G1 X86.028 Y153.619 E7.88658
G1 X85.529 Y153.323 E7.91359
G1 X85.269 Y153.128 E7.92873
G1 X85.013 Y152.92 E7.94409
G1 X84.589 Y152.524 E7.9711
G1 X84.121 Y151.921 E8.00664
G1 X83.946 Y151.647 E8.02178
G1 X83.669 Y151.138 E8.04877
G1 X83.421 Y150.444 E8.08308
G1 X83.345 Y150.152 E8.09713
G1 X83.231 Y149.512 E8.1274
G1 X80.46 Y121.797 E9.42436
G1 X80.445 Y121.61 E9.4331
G1 X80.419 Y121.137 E9.45516
G1 X80.428 Y120.557 E9.48217
G1 X80.56 Y119.803 E9.51781
G1 X80.646 Y119.487 E9.53306
G1 X80.837 Y118.94 E9.56004
G1 X81.201 Y118.266 E9.59571
G1 X81.385 Y117.989 E9.61119
G1 X81.738 Y117.53 E9.63816
G1 X82.371 Y116.947 E9.67823
G1 X82.635 Y116.75 E9.69357
G1 X83.122 Y116.436 E9.72055
G1 X83.849 Y116.122 E9.75742
G1 X84.166 Y116.019 E9.77294
G1 X84.728 Y115.878 E9.79992
G1 X85.385 Y115.814 E9.83066
G1 X86.073 Y115.801 E9.8627
G1 X86.152 Y115.8 E9.86638
G1 X93.3 Y115.8 E10.19922
G1 X93.3 Y60.164 E12.78987
G1 X93.34 Y59.586 E12.81685
G1 X93.459 Y59.019 E12.84382
G1 X93.655 Y58.474 E12.87079
G1 X93.924 Y57.961 E12.89776
M204 S3000
M205 X10 Y10
G0 F3000 X94.482 Y58.129
M204 S1800
M205 X8 Y8
G1 F2400 X94.926 Y57.59 E12.93028
G1 X95.09 Y57.426 E12.94108
G1 X95.499 Y57.074 E12.96621
G1 X95.955 Y56.786 E12.99132
G1 X96.448 Y56.569 E13.0164
G1 X96.968 Y56.427 E13.0415
G1 X97.664 Y56.36 E13.07406
G1 X112.336 Y56.36 E13.75725
G1 X112.874 Y56.4 E13.78237
G1 X113.4 Y56.519 E13.80748
G1 X113.902 Y56.714 E13.83256
G1 X114.371 Y56.982 E13.85771
G1 X114.794 Y57.315 E13.88278
G1 X115.164 Y57.708 E13.90791
G1 X115.471 Y58.151 E13.93301
G1 X115.71 Y58.635 E13.95815
G1 X115.875 Y59.148 E13.98324
G1 X115.962 Y59.68 E14.00834
G1 X115.976 Y59.99 E14.02279
G1 X116.13 Y116.36 E16.64762
G1 X124.381 Y116.36 E17.03182
G1 X125.05 Y116.422 E17.06311
G1 X125.419 Y116.491 E17.08059
G1 X125.94 Y116.629 E17.10568
G1 X126.577 Y116.921 E17.13831
G1 X126.863 Y117.087 E17.15371
G1 X127.308 Y117.391 E17.17881
G1 X127.809 Y117.877 E17.21131
G1 X128.019 Y118.124 E17.2264
G1 X128.337 Y118.56 E17.25153
G1 X128.63 Y119.141 E17.28183
G1 X128.754 Y119.454 E17.29751
G1 X128.915 Y119.969 E17.32263
G1 X129.003 Y120.572 E17.35101
G1 X129.022 Y120.882 E17.36547
G1 X129.011 Y121.467 E17.39272
G1 X126.241 Y149.175 E18.68935
G1 X126.223 Y149.322 E18.69624
G1 X126.157 Y149.789 E18.71821
G1 X126.042 Y150.316 E18.74332
G1 X125.826 Y150.872 E18.7711
G1 X125.682 Y151.168 E18.78642
G1 X125.411 Y151.634 E18.81153
G1 X124.994 Y152.139 E18.84202
G1 X124.767 Y152.368 E18.85704
G1 X124.36 Y152.721 E18.88212
G1 X123.805 Y153.063 E18.91248
G1 X123.51 Y153.21 E18.92783
G1 X123.011 Y153.414 E18.95293
G1 X122.457 Y153.547 E18.97946
G1 X122.154 Y153.595 E18.99374
G1 X121.584 Y153.64 E19.02037
G1 X88.812 Y153.64 E20.54637
G1 X88.732 Y153.639 E20.55009
G1 X88.189 Y153.627 E20.57538
G1 X87.652 Y153.575 E20.60051
G1 X87.094 Y153.433 E20.62732
G1 X86.742 Y153.313 E20.64463
G1 X86.246 Y153.102 E20.66973
G1 X85.622 Y152.693 E20.70447
G1 X85.366 Y152.485 E20.71983
G1 X84.973 Y152.115 E20.74497
G1 X84.593 Y151.619 E20.77406
G1 X84.418 Y151.345 E20.7892
G1 X84.162 Y150.871 E20.81429
G1 X83.963 Y150.303 E20.84231
G1 X83.887 Y150.011 E20.85636
G1 X83.788 Y149.456 E20.88261
G1 X81.017 Y121.741 E22.17957
G1 X81.004 Y121.579 E22.18714
G1 X80.978 Y121.106 E22.2092
G1 X80.989 Y120.567 E22.2343
G1 X81.101 Y119.95 E22.2635
G1 X81.187 Y119.634 E22.27875
G1 X81.367 Y119.126 E22.30385
G1 X81.667 Y118.576 E22.33302
G1 X81.851 Y118.299 E22.3485
G1 X82.182 Y117.873 E22.37362
G1 X82.706 Y117.396 E22.40662
G1 X82.97 Y117.199 E22.42196
G1 X83.425 Y116.909 E22.44708
G1 X84.022 Y116.654 E22.47731
G1 X84.339 Y116.551 E22.49283
G1 X84.863 Y116.423 E22.51795
G1 X85.395 Y116.374 E22.54282
G1 X86.083 Y116.361 E22.57487
G1 X86.152 Y116.36 E22.57808
G1 X93.86 Y116.36 E22.937
G1 X93.86 Y60.164 E25.55372
G1 X93.9 Y59.626 E25.57884
G1 X94.019 Y59.1 E25.60395
G1 X94.214 Y58.598 E25.62903
G1 X94.482 Y58.129 E25.65418
M204 S3000
M205 X10 Y10
G0 F3000 X94.773 Y58.732
M204 S1800
M205 X8 Y8
G1 F2400 X95.038 Y58.313 E25.67726
G1 X95.322 Y57.986 E25.69743
G1 X95.486 Y57.822 E25.70823
G1 X95.864 Y57.501 E25.73132
G1 X96.288 Y57.244 E25.75441
G1 X96.749 Y57.059 E25.77754
G1 X97.232 Y56.95 E25.8006
G1 X97.664 Y56.92 E25.82076
G1 X112.336 Y56.92 E26.50395
G1 X112.83 Y56.96 E26.52703
G1 X113.312 Y57.079 E26.55015
G1 X113.768 Y57.273 E26.57322
G1 X114.187 Y57.538 E26.59631
G1 X114.558 Y57.868 E26.61943
G1 X114.872 Y58.252 E26.64252
G1 X115.12 Y58.682 E26.66564
G1 X115.295 Y59.145 E26.68869
G1 X115.394 Y59.632 E26.71183
G1 X115.416 Y59.992 E26.72862
G1 X115.572 Y116.92 E29.37944
G1 X124.381 Y116.92 E29.78962
G1 X124.947 Y116.972 E29.81609
G1 X125.316 Y117.041 E29.83357
G1 X125.795 Y117.172 E29.85669
G1 X126.296 Y117.405 E29.88242
G1 X126.582 Y117.571 E29.89782
G1 X126.99 Y117.854 E29.92094
G1 X127.383 Y118.24 E29.94659
G1 X127.593 Y118.487 E29.96168
G1 X127.882 Y118.889 E29.98474
G1 X128.109 Y119.348 E30.00858
G1 X128.233 Y119.661 E30.02426
G1 X128.378 Y120.135 E30.04734
G1 X128.444 Y120.607 E30.06953
G1 X128.463 Y120.917 E30.08399
G1 X128.454 Y121.411 E30.107
G1 X125.684 Y149.119 E31.40363
G1 X125.669 Y149.244 E31.40949
G1 X125.603 Y149.711 E31.43146
G1 X125.494 Y150.195 E31.45456
G1 X125.323 Y150.627 E31.47619
G1 X125.179 Y150.923 E31.49152
G1 X124.926 Y151.35 E31.51463
G1 X124.596 Y151.744 E31.53856
G1 X124.369 Y151.973 E31.55358
G1 X123.993 Y152.296 E31.57666
G1 X123.556 Y152.562 E31.60048
G1 X123.261 Y152.709 E31.61583
G1 X122.8 Y152.893 E31.63894
G1 X122.369 Y152.994 E31.65955
G1 X122.066 Y153.042 E31.67384
G1 X121.584 Y153.08 E31.69635
G1 X88.812 Y153.08 E33.22235
G1 X88.744 Y153.079 E33.22552
G1 X88.201 Y153.067 E33.25081
G1 X87.708 Y153.016 E33.27389
G1 X87.275 Y152.903 E33.29472
G1 X86.923 Y152.783 E33.31204
G1 X86.468 Y152.586 E33.33513
G1 X85.975 Y152.258 E33.3627
G1 X85.719 Y152.05 E33.37806
G1 X85.36 Y151.708 E33.40115
G1 X85.065 Y151.318 E33.42392
G1 X84.89 Y151.044 E33.43906
G1 X84.658 Y150.606 E33.46214
G1 X84.505 Y150.162 E33.484
G1 X84.429 Y149.87 E33.49805
G1 X84.345 Y149.4 E33.52029
G1 X81.574 Y121.685 E34.81725
G1 X81.564 Y121.548 E34.82364
G1 X81.538 Y121.075 E34.8457
G1 X81.55 Y120.579 E34.8688
G1 X81.641 Y120.097 E34.89164
G1 X81.727 Y119.781 E34.90689
G1 X81.895 Y119.315 E34.92996
G1 X82.133 Y118.886 E34.9528
G1 X82.317 Y118.609 E34.96829
G1 X82.624 Y118.219 E34.9914
G1 X83.041 Y117.845 E35.01748
G1 X83.305 Y117.648 E35.03282
G1 X83.725 Y117.384 E35.05592
G1 X84.195 Y117.187 E35.07965
G1 X84.512 Y117.084 E35.09517
G1 X84.995 Y116.969 E35.11829
G1 X85.406 Y116.934 E35.1375
G1 X86.094 Y116.921 E35.16954
G1 X86.152 Y116.92 E35.17224
G1 X94.42 Y116.92 E35.55723
G1 X94.42 Y60.164 E38.20003
G1 X94.46 Y59.67 E38.22311
G1 X94.579 Y59.188 E38.24623
G1 X94.773 Y58.732 E38.2693
M204 S3000
M205 X10 Y10
G0 F3000 X95.332 Y58.88
M204 S1800
M205 X8 Y8
G1 F2400 X95.718 Y58.382 E38.29864
G1 X95.882 Y58.218 E38.30944
G1 X96.226 Y57.93 E38.33033
G1 X96.616 Y57.708 E38.35123
G1 X97.039 Y57.559 E38.37211
G1 X97.664 Y57.48 E38.40144
G1 X112.336 Y57.48 E39.08463
G1 X112.783 Y57.52 E39.10553
G1 X113.215 Y57.638 E39.12638
G1 X113.62 Y57.832 E39.14729
G1 X113.984 Y58.094 E39.16818
G1 X114.296 Y58.416 E39.18906
G1 X114.546 Y58.789 E39.20996
G1 X114.726 Y59.2 E39.23086
G1 X114.83 Y59.636 E39.25173
G1 X114.856 Y59.993 E39.2684
G1 X115.013 Y117.48 E41.94524
G1 X124.381 Y117.48 E42.38145
G1 X124.844 Y117.523 E42.40311
G1 X125.213 Y117.592 E42.42059
G1 X125.645 Y117.713 E42.44148
G1 X126.015 Y117.89 E42.46058
G1 X126.301 Y118.056 E42.47597
G1 X126.667 Y118.314 E42.49682
G1 X126.956 Y118.603 E42.51586
G1 X127.166 Y118.85 E42.53095
G1 X127.425 Y119.216 E42.55183
G1 X127.589 Y119.554 E42.56932
G1 X127.713 Y119.867 E42.585
G1 X127.84 Y120.297 E42.60588
G1 X127.885 Y120.641 E42.62203
G1 X127.904 Y120.951 E42.63649
G1 X127.897 Y121.356 E42.65536
G1 X125.127 Y149.064 E43.95199
G1 X125.114 Y149.166 E43.95678
G1 X125.048 Y149.633 E43.97874
G1 X124.946 Y150.069 E43.99959
G1 X124.819 Y150.382 E44.01532
G1 X124.675 Y150.678 E44.03064
G1 X124.444 Y151.063 E44.05155
G1 X124.199 Y151.35 E44.06912
G1 X123.972 Y151.579 E44.08414
G1 X123.629 Y151.868 E44.10502
G1 X123.306 Y152.06 E44.12252
G1 X123.011 Y152.207 E44.13786
G1 X122.593 Y152.371 E44.15877
G1 X122.281 Y152.441 E44.17366
G1 X121.978 Y152.489 E44.18795
G1 X121.584 Y152.52 E44.20635
G1 X88.812 Y152.52 E45.73235
G1 X88.756 Y152.519 E45.73496
G1 X88.213 Y152.507 E45.76025
G1 X87.768 Y152.458 E45.7811
G1 X87.456 Y152.373 E45.79615
G1 X87.104 Y152.253 E45.81347
G1 X86.694 Y152.071 E45.83436
G1 X86.328 Y151.824 E45.85492
G1 X86.072 Y151.616 E45.87028
G1 X85.75 Y151.303 E45.89119
G1 X85.537 Y151.016 E45.90783
G1 X85.362 Y150.742 E45.92297
G1 X85.155 Y150.344 E45.94386
G1 X85.047 Y150.021 E45.95972
G1 X84.971 Y149.729 E45.97377
G1 X84.903 Y149.345 E45.99193
G1 X82.132 Y121.63 E47.28889
G1 X82.123 Y121.517 E47.29416
G1 X82.097 Y121.044 E47.31622
G1 X82.112 Y120.596 E47.33709
G1 X82.181 Y120.244 E47.3538
G1 X82.267 Y119.928 E47.36905
G1 X82.423 Y119.508 E47.38991
G1 X82.6 Y119.196 E47.40661
G1 X82.784 Y118.919 E47.4221
G1 X83.064 Y118.569 E47.44297
G1 X83.376 Y118.293 E47.46236
G1 X83.64 Y118.096 E47.4777
G1 X84.022 Y117.861 E47.49859
G1 X84.368 Y117.719 E47.516
G1 X84.685 Y117.616 E47.53152
G1 X85.123 Y117.516 E47.55244
G1 X85.416 Y117.493 E47.56613
G1 X86.104 Y117.48 E47.59817
G1 X94.98 Y117.48 E48.01147
G1 X94.98 Y60.164 E50.68035
G1 X95.02 Y59.717 E50.70124
G1 X95.138 Y59.285 E50.7221
G1 X95.332 Y58.88 E50.74301
M204 S3000
M205 X10 Y10
G0 F3000 X95.889 Y59.047
M204 S1800
M205 X8 Y8
G1 F2400 X96.114 Y58.778 E50.75934
G1 X96.278 Y58.614 E50.77014
G1 X96.584 Y58.364 E50.78854
G1 X96.935 Y58.181 E50.80697
G1 X97.315 Y58.071 E50.82539
G1 X97.664 Y58.04 E50.8417
G1 X112.336 Y58.04 E51.52489
G1 X112.729 Y58.08 E51.54329
G1 X113.107 Y58.198 E51.56173
G1 X113.453 Y58.389 E51.58013
G1 X113.754 Y58.646 E51.59856
G1 X113.996 Y58.959 E51.61698
G1 X114.172 Y59.313 E51.63539
G1 X114.272 Y59.696 E51.65382
G1 X114.296 Y59.995 E51.66779
G1 X114.455 Y118.04 E54.37062
G1 X124.381 Y118.04 E54.83281
G1 X124.741 Y118.073 E54.84965
G1 X125.11 Y118.142 E54.86713
G1 X125.49 Y118.254 E54.88557
G1 X125.734 Y118.374 E54.89824
G1 X126.02 Y118.54 E54.91363
G1 X126.34 Y118.772 E54.93204
G1 X126.529 Y118.965 E54.94462
G1 X126.739 Y119.212 E54.95971
G1 X126.964 Y119.538 E54.97816
G1 X127.068 Y119.76 E54.98957
G1 X127.192 Y120.073 E55.00525
G1 X127.3 Y120.454 E55.02369
G1 X127.326 Y120.675 E55.03405
G1 X127.345 Y120.985 E55.04851
G1 X127.339 Y121.3 E55.06318
G1 X124.569 Y149.008 E56.35982
G1 X124.56 Y149.087 E56.36352
G1 X124.494 Y149.554 E56.38548
G1 X124.399 Y149.938 E56.4039
G1 X124.316 Y150.137 E56.41394
G1 X124.172 Y150.433 E56.42927
G1 X123.963 Y150.77 E56.44773
G1 X123.801 Y150.956 E56.45922
G1 X123.574 Y151.185 E56.47423
G1 X123.269 Y151.436 E56.49262
G1 X123.056 Y151.559 E56.50408
G1 X122.761 Y151.706 E56.51942
G1 X122.391 Y151.846 E56.53785
G1 X122.194 Y151.888 E56.54722
G1 X121.891 Y151.936 E56.56151
G1 X121.584 Y151.96 E56.57585
G1 X88.769 Y151.96 E58.10385
G1 X88.226 Y151.948 E58.12914
G1 X87.833 Y151.899 E58.14758
G1 X87.637 Y151.843 E58.15708
G1 X87.285 Y151.723 E58.17439
G1 X86.925 Y151.558 E58.19283
G1 X86.681 Y151.389 E58.20665
G1 X86.425 Y151.181 E58.22201
G1 X86.145 Y150.902 E58.24042
G1 X86.009 Y150.715 E58.25119
G1 X85.834 Y150.441 E58.26632
G1 X85.656 Y150.088 E58.28473
G1 X85.589 Y149.88 E58.29491
G1 X85.513 Y149.588 E58.30896
G1 X85.46 Y149.289 E58.3231
G1 X82.689 Y121.574 E59.62006
G1 X82.682 Y121.487 E59.62412
G1 X82.656 Y121.014 E59.64618
G1 X82.674 Y120.619 E59.66459
G1 X82.722 Y120.391 E59.67544
G1 X82.808 Y120.075 E59.69069
G1 X82.95 Y119.706 E59.7091
G1 X83.066 Y119.506 E59.71987
G1 X83.25 Y119.229 E59.73535
G1 X83.501 Y118.923 E59.75378
G1 X83.711 Y118.742 E59.76669
G1 X83.975 Y118.545 E59.78203
G1 X84.314 Y118.342 E59.80043
G1 X84.541 Y118.252 E59.8118
G1 X84.858 Y118.149 E59.82732
G1 X85.427 Y118.053 E59.85419
G1 X86.115 Y118.04 E59.88623
G1 X95.54 Y118.04 E60.3251
G1 X95.54 Y60.164 E63.02005
G1 X95.58 Y59.771 E63.03844
G1 X95.698 Y59.393 E63.05688
G1 X95.889 Y59.047 E63.07528
M204 S3000
M205 X10 Y10
G0 F3000 X96.257 Y59.52
M204 S1800
M205 X8 Y8
G1 F2400 X96.51 Y59.174 E63.09524
G1 X96.674 Y59.01 E63.10604
G1 X96.937 Y58.804 E63.1216
G1 X97.241 Y58.665 E63.13716
G1 X97.664 Y58.6 E63.15709
G1 X112.336 Y58.6 E63.84028
G1 X112.668 Y58.64 E63.85585
G1 X112.98 Y58.757 E63.87137
G1 X113.257 Y58.945 E63.88696
G1 X113.48 Y59.193 E63.90249
G1 X113.639 Y59.487 E63.91805
G1 X113.723 Y59.811 E63.93363
G1 X113.736 Y59.996 E63.94227
G1 X113.896 Y118.6 E66.67113
G1 X124.381 Y118.6 E67.15935
G1 X124.638 Y118.624 E67.17137
G1 X125.007 Y118.693 E67.18885
G1 X125.453 Y118.858 E67.211
G1 X125.739 Y119.024 E67.22639
G1 X126.103 Y119.328 E67.24848
G1 X126.313 Y119.575 E67.26357
G1 X126.548 Y119.966 E67.28482
G1 X126.672 Y120.279 E67.30049
G1 X126.767 Y120.709 E67.321
G1 X126.786 Y121.019 E67.33546
G1 X126.782 Y121.244 E67.34594
G1 X124.012 Y148.952 E68.64257
