;FLAVOR:Marlin
;TIME:5829
;Filament used: 5.63352m
;Layer height: 0.2
;MINX:64.617
;MINY:83.907
;MINZ:0.2
;MAXX:145.417
;MAXY:125.622
;MAXZ:29.6
;Generated with Cura_SteamEngine 4.4.1
M140 S60
M105
M190 S60
M104 S200
M105
M109 S200
M82 ;absolute extrusion mode
G21 ;metric values
G90 ;absolute positioning
M82 ;set extruder to absolute mode
M107 ;start with the fan off
G28 X0 Y0 ;move X/Y to min endstops
G28 Z0 ;move Z to min endstops
G1 Z15.0 F100 ;move the platform down 15mm
G92 E0 ;zero the extruded length
G1 F200 E3 ;extrude 3mm of feed stock
G92 E0 ;zero the extruded length again
G1 F100
G0 Y20 F100
M117 Printing...
G5
G92 E0
G92 E0
G1 F2400 E-6
;LAYER_COUNT:148
;LAYER:0
M106 S255
M204 S3000
M205 X10 Y10
G1 F600 Z0.275
G0 F3000 X67.168 Y85.297 Z0.275
M204 S1800
M205 X8 Y8
;TYPE:SKIRT
G1 F600 Z0.2
G1 F2400 E0
G1 X67.753 Y84.885 E0.03332
G1 X68.38 Y84.542 E0.0666
G1 X69.042 Y84.27 E0.09992
G1 X69.73 Y84.074 E0.13323
G1 X70.435 Y83.956 E0.16652
G1 X71.023 Y83.918 E0.19395
G1 X71.581 Y83.908 E0.21994
G1 X71.696 Y83.907 E0.2253
G1 X135.045 Y83.907 E3.17509
G1 X135.139 Y83.908 E3.17947
G1 X135.956 Y83.92 E3.21752
G1 X136.915 Y84.006 E3.26235
G1 X137.742 Y84.144 E3.30139
G1 X138.44 Y84.301 E3.3347
G1 X138.939 Y84.466 E3.35918
G1 X139.144 Y84.543 E3.36937
G1 X139.595 Y84.732 E3.39214
G1 X139.958 Y84.901 E3.41079
G1 X140.589 Y85.239 E3.44412
G1 X140.937 Y85.467 E3.46349
G1 X141.445 Y85.824 E3.49241
G1 X142.006 Y86.267 E3.52569
G1 X142.318 Y86.562 E3.54568
G1 X142.731 Y86.98 E3.57305
G1 X143.204 Y87.516 E3.60633
G1 X143.494 Y87.914 E3.62926
G1 X143.858 Y88.457 E3.6597
G1 X144.223 Y89.073 E3.69304
G1 X144.484 Y89.642 E3.72219
G1 X144.723 Y90.239 E3.75214
G1 X144.873 Y90.657 E3.77282
G1 X144.939 Y90.862 E3.78284
G1 X145.12 Y91.554 E3.81615
G1 X145.213 Y92.165 E3.84493
G1 X145.281 Y92.823 E3.87573
G1 X145.314 Y93.352 E3.90041
G1 X145.324 Y93.848 E3.92351
G1 X145.325 Y93.978 E3.92957
G1 X145.324 Y101.022 E4.25756
G1 X145.412 Y105.593 E4.47045
G1 X145.413 Y105.713 E4.47604
G1 X145.417 Y114.913 E4.90443
G1 X145.416 Y115.003 E4.90862
G1 X145.407 Y115.664 E4.9394
G1 X145.358 Y116.378 E4.97272
G1 X145.229 Y117.081 E5.00601
G1 X145.022 Y117.766 E5.03933
G1 X144.732 Y118.439 E5.07345
G1 X144.161 Y119.582 E5.13294
G1 X143.681 Y120.564 E5.18384
G1 X143.653 Y120.62 E5.18676
G1 X143.167 Y121.59 E5.23728
G1 X142.811 Y122.21 E5.27057
G1 X142.586 Y122.535 E5.28897
G1 X142.457 Y122.709 E5.29906
G1 X141.841 Y123.422 E5.34293
G1 X141.689 Y123.574 E5.35294
G1 X141.156 Y124.051 E5.38625
G1 X140.42 Y124.559 E5.42789
G1 X140.288 Y124.637 E5.43503
G1 X139.653 Y124.966 E5.46833
G1 X138.985 Y125.222 E5.50164
G1 X138.293 Y125.402 E5.53494
G1 X137.585 Y125.503 E5.56824
G1 X136.923 Y125.526 E5.59908
G1 X136.22 Y125.514 E5.63182
G1 X136.13 Y125.512 E5.63601
G1 X134.994 Y125.477 E5.68894
G1 X132.327 Y125.468 E5.81312
G1 X130.955 Y125.493 E5.87702
G1 X130.315 Y125.51 E5.90683
G1 X129.6 Y125.489 E5.94014
G1 X128.613 Y125.326 E5.98672
G1 X125.984 Y124.677 E6.11281
G1 X123.411 Y124.117 E6.23543
G1 X120.848 Y123.636 E6.35685
G1 X118.188 Y123.213 E6.48227
G1 X115.596 Y122.876 E6.60398
G1 X112.959 Y122.608 E6.7274
G1 X110.326 Y122.416 E6.85033
G1 X107.652 Y122.296 E6.97497
G1 X105.044 Y122.254 E7.09643
G1 X102.367 Y122.286 E7.22109
G1 X99.726 Y122.393 E7.34416
G1 X97.084 Y122.574 E7.46748
G1 X94.459 Y122.829 E7.59028
G1 X91.838 Y123.159 E7.71329
G1 X89.216 Y123.565 E7.83684
G1 X86.596 Y124.046 E7.96087
G1 X84.033 Y124.591 E8.08289
G1 X80.925 Y125.358 E8.23195
G1 X80.705 Y125.408 E8.24245
G1 X80.476 Y125.456 E8.25335
G1 X79.769 Y125.563 E8.28664
G1 X79.07 Y125.591 E8.31922
G1 X78.654 Y125.585 E8.33859
G1 X75.938 Y125.581 E8.46506
G1 X75.338 Y125.599 E8.49301
G1 X75.243 Y125.601 E8.49744
G1 X73.838 Y125.622 E8.56287
G1 X73.123 Y125.593 E8.59619
G1 X72.236 Y125.443 E8.63808
G1 X71.98 Y125.381 E8.65034
G1 X71.125 Y125.11 E8.69211
G1 X70.805 Y124.983 E8.70814
G1 X70.156 Y124.682 E8.74145
G1 X69.714 Y124.423 E8.7653
G1 X69.472 Y124.268 E8.77868
G1 X68.892 Y123.849 E8.812
G1 X68.363 Y123.369 E8.84526
G1 X67.778 Y122.684 E8.88721
G1 X67.605 Y122.45 E8.90076
G1 X67.212 Y121.852 E8.93408
G1 X66.889 Y121.214 E8.96738
G1 X66.651 Y120.58 E8.99891
G1 X66.303 Y119.483 E9.0525
G1 X65.413 Y116.783 E9.18488
G1 X64.975 Y115.517 E9.24726
G1 X64.779 Y114.829 E9.28057
G1 X64.661 Y114.123 E9.3139
G1 X64.625 Y113.275 E9.35342
G1 X64.651 Y112.162 E9.40526
G1 X64.708 Y108.829 E9.56048
G1 X64.708 Y104.929 E9.74208
G1 X64.646 Y101.46 E9.90364
G1 X64.629 Y100.978 E9.9261
G1 X64.625 Y100.83 E9.93299
G1 X64.621 Y100.488 E9.94892
G1 X64.621 Y100.416 E9.95227
G1 X64.617 Y91.084 E10.38681
G1 X64.618 Y90.993 E10.39104
G1 X64.627 Y90.34 E10.42145
G1 X64.676 Y89.626 E10.45478
G1 X64.806 Y88.923 E10.48807
G1 X65.012 Y88.238 E10.52138
G1 X65.294 Y87.581 E10.55467
G1 X65.648 Y86.959 E10.58799
G1 X66.068 Y86.38 E10.6213
G1 X66.521 Y85.882 E10.65265
G1 X66.633 Y85.771 E10.65999
G1 X67.168 Y85.297 E10.69327
M204 S3000
M205 X10 Y10
G0 F3000 X67.54 Y85.717
M204 S1800
M205 X8 Y8
G1 F2400 X68.101 Y85.329 E10.72503
G1 X68.705 Y85.008 E10.75688
G1 X69.342 Y84.76 E10.78871
G1 X70.003 Y84.588 E10.82052
G1 X70.68 Y84.495 E10.85234
G1 X71.033 Y84.478 E10.86879
G1 X71.591 Y84.468 E10.89478
G1 X71.696 Y84.467 E10.89967
G1 X135.045 Y84.467 E13.84946
G1 X135.131 Y84.468 E13.85347
G1 X135.948 Y84.48 E13.89152
G1 X136.823 Y84.559 E13.93243
G1 X137.65 Y84.697 E13.97147
G1 X138.316 Y84.848 E14.00327
G1 X138.742 Y84.99 E14.02418
G1 X138.947 Y85.067 E14.03437
G1 X139.359 Y85.24 E14.05518
G1 X139.722 Y85.409 E14.07382
G1 X140.323 Y85.733 E14.10562
G1 X140.615 Y85.925 E14.12189
G1 X141.123 Y86.282 E14.1508
G1 X141.658 Y86.707 E14.18262
G1 X141.919 Y86.955 E14.19938
G1 X142.332 Y87.373 E14.22674
G1 X142.783 Y87.887 E14.25858
G1 X143.029 Y88.226 E14.27809
G1 X143.393 Y88.769 E14.30853
G1 X143.739 Y89.358 E14.34034
G1 X143.964 Y89.851 E14.36557
G1 X144.203 Y90.448 E14.39551
G1 X144.34 Y90.828 E14.41432
G1 X144.406 Y91.033 E14.42435
G1 X144.577 Y91.695 E14.45619
G1 X144.656 Y92.223 E14.48105
G1 X144.724 Y92.881 E14.51185
G1 X144.754 Y93.363 E14.53434
G1 X144.764 Y93.859 E14.55744
G1 X144.765 Y93.978 E14.56298
G1 X144.764 Y101.033 E14.89149
G1 X144.852 Y105.604 E15.10437
G1 X144.853 Y105.713 E15.10945
G1 X144.857 Y114.913 E15.53784
G1 X144.856 Y114.996 E15.54171
G1 X144.847 Y115.657 E15.57249
G1 X144.798 Y116.338 E15.60428
G1 X144.67 Y117.009 E15.63609
G1 X144.464 Y117.66 E15.66788
G1 X144.231 Y118.189 E15.6948
G1 X143.658 Y119.336 E15.7545
G1 X143.178 Y120.318 E15.8054
G1 X143.152 Y120.369 E15.80806
G1 X142.666 Y121.339 E15.85858
G1 X142.136 Y122.201 E15.9057
G1 X142.007 Y122.375 E15.91579
G1 X141.446 Y123.027 E15.95584
G1 X141.294 Y123.179 E15.96585
G1 X140.783 Y123.633 E15.99768
G1 X140.135 Y124.077 E16.03425
G1 X140.003 Y124.155 E16.04139
G1 X139.395 Y124.467 E16.07321
G1 X138.756 Y124.707 E16.105
G1 X138.092 Y124.87 E16.13683
G1 X137.414 Y124.954 E16.16865
G1 X136.932 Y124.966 E16.1911
G1 X136.229 Y124.954 E16.22384
G1 X136.148 Y124.952 E16.22761
G1 X135.014 Y124.917 E16.28044
G1 X132.319 Y124.908 E16.40593
G1 X130.929 Y124.933 E16.47066
G1 X130.3 Y124.95 E16.49996
G1 X129.618 Y124.928 E16.53174
G1 X128.748 Y124.782 E16.57281
G1 X126.136 Y124.137 E16.69809
G1 X123.53 Y123.57 E16.82228
G1 X120.935 Y123.083 E16.94522
G1 X118.273 Y122.66 E17.07073
G1 X115.652 Y122.319 E17.1938
G1 X112.987 Y122.048 E17.31854
G1 X110.357 Y121.856 E17.44133
G1 X107.686 Y121.737 E17.56582
G1 X105.046 Y121.694 E17.68877
G1 X102.337 Y121.726 E17.81492
G1 X99.702 Y121.833 E17.93772
G1 X97.061 Y122.014 E18.06098
G1 X94.37 Y122.275 E18.18688
G1 X91.751 Y122.605 E18.30979
G1 X89.132 Y123.01 E18.43319
G1 X86.495 Y123.495 E18.55804
G1 X83.897 Y124.048 E18.68173
G1 X80.79 Y124.814 E18.83073
G1 X80.59 Y124.86 E18.84029
G1 X80.361 Y124.908 E18.85118
G1 X79.685 Y125.009 E18.88301
G1 X79.078 Y125.031 E18.91129
G1 X78.663 Y125.025 E18.93062
G1 X75.922 Y125.021 E19.05825
G1 X75.321 Y125.039 E19.08625
G1 X75.234 Y125.041 E19.0903
G1 X73.829 Y125.062 E19.15573
G1 X73.147 Y125.033 E19.18752
G1 X72.367 Y124.899 E19.22437
G1 X72.111 Y124.837 E19.23663
G1 X71.332 Y124.589 E19.2747
G1 X71.012 Y124.462 E19.29073
G1 X70.392 Y124.173 E19.32259
G1 X70.016 Y123.952 E19.34289
G1 X69.774 Y123.797 E19.35628
G1 X69.221 Y123.395 E19.38811
G1 X68.719 Y122.932 E19.41991
G1 X68.228 Y122.351 E19.45533
G1 X68.055 Y122.117 E19.46888
G1 X67.682 Y121.545 E19.50068
G1 X67.378 Y120.933 E19.5325
G1 X67.184 Y120.411 E19.55843
G1 X66.836 Y119.314 E19.61202
G1 X66.837 Y119.314 E19.61206
G1 X65.942 Y116.599 E19.74518
G1 X65.504 Y115.333 E19.80756
G1 X65.319 Y114.676 E19.83934
G1 X65.212 Y114.001 E19.87116
G1 X65.185 Y113.288 E19.90439
G1 X65.211 Y112.175 E19.95623
G1 X65.268 Y108.839 E20.11159
G1 X65.268 Y104.919 E20.29412
G1 X65.205 Y101.405 E20.45777
G1 X65.189 Y100.958 E20.4786
G1 X65.185 Y100.823 E20.48489
G1 X65.181 Y100.481 E20.50081
G1 X65.181 Y100.416 E20.50384
G1 X65.177 Y91.084 E20.93838
G1 X65.178 Y91.001 E20.94224
G1 X65.187 Y90.348 E20.97265
G1 X65.236 Y89.666 E21.00449
G1 X65.365 Y88.995 E21.03631
G1 X65.571 Y88.344 E21.0681
G1 X65.851 Y87.721 E21.09991
G1 X66.203 Y87.135 E21.13174
G1 X66.621 Y86.594 E21.16357
G1 X66.915 Y86.28 E21.1836
G1 X67.027 Y86.169 E21.19095
G1 X67.54 Y85.717 E21.22278
M204 S3000
M205 X10 Y10
G0 F3000 X67.91 Y86.139
M204 S1800
M205 X8 Y8
G1 F2400 X68.447 Y85.774 E21.25302
G1 X69.026 Y85.478 E21.2833
G1 X69.636 Y85.255 E21.31354
G1 X70.269 Y85.109 E21.34379
G1 X71.043 Y85.038 E21.37998
G1 X71.601 Y85.028 E21.40597
G1 X71.696 Y85.027 E21.41039
G1 X135.045 Y85.027 E24.36019
G1 X135.123 Y85.028 E24.36382
G1 X135.94 Y85.04 E24.40186
G1 X136.731 Y85.111 E24.43884
G1 X137.558 Y85.249 E24.47789
G1 X138.191 Y85.395 E24.50813
G1 X138.546 Y85.514 E24.52557
G1 X138.751 Y85.591 E24.53577
G1 X139.123 Y85.747 E24.55455
G1 X139.486 Y85.916 E24.57319
G1 X140.293 Y86.383 E24.61661
G1 X140.801 Y86.74 E24.64552
G1 X141.521 Y87.349 E24.68943
G1 X141.934 Y87.767 E24.71679
G1 X142.361 Y88.256 E24.74702
G1 X142.564 Y88.538 E24.7632
G1 X142.928 Y89.081 E24.79364
G1 X143.256 Y89.642 E24.8239
G1 X143.444 Y90.059 E24.8452
G1 X143.683 Y90.656 E24.87515
G1 X143.807 Y91 E24.89217
G1 X143.873 Y91.205 E24.9022
G1 X144.034 Y91.834 E24.93243
G1 X144.099 Y92.28 E24.95342
G1 X144.167 Y92.938 E24.98422
G1 X144.194 Y93.375 E25.00461
G1 X144.204 Y93.871 E25.02771
G1 X144.205 Y93.978 E25.03269
G1 X144.204 Y101.043 E25.36167
G1 X144.292 Y105.614 E25.57455
G1 X144.293 Y105.714 E25.57921
G1 X144.297 Y114.914 E26.0076
G1 X144.297 Y114.988 E26.01105
G1 X144.288 Y115.649 E26.04183
G1 X144.239 Y116.297 E26.07209
G1 X144.111 Y116.934 E26.10234
G1 X143.906 Y117.55 E26.13257
G1 X143.731 Y117.938 E26.15239
G1 X143.134 Y119.132 E26.21455
G1 X142.675 Y120.072 E26.26326
G1 X142.652 Y120.118 E26.26566
G1 X142.166 Y121.088 E26.31618
G1 X141.686 Y121.868 E26.35882
G1 X141.557 Y122.042 E26.36891
G1 X141.05 Y122.631 E26.4051
G1 X140.898 Y122.783 E26.41511
G1 X140.411 Y123.213 E26.44536
G1 X139.85 Y123.595 E26.47696
G1 X139.718 Y123.673 E26.4841
G1 X139.14 Y123.968 E26.51432
G1 X138.529 Y124.19 E26.54459
G1 X137.896 Y124.336 E26.57484
G1 X136.942 Y124.406 E26.61938
G1 X136.239 Y124.394 E26.65212
G1 X136.165 Y124.392 E26.65556
G1 X135.033 Y124.357 E26.7083
G1 X132.31 Y124.348 E26.8351
G1 X130.906 Y124.374 E26.90048
G1 X130.286 Y124.39 E26.92936
G1 X129.636 Y124.367 E26.95965
G1 X128.882 Y124.238 E26.99527
G1 X126.279 Y123.595 E27.12012
G1 X123.609 Y123.014 E27.24735
G1 X121.058 Y122.535 E27.36821
G1 X118.364 Y122.107 E27.49523
G1 X115.711 Y121.762 E27.61981
G1 X113.049 Y121.492 E27.7444
G1 X110.385 Y121.297 E27.86877
G1 X107.685 Y121.176 E27.99462
G1 X105.049 Y121.134 E28.11738
G1 X102.344 Y121.166 E28.24335
G1 X99.674 Y121.274 E28.36778
G1 X96.967 Y121.46 E28.49412
G1 X94.354 Y121.713 E28.61636
G1 X91.67 Y122.051 E28.74233
G1 X89.014 Y122.462 E28.86748
G1 X86.38 Y122.946 E28.99218
G1 X83.774 Y123.501 E29.11625
G1 X80.656 Y124.27 E29.26578
G1 X80.475 Y124.312 E29.27444
G1 X80.246 Y124.36 E29.28533
G1 X79.603 Y124.454 E29.31559
G1 X79.086 Y124.471 E29.33968
G1 X78.672 Y124.465 E29.35896
G1 X75.937 Y124.461 E29.48631
G1 X75.304 Y124.48 E29.5158
G1 X75.226 Y124.481 E29.51943
G1 X73.821 Y124.502 E29.58486
G1 X73.172 Y124.472 E29.61511
G1 X72.499 Y124.355 E29.64692
G1 X72.243 Y124.293 E29.65919
G1 X71.538 Y124.069 E29.69363
G1 X71.218 Y123.942 E29.70966
G1 X70.63 Y123.665 E29.73993
G1 X70.318 Y123.48 E29.75682
G1 X70.076 Y123.325 E29.7702
G1 X69.552 Y122.942 E29.80042
G1 X69.078 Y122.497 E29.8307
G1 X68.678 Y122.018 E29.85975
G1 X68.505 Y121.784 E29.8733
G1 X68.152 Y121.239 E29.90354
G1 X67.868 Y120.654 E29.93382
G1 X67.718 Y120.242 E29.95424
G1 X67.37 Y119.145 E30.00783
G1 X66.446 Y116.343 E30.14521
G1 X66.033 Y115.15 E30.204
G1 X65.859 Y114.525 E30.23421
G1 X65.763 Y113.882 E30.26448
G1 X65.744 Y113.301 E30.29155
G1 X65.77 Y112.188 E30.34339
G1 X65.771 Y112.188 E30.34343
G1 X65.828 Y108.848 E30.49898
G1 X65.828 Y104.909 E30.6824
G1 X65.767 Y101.484 E30.8419
G1 X65.748 Y100.939 E30.8673
G1 X65.745 Y100.817 E30.87298
G1 X65.741 Y100.475 E30.88891
G1 X65.741 Y100.415 E30.8917
G1 X65.737 Y91.083 E31.32624
G1 X65.738 Y91.008 E31.32973
G1 X65.747 Y90.355 E31.36014
G1 X65.795 Y89.707 E31.39039
G1 X65.923 Y89.071 E31.4206
G1 X66.129 Y88.454 E31.45089
G1 X66.408 Y87.868 E31.48111
G1 X66.758 Y87.32 E31.51139
G1 X67.309 Y86.678 E31.55079
G1 X67.421 Y86.567 E31.55813
G1 X67.91 Y86.139 E31.58839
M204 S3000
M205 X10 Y10
G0 F3000 X71.297 Y90.587
M204 S1800
M205 X8 Y8
;TYPE:SUPPORT
G1 F1500 X135.743 Y90.587 E34.58926
G1 X136.022 Y90.596 E34.60226
G1 X136.642 Y90.723 E34.63173
G1 X137.168 Y90.959 E34.65858
G1 X137.68 Y91.333 E34.6881
G1 X138.091 Y91.788 E34.71665
G1 X138.404 Y92.334 E34.74596
G1 X138.581 Y92.878 E34.77259
G1 X138.645 Y93.486 E34.80106
G1 X138.643 Y104.724 E35.32435
G1 X138.733 Y105.12 E35.34326
G1 X138.736 Y112.847 E35.70306
G1 X138.552 Y112.663 E35.71518
G1 X137.144 Y112.663 E35.78074
G1 X136.844 Y112.363 E35.8005
G1 X130.361 Y112.363 E36.10237
G1 X130.061 Y112.663 E36.12213
G1 X128.654 Y112.663 E36.18764
G1 X128.139 Y113.178 E36.22156
G1 X128.138 Y115.433 E36.32656
G1 X128.132 Y115.427 E36.32695
G1 X82.07 Y115.427 E38.47179
G1 X81.568 Y115.709 E38.4986
G1 X81.568 Y113.133 E38.61855
G1 X81.053 Y112.618 E38.65247
G1 X71.707 Y112.618 E39.08766
G1 X71.408 Y112.917 E39.10735
G1 X71.388 Y112.301 E39.13604
G1 X71.388 Y101.29 E39.64876
G1 X71.301 Y100.901 E39.66732
G1 X71.297 Y90.587 E40.14759
M204 S3000
M205 X10 Y10
G0 F3000 X82.039 Y93.312
M204 S1800
M205 X8 Y8
G1 F1500 X82.039 Y94.776 E40.21576
G1 X81.838 Y94.977 E40.22899
G1 X81.838 Y96.307 E40.29092
G1 X81.775 Y96.807 E40.31439
G1 X81.61 Y97.245 E40.33618
G1 X81.276 Y97.702 E40.36254
G1 X80.903 Y98.045 E40.38614
G1 X80.555 Y98.377 E40.40853
G1 X79.898 Y99.173 E40.45659
G1 X79.646 Y99.586 E40.47912
G1 X79.274 Y100.297 E40.51649
G1 X78.996 Y101.023 E40.55268
G1 X78.865 Y101.492 E40.57536
G1 X78.733 Y102.127 E40.60556
G1 X78.686 Y102.469 E40.62163
G1 X78.698 Y103.653 E40.67677
G1 X78.772 Y104.124 E40.69897
G1 X78.853 Y104.532 E40.71834
G1 X79.091 Y105.286 E40.75516
G1 X79.446 Y106.084 E40.79583
G1 X79.88 Y106.777 E40.8339
G1 X80.162 Y107.168 E40.85635
G1 X80.569 Y107.64 E40.88537
G1 X80.954 Y108.041 E40.91125
G1 X81.313 Y108.349 E40.93328
G1 X81.394 Y108.449 E40.93927
G1 X81.593 Y108.721 E40.95496
G1 X81.745 Y109.071 E40.97273
G1 X81.832 Y109.518 E40.99394
G1 X81.847 Y111.071 E41.06626
G1 X82.038 Y111.262 E41.07883
G1 X82.038 Y112.712 E41.14635
G1 X82.506 Y113.152 E41.17626
G1 X84.546 Y113.012 E41.27148
