;FLAVOR:Marlin
;TIME:7711
;Filament used: 6.23109m
;Layer height: 0.2
;MINX:69.199
;MINY:16.699
;MINZ:0.2
;MAXX:140.801
;MAXY:193.286
;MAXZ:4
;Generated with Cura_SteamEngine 4.4.1
M140 S70
M105
M190 S70
M104 S210
M105
M109 S210
M82 ;absolute extrusion mode
G21 ;metric values
G90 ;absolute positioning
M82 ;set extruder to absolute mode
M107 ;start with the fan off
G28 X0 Y0 ;move X/Y to min endstops
G28 Z0 ;move Z to min endstops
G1 Z15.0 F100 ;move the platform down 15mm
G92 E0 ;zero the extruded length
G1 F200 E3 ;extrude 3mm of feed stock
G92 E0 ;zero the extruded length again
G1 F100
G0 Y20 F100
M117 Printing...
G5
G92 E0
G92 E0
G1 F2400 E-6
;LAYER_COUNT:20
;LAYER:0
M106 S255
M204 S3000
M205 X10 Y10
G1 F600 Z0.275
G0 F3000 X69.949 Y25.607 Z0.275
M204 S1800
M205 X8 Y8
;TYPE:SKIRT
G1 F600 Z0.2
G1 F2400 E0
G1 X70.491 Y24.288 E0.0664
G1 X70.788 Y23.701 E0.09703
G1 X71.525 Y22.49 E0.16305
G1 X71.904 Y21.963 E0.19327
G1 X72.822 Y20.876 E0.25952
G1 X73.288 Y20.406 E0.29034
G1 X74.365 Y19.477 E0.35657
G1 X74.889 Y19.091 E0.38687
G1 X76.094 Y18.341 E0.45296
G1 X76.684 Y18.036 E0.48389
G1 X77.993 Y17.485 E0.55002
G1 X78.606 Y17.281 E0.58011
G1 X79.982 Y16.938 E0.64614
G1 X80.632 Y16.829 E0.67683
G1 X82.05 Y16.705 E0.74311
G1 X82.703 Y16.699 E0.77352
G1 X84.117 Y16.796 E0.83951
G1 X84.771 Y16.893 E0.8703
G1 X86.155 Y17.211 E0.93642
G1 X86.778 Y17.406 E0.96682
G1 X88.099 Y17.936 E1.0331
G1 X88.687 Y18.227 E1.06365
G1 X89.902 Y18.952 E1.12953
G1 X90.437 Y19.331 E1.16006
G1 X91.528 Y20.239 E1.22615
G1 X91.997 Y20.695 E1.25661
G1 X92.935 Y21.763 E1.3228
G1 X93.328 Y22.289 E1.35337
G1 X94.088 Y23.49 E1.41955
G1 X94.394 Y24.069 E1.45005
G1 X94.957 Y25.371 E1.5161
G1 X95.17 Y25.992 E1.54667
G1 X95.522 Y27.361 E1.61249
G1 X95.635 Y28.01 E1.64317
G1 X95.77 Y29.433 E1.70972
G1 X95.789 Y29.83 E1.72823
G1 X95.801 Y130.785 E6.42912
G1 X95.8 Y141.818 E6.94286
G1 X95.872 Y142.72 E6.985
G1 X96.042 Y143.431 E7.01904
G1 X96.323 Y144.11 E7.05325
G1 X96.71 Y144.74 E7.08768
G1 X97.186 Y145.298 E7.12183
G1 X97.747 Y145.777 E7.15618
G1 X98.373 Y146.161 E7.19038
G1 X99.052 Y146.443 E7.22462
G1 X99.768 Y146.614 E7.25889
G1 X100.666 Y146.685 E7.30084
G1 X129.493 Y146.686 E8.64314
G1 X129.848 Y146.701 E8.65969
G1 X131.062 Y146.804 E8.71642
G1 X131.774 Y146.927 E8.75007
G1 X132.962 Y147.239 E8.80726
G1 X133.651 Y147.486 E8.84134
G1 X134.761 Y147.997 E8.89824
G1 X135.388 Y148.353 E8.93182
G1 X136.394 Y149.046 E8.9887
G1 X136.951 Y149.506 E9.02234
G1 X137.819 Y150.357 E9.07894
G1 X138.291 Y150.907 E9.11269
G1 X139.01 Y151.909 E9.17011
G1 X139.377 Y152.525 E9.2035
G1 X139.91 Y153.624 E9.26038
G1 X140.172 Y154.311 E9.29461
G1 X140.503 Y155.478 E9.3511
G1 X140.64 Y156.19 E9.38486
G1 X140.768 Y157.423 E9.44258
G1 X140.79 Y157.84 E9.46202
G1 X140.8 Y160.369 E9.57979
G1 X140.8 Y160.386 E9.58058
G1 X140.801 Y181.978 E10.58599
G1 X140.786 Y182.336 E10.60268
G1 X140.682 Y183.552 E10.65951
G1 X140.559 Y184.262 E10.69306
G1 X140.247 Y185.449 E10.75021
G1 X140 Y186.137 E10.78425
G1 X139.489 Y187.247 E10.84115
G1 X139.133 Y187.874 E10.87472
G1 X138.442 Y188.877 E10.93143
G1 X137.982 Y189.435 E10.96511
G1 X137.126 Y190.308 E11.02204
G1 X136.576 Y190.779 E11.05576
G1 X135.577 Y191.496 E11.11302
G1 X134.959 Y191.864 E11.14651
G1 X133.859 Y192.397 E11.20342
G1 X133.175 Y192.657 E11.2375
G1 X132.009 Y192.988 E11.29394
G1 X131.295 Y193.126 E11.3278
G1 X130.06 Y193.254 E11.38561
G1 X129.628 Y193.276 E11.40576
G1 X80.508 Y193.286 E13.69299
G1 X80.152 Y193.271 E13.70958
G1 X78.938 Y193.168 E13.76631
G1 X78.226 Y193.045 E13.79996
G1 X77.038 Y192.733 E13.85715
G1 X76.349 Y192.486 E13.89123
G1 X75.239 Y191.975 E13.94813
G1 X74.612 Y191.619 E13.98171
G1 X73.609 Y190.928 E14.03842
G1 X73.051 Y190.468 E14.07209
G1 X72.178 Y189.612 E14.12903
G1 X71.706 Y189.06 E14.16285
G1 X70.989 Y188.06 E14.22014
G1 X70.624 Y187.447 E14.25336
G1 X70.091 Y186.349 E14.3102
G1 X69.828 Y185.661 E14.34449
G1 X69.497 Y184.494 E14.40098
G1 X69.36 Y183.782 E14.43474
G1 X69.232 Y182.549 E14.49246
G1 X69.21 Y182.115 E14.5127
G1 X69.199 Y45.187 E20.88864
G1 X69.2 Y29.991 E21.59623
G1 X69.212 Y29.668 E21.61128
G1 X69.321 Y28.254 E21.67731
G1 X69.422 Y27.61 E21.70767
G1 X69.747 Y26.236 E21.77341
G1 X69.949 Y25.607 E21.80417
M204 S3000
M205 X10 Y10
G0 F3000 X70.467 Y25.82
M204 S1800
M205 X8 Y8
G1 F2400 X71.009 Y24.501 E21.87058
G1 X71.267 Y23.992 E21.89715
G1 X72.004 Y22.781 E21.96316
G1 X72.332 Y22.324 E21.98935
G1 X73.25 Y21.237 E22.0556
G1 X73.653 Y20.83 E22.08227
G1 X74.73 Y19.901 E22.1485
G1 X75.185 Y19.567 E22.17478
G1 X76.39 Y18.817 E22.24087
G1 X76.901 Y18.552 E22.26768
G1 X78.21 Y18.001 E22.33381
G1 X78.742 Y17.824 E22.35992
G1 X80.118 Y17.481 E22.42595
G1 X80.681 Y17.387 E22.45253
G1 X82.099 Y17.263 E22.51881
G1 X82.665 Y17.258 E22.54517
G1 X84.079 Y17.355 E22.61116
G1 X84.645 Y17.438 E22.6378
G1 X86.029 Y17.756 E22.70392
G1 X86.569 Y17.926 E22.73028
G1 X87.89 Y18.456 E22.79656
G1 X88.4 Y18.708 E22.82305
G1 X89.615 Y19.433 E22.88893
G1 X90.079 Y19.761 E22.91539
G1 X91.17 Y20.669 E22.98149
G1 X91.576 Y21.065 E23.00789
G1 X92.514 Y22.133 E23.07408
G1 X92.855 Y22.589 E23.1006
G1 X93.615 Y23.79 E23.16678
G1 X93.88 Y24.291 E23.19317
G1 X94.443 Y25.593 E23.25922
G1 X94.627 Y26.132 E23.28574
G1 X94.979 Y27.501 E23.35156
G1 X95.078 Y28.063 E23.37813
G1 X95.213 Y29.486 E23.44469
G1 X95.229 Y29.83 E23.46072
G1 X95.241 Y130.785 E28.16161
G1 X95.24 Y141.849 E28.6768
G1 X95.316 Y142.807 E28.72155
G1 X95.506 Y143.601 E28.75956
G1 X95.825 Y144.369 E28.79829
G1 X96.252 Y145.065 E28.83631
G1 X96.789 Y145.695 E28.87485
G1 X97.418 Y146.232 E28.91337
G1 X98.118 Y146.662 E28.95162
G1 X98.881 Y146.978 E28.99007
G1 X99.677 Y147.168 E29.02818
G1 X100.647 Y147.245 E29.07349
G1 X129.493 Y147.246 E30.41668
G1 X129.801 Y147.259 E30.43103
G1 X131.015 Y147.362 E30.48777
G1 X131.632 Y147.468 E30.51692
G1 X132.82 Y147.78 E30.57411
G1 X133.417 Y147.995 E30.60366
G1 X134.527 Y148.506 E30.66056
G1 X135.07 Y148.814 E30.68963
G1 X136.076 Y149.507 E30.74651
G1 X136.559 Y149.906 E30.77568
G1 X137.427 Y150.757 E30.83228
G1 X137.836 Y151.234 E30.86154
G1 X138.555 Y152.236 E30.91897
G1 X138.873 Y152.77 E30.94791
G1 X139.406 Y153.869 E31.00478
G1 X139.633 Y154.464 E31.03444
G1 X139.964 Y155.631 E31.09092
G1 X140.083 Y156.248 E31.12018
G1 X140.211 Y157.481 E31.1779
G1 X140.23 Y157.843 E31.19478
G1 X140.24 Y160.372 E31.31254
G1 X140.24 Y160.386 E31.3132
G1 X140.241 Y181.978 E32.31861
G1 X140.228 Y182.288 E32.33306
G1 X140.124 Y183.504 E32.38989
G1 X140.017 Y184.119 E32.41895
G1 X139.705 Y185.306 E32.4761
G1 X139.491 Y185.903 E32.50563
G1 X138.98 Y187.013 E32.56253
G1 X138.672 Y187.556 E32.5916
G1 X137.981 Y188.559 E32.64832
G1 X137.582 Y189.042 E32.67749
G1 X136.726 Y189.915 E32.73442
G1 X136.249 Y190.324 E32.76368
G1 X135.25 Y191.041 E32.82094
G1 X134.715 Y191.36 E32.84994
G1 X133.615 Y191.893 E32.90686
G1 X133.022 Y192.119 E32.93641
G1 X131.856 Y192.45 E32.99285
G1 X131.237 Y192.569 E33.0222
G1 X130.002 Y192.697 E33.08001
G1 X129.628 Y192.716 E33.09745
G1 X80.508 Y192.726 E35.38468
G1 X80.199 Y192.713 E35.39908
G1 X78.985 Y192.61 E35.45582
G1 X78.368 Y192.504 E35.48497
G1 X77.18 Y192.192 E35.54216
G1 X76.583 Y191.977 E35.57171
G1 X75.473 Y191.466 E35.62861
G1 X74.93 Y191.158 E35.65768
G1 X73.927 Y190.467 E35.71439
G1 X73.444 Y190.068 E35.74356
G1 X72.571 Y189.212 E35.8005
G1 X72.161 Y188.734 E35.82982
G1 X71.444 Y187.734 E35.88712
G1 X71.127 Y187.203 E35.91591
G1 X70.594 Y186.105 E35.97274
G1 X70.367 Y185.508 E36.00249
G1 X70.036 Y184.341 E36.05897
G1 X69.917 Y183.724 E36.08823
G1 X69.789 Y182.491 E36.14595
G1 X69.77 Y182.115 E36.16348
G1 X69.759 Y45.187 E42.53942
G1 X69.76 Y29.991 E43.24701
G1 X69.771 Y29.711 E43.26006
G1 X69.88 Y28.297 E43.3261
G1 X69.967 Y27.739 E43.35239
G1 X70.292 Y26.365 E43.41814
G1 X70.467 Y25.82 E43.44479
M204 S3000
M205 X10 Y10
G0 F3000 X70.985 Y26.032
M204 S1800
M205 X8 Y8
G1 F2400 X71.527 Y24.713 E43.51119
G1 X71.745 Y24.283 E43.53364
G1 X72.482 Y23.072 E43.59965
G1 X72.76 Y22.686 E43.6218
G1 X73.678 Y21.599 E43.68805
G1 X74.019 Y21.254 E43.71064
G1 X75.096 Y20.325 E43.77687
G1 X75.48 Y20.042 E43.79908
G1 X76.685 Y19.292 E43.86517
G1 X77.118 Y19.068 E43.88787
G1 X78.427 Y18.517 E43.95401
G1 X78.877 Y18.367 E43.97609
G1 X80.253 Y18.024 E44.04213
G1 X80.73 Y17.945 E44.06464
G1 X82.148 Y17.821 E44.13092
G1 X82.627 Y17.816 E44.15322
G1 X84.041 Y17.913 E44.21922
G1 X84.52 Y17.984 E44.24177
G1 X85.904 Y18.302 E44.30789
G1 X86.361 Y18.445 E44.33019
G1 X87.682 Y18.975 E44.39647
G1 X88.113 Y19.189 E44.41887
G1 X89.328 Y19.914 E44.48476
G1 X89.72 Y20.192 E44.50713
G1 X90.811 Y21.1 E44.57323
G1 X91.155 Y21.435 E44.59559
G1 X92.093 Y22.503 E44.66177
G1 X92.382 Y22.888 E44.68419
G1 X93.142 Y24.089 E44.75037
G1 X93.366 Y24.514 E44.77274
G1 X93.929 Y25.816 E44.83879
G1 X94.085 Y26.271 E44.86119
G1 X94.437 Y27.64 E44.92701
G1 X94.52 Y28.116 E44.94951
G1 X94.655 Y29.539 E45.01607
G1 X94.669 Y29.83 E45.02963
G1 X94.681 Y130.785 E49.73052
G1 X94.68 Y141.869 E50.24664
G1 X94.762 Y142.892 E50.29443
G1 X94.974 Y143.781 E50.33698
G1 X95.322 Y144.621 E50.37932
G1 X95.799 Y145.398 E50.42177
G1 X96.392 Y146.092 E50.46428
G1 X97.085 Y146.684 E50.50672
G1 X97.867 Y147.164 E50.54945
G1 X98.708 Y147.513 E50.59185
G1 X99.59 Y147.724 E50.63407
G1 X100.616 Y147.805 E50.682
G1 X129.493 Y147.806 E52.02663
G1 X129.753 Y147.817 E52.03875
G1 X130.967 Y147.92 E52.09548
G1 X131.489 Y148.01 E52.12015
G1 X132.677 Y148.322 E52.17734
G1 X133.183 Y148.503 E52.20236
G1 X134.293 Y149.014 E52.25926
G1 X134.752 Y149.276 E52.28387
G1 X135.758 Y149.969 E52.34076
G1 X136.167 Y150.306 E52.36543
G1 X137.035 Y151.157 E52.42203
G1 X137.381 Y151.56 E52.44677
G1 X138.1 Y152.562 E52.50419
G1 X138.369 Y153.014 E52.52869
G1 X138.902 Y154.113 E52.58556
G1 X139.094 Y154.617 E52.61067
G1 X139.425 Y155.784 E52.66716
G1 X139.526 Y156.306 E52.69192
G1 X139.654 Y157.539 E52.74964
G1 X139.67 Y157.845 E52.76391
G1 X139.68 Y160.374 E52.88167
G1 X139.68 Y160.386 E52.88223
G1 X139.681 Y181.978 E53.88764
G1 X139.67 Y182.24 E53.89985
G1 X139.566 Y183.456 E53.95668
G1 X139.476 Y183.977 E53.9813
G1 X139.164 Y185.164 E54.03845
G1 X138.983 Y185.669 E54.06343
G1 X138.472 Y186.779 E54.12033
G1 X138.21 Y187.238 E54.14494
G1 X137.519 Y188.241 E54.20165
G1 X137.182 Y188.65 E54.22633
G1 X136.326 Y189.523 E54.28326
G1 X135.923 Y189.869 E54.30799
G1 X134.924 Y190.586 E54.36525
G1 X134.471 Y190.856 E54.38981
G1 X133.371 Y191.389 E54.44673
G1 X132.869 Y191.58 E54.47174
G1 X131.703 Y191.911 E54.52817
G1 X131.18 Y192.012 E54.55298
G1 X129.945 Y192.14 E54.61079
G1 X129.628 Y192.156 E54.62557
G1 X80.508 Y192.166 E56.91281
G1 X80.247 Y192.155 E56.92497
G1 X79.033 Y192.052 E56.9817
G1 X78.511 Y191.962 E57.00637
G1 X77.323 Y191.65 E57.06356
G1 X76.817 Y191.469 E57.08858
G1 X75.707 Y190.958 E57.14548
G1 X75.248 Y190.696 E57.17009
G1 X74.245 Y190.005 E57.22681
G1 X73.836 Y189.668 E57.25149
G1 X72.963 Y188.812 E57.30842
G1 X72.616 Y188.408 E57.33322
G1 X71.899 Y187.408 E57.39051
G1 X71.631 Y186.958 E57.4149
G1 X71.098 Y185.86 E57.47173
G1 X70.906 Y185.355 E57.49689
G1 X70.575 Y184.188 E57.55337
G1 X70.474 Y183.666 E57.57813
G1 X70.346 Y182.433 E57.63585
G1 X70.33 Y182.115 E57.65068
G1 X70.319 Y45.187 E64.02662
G1 X70.32 Y29.991 E64.73421
G1 X70.329 Y29.754 E64.74525
G1 X70.438 Y28.34 E64.81129
G1 X70.512 Y27.868 E64.83354
G1 X70.837 Y26.494 E64.89928
G1 X70.985 Y26.032 E64.92187
M204 S3000
M205 X10 Y10
G0 F3000 X71.503 Y26.245
M204 S1800
M205 X8 Y8
G1 F2400 X72.045 Y24.926 E64.98827
G1 X72.223 Y24.574 E65.00664
G1 X72.96 Y23.363 E65.07265
G1 X73.188 Y23.047 E65.0908
G1 X74.106 Y21.96 E65.15705
G1 X74.385 Y21.678 E65.17552
G1 X75.462 Y20.749 E65.24175
G1 X75.776 Y20.518 E65.2599
G1 X76.981 Y19.768 E65.32599
G1 X77.335 Y19.584 E65.34457
G1 X78.644 Y19.033 E65.4107
G1 X79.012 Y18.911 E65.42875
G1 X80.388 Y18.568 E65.49478
G1 X80.778 Y18.503 E65.51319
G1 X82.196 Y18.379 E65.57947
G1 X82.588 Y18.375 E65.59773
G1 X84.002 Y18.472 E65.66373
G1 X84.394 Y18.53 E65.68218
G1 X85.778 Y18.848 E65.7483
G1 X86.152 Y18.965 E65.76655
G1 X87.473 Y19.495 E65.83283
G1 X87.826 Y19.67 E65.85117
G1 X89.041 Y20.395 E65.91705
G1 X89.362 Y20.622 E65.93536
G1 X90.453 Y21.53 E66.00146
G1 X90.734 Y21.804 E66.01973
G1 X91.672 Y22.872 E66.08592
G1 X91.908 Y23.187 E66.10425
G1 X92.668 Y24.388 E66.17043
G1 X92.852 Y24.736 E66.18876
G1 X93.415 Y26.038 E66.25481
G1 X93.543 Y26.41 E66.27313
G1 X93.895 Y27.779 E66.33895
G1 X93.963 Y28.169 E66.35738
G1 X94.098 Y29.592 E66.42394
G1 X94.109 Y29.83 E66.43503
G1 X94.121 Y130.785 E71.13592
G1 X94.12 Y141.888 E71.65292
G1 X94.207 Y142.983 E71.70407
G1 X94.439 Y143.95 E71.75038
G1 X94.823 Y144.877 E71.7971
G1 X95.345 Y145.728 E71.84359
G1 X95.995 Y146.489 E71.89019
G1 X96.759 Y147.142 E71.93699
G1 X97.605 Y147.662 E71.98323
G1 X98.533 Y148.046 E72.02999
G1 X99.505 Y148.279 E72.07653
G1 X100.597 Y148.365 E72.12754
G1 X129.493 Y148.366 E73.47306
G1 X129.706 Y148.375 E73.48299
G1 X130.92 Y148.478 E73.53972
G1 X131.347 Y148.552 E73.5599
G1 X132.535 Y148.864 E73.61709
G1 X132.949 Y149.012 E73.63756
G1 X134.059 Y149.523 E73.69446
G1 X134.435 Y149.737 E73.71461
G1 X135.441 Y150.43 E73.77149
G1 X135.775 Y150.706 E73.79167
G1 X136.643 Y151.557 E73.84827
G1 X136.926 Y151.887 E73.86851
G1 X137.645 Y152.889 E73.92594
G1 X137.865 Y153.258 E73.94594
G1 X138.398 Y154.357 E74.00282
G1 X138.555 Y154.769 E74.02335
G1 X138.886 Y155.936 E74.07983
G1 X138.969 Y156.364 E74.10013
G1 X139.097 Y157.597 E74.15785
G1 X139.11 Y157.847 E74.16951
G1 X139.12 Y160.376 E74.28727
G1 X139.12 Y160.386 E74.28774
G1 X139.121 Y181.978 E75.29315
G1 X139.112 Y182.193 E75.30317
G1 X139.008 Y183.409 E75.36
G1 X138.934 Y183.835 E75.38013
G1 X138.622 Y185.022 E75.43728
G1 X138.474 Y185.435 E75.45771
G1 X137.963 Y186.545 E75.51461
G1 X137.749 Y186.921 E75.53476
G1 X137.058 Y187.924 E75.59147
G1 X136.782 Y188.258 E75.61165
G1 X135.926 Y189.131 E75.66858
G1 X135.596 Y189.414 E75.68882
G1 X134.597 Y190.131 E75.74608
G1 X134.227 Y190.352 E75.76615
G1 X133.127 Y190.885 E75.82307
G1 X132.716 Y191.041 E75.84354
G1 X131.55 Y191.372 E75.89997
G1 X131.122 Y191.455 E75.92028
G1 X129.887 Y191.583 E75.97809
G1 X129.628 Y191.596 E75.99017
G1 X80.508 Y191.606 E78.2774
G1 X80.294 Y191.597 E78.28737
G1 X79.08 Y191.494 E78.3441
G1 X78.653 Y191.42 E78.36428
G1 X77.465 Y191.108 E78.42148
G1 X77.051 Y190.96 E78.44195
G1 X75.941 Y190.449 E78.49885
G1 X75.565 Y190.235 E78.519
G1 X74.562 Y189.544 E78.57571
G1 X74.228 Y189.268 E78.59588
G1 X73.355 Y188.412 E78.65282
G1 X73.071 Y188.081 E78.67312
G1 X72.354 Y187.081 E78.73042
G1 X72.135 Y186.713 E78.75036
G1 X71.602 Y185.615 E78.80719
G1 X71.445 Y185.203 E78.82772
G1 X71.114 Y184.036 E78.88421
G1 X71.031 Y183.608 E78.90451
G1 X70.903 Y182.375 E78.96223
G1 X70.89 Y182.115 E78.97435
G1 X70.879 Y45.187 E85.35029
G1 X70.88 Y29.991 E86.05788
G1 X70.887 Y29.797 E86.06692
G1 X70.996 Y28.383 E86.13296
G1 X71.057 Y27.997 E86.15116
G1 X71.382 Y26.623 E86.2169
G1 X71.503 Y26.245 E86.23538
M204 S3000
M205 X10 Y10
G0 F3000 X72.021 Y26.458
M204 S1800
M205 X8 Y8
G1 F2400 X72.563 Y25.139 E86.30178
G1 X72.702 Y24.865 E86.31609
G1 X73.439 Y23.654 E86.3821
G1 X73.616 Y23.408 E86.39621
G1 X74.534 Y22.321 E86.46246
G1 X74.751 Y22.102 E86.47682
G1 X75.828 Y21.173 E86.54305
G1 X76.072 Y20.993 E86.55717
G1 X77.277 Y20.243 E86.62326
G1 X77.553 Y20.101 E86.63771
G1 X78.862 Y19.55 E86.70384
G1 X79.148 Y19.454 E86.71789
G1 X80.524 Y19.111 E86.78392
G1 X80.827 Y19.06 E86.79823
G1 X82.245 Y18.936 E86.86451
G1 X82.55 Y18.934 E86.87871
G1 X83.964 Y19.031 E86.94471
