;FLAVOR:Marlin
;TIME:6698
;Filament used: 5.53566m
;Layer height: 0.2
;MINX:68.3
;MINY:78.3
;MINZ:0.2
;MAXX:131.7
;MAXY:183.7
;MAXZ:6.4
;Generated with Cura_SteamEngine 4.4.1
M140 S70
M105
M190 S70
M104 S210
M105
M109 S210
M82 ;absolute extrusion mode
G21 ;metric values
G90 ;absolute positioning
M82 ;set extruder to absolute mode
M107 ;start with the fan off
G28 X0 Y0 ;move X/Y to min endstops
G28 Z0 ;move Z to min endstops
G1 Z15.0 F100 ;move the platform down 15mm
G92 E0 ;zero the extruded length
G1 F200 E3 ;extrude 3mm of feed stock
G92 E0 ;zero the extruded length again
G1 F100
G0 Y20 F100
M117 Printing...
G5
G92 E0
G92 E0
G1 F2400 E-6
;LAYER_COUNT:32
;LAYER:0
M106 S255
M204 S3000
M205 X10 Y10
G1 F600 Z0.275
G0 F3000 X80.873 Y80.543 Z0.275
M204 S1800
M205 X8 Y8
;TYPE:SKIRT
G1 F600 Z0.2
G1 F2400 E0
G1 X81.263 Y80.198 E0.02425
G1 X81.693 Y79.865 E0.04957
G1 X82.141 Y79.562 E0.07475
G1 X82.622 Y79.281 E0.10069
G1 X83.09 Y79.048 E0.12504
G1 X83.609 Y78.832 E0.15121
G1 X84.091 Y78.668 E0.17492
G1 X84.602 Y78.529 E0.19958
G1 X85.115 Y78.424 E0.22396
G1 X85.659 Y78.35 E0.24953
G1 X86.179 Y78.313 E0.2738
G1 X86.477 Y78.302 E0.28769
G1 X123.5 Y78.3 E2.01163
G1 X124.039 Y78.335 E2.03678
G1 X125.051 Y78.466 E2.0843
G1 X125.828 Y78.643 E2.12141
G1 X126.325 Y78.807 E2.14578
G1 X126.862 Y79.026 E2.17278
G1 X127.336 Y79.259 E2.19738
G1 X127.798 Y79.523 E2.22215
G1 X128.231 Y79.809 E2.24632
G1 X128.665 Y80.139 E2.2717
G1 X129.06 Y80.481 E2.29603
G1 X129.457 Y80.873 E2.32201
G1 X129.802 Y81.263 E2.34626
G1 X130.134 Y81.691 E2.37148
G1 X130.436 Y82.137 E2.39656
G1 X130.716 Y82.617 E2.42244
G1 X130.949 Y83.084 E2.44674
G1 X131.167 Y83.606 E2.47308
G1 X131.332 Y84.091 E2.49693
G1 X131.471 Y84.602 E2.52159
G1 X131.576 Y85.115 E2.54598
G1 X131.65 Y85.656 E2.5714
G1 X131.687 Y86.171 E2.59544
G1 X131.698 Y86.472 E2.60947
G1 X131.7 Y123.504 E4.33383
G1 X131.692 Y123.769 E4.34618
G1 X131.66 Y124.275 E4.36979
G1 X131.587 Y124.831 E4.3959
G1 X131.487 Y125.333 E4.41973
G1 X131.359 Y125.821 E4.44323
G1 X131.196 Y126.318 E4.46758
G1 X130.974 Y126.862 E4.49494
G1 X130.741 Y127.336 E4.51953
G1 X130.477 Y127.798 E4.54431
G1 X130.191 Y128.231 E4.56847
G1 X129.861 Y128.665 E4.59386
G1 X129.519 Y129.06 E4.61819
G1 X129.127 Y129.457 E4.64417
G1 X128.737 Y129.802 E4.66842
G1 X128.307 Y130.135 E4.69374
G1 X127.859 Y130.438 E4.71892
G1 X127.378 Y130.719 E4.74486
G1 X126.91 Y130.952 E4.76921
G1 X126.391 Y131.168 E4.79538
G1 X125.909 Y131.332 E4.81909
G1 X125.398 Y131.471 E4.84375
G1 X124.885 Y131.576 E4.86813
G1 X124.341 Y131.65 E4.8937
G1 X123.821 Y131.687 E4.91797
G1 X123.523 Y131.698 E4.93186
G1 X118.063 Y131.698 E5.1861
G1 X118.235 Y131.812 E5.19571
G1 X118.678 Y132.148 E5.2216
G1 X119.072 Y132.491 E5.24592
G1 X119.46 Y132.876 E5.27137
G1 X119.805 Y133.266 E5.29562
G1 X120.138 Y133.696 E5.32094
G1 X120.435 Y134.135 E5.34562
G1 X120.713 Y134.61 E5.37125
G1 X120.951 Y135.086 E5.39603
G1 X121.175 Y135.626 E5.42325
G1 X121.335 Y136.102 E5.44664
G1 X121.468 Y136.597 E5.4705
G1 X121.576 Y137.124 E5.49555
G1 X121.652 Y137.671 E5.52127
G1 X121.688 Y138.18 E5.54503
G1 X121.698 Y138.476 E5.55882
G1 X121.7 Y175.505 E7.28304
G1 X121.691 Y175.783 E7.296
G1 X121.658 Y176.281 E7.31924
G1 X121.59 Y176.801 E7.34366
G1 X121.493 Y177.302 E7.36742
G1 X121.362 Y177.808 E7.39176
G1 X121.201 Y178.301 E7.4159
G1 X120.986 Y178.834 E7.44267
G1 X120.755 Y179.309 E7.46726
G1 X120.484 Y179.785 E7.49277
G1 X120.195 Y180.223 E7.5172
G1 X119.873 Y180.649 E7.54207
G1 X119.534 Y181.043 E7.56627
G1 X119.145 Y181.439 E7.59212
G1 X118.757 Y181.785 E7.61632
G1 X118.318 Y182.127 E7.64224
G1 X117.862 Y182.436 E7.66789
G1 X117.384 Y182.716 E7.69368
G1 X116.916 Y182.95 E7.71805
G1 X116.381 Y183.172 E7.74502
G1 X115.907 Y183.332 E7.76831
G1 X115.415 Y183.466 E7.79206
G1 X114.903 Y183.572 E7.8164
G1 X114.366 Y183.647 E7.84165
G1 X113.846 Y183.686 E7.86593
G1 X113.532 Y183.698 E7.88056
G1 X76.841 Y183.7 E9.58905
G1 X76.681 Y183.697 E9.5965
G1 X75.841 Y183.665 E9.63564
G1 X75.206 Y183.592 E9.66541
G1 X74.682 Y183.491 E9.69026
G1 X74.149 Y183.351 E9.71592
G1 X73.663 Y183.189 E9.73977
G1 X73.141 Y182.976 E9.76602
G1 X72.664 Y182.742 E9.79076
G1 X72.197 Y182.474 E9.81583
G1 X71.763 Y182.187 E9.84006
G1 X71.321 Y181.851 E9.86591
G1 X70.925 Y181.506 E9.89037
G1 X70.535 Y181.118 E9.91599
G1 X70.19 Y180.727 E9.94027
G1 X69.859 Y180.3 E9.96542
G1 X69.563 Y179.862 E9.99004
G1 X69.286 Y179.388 E10.0156
G1 X69.049 Y178.914 E10.04028
G1 X68.825 Y178.374 E10.0675
G1 X68.665 Y177.898 E10.09089
G1 X68.532 Y177.403 E10.11475
G1 X68.424 Y176.876 E10.1398
G1 X68.348 Y176.329 E10.16552
G1 X68.312 Y175.82 E10.18928
G1 X68.302 Y175.524 E10.20307
G1 X68.3 Y138.496 E11.92725
G1 X68.309 Y138.228 E11.93973
G1 X68.342 Y137.712 E11.96381
G1 X68.414 Y137.161 E11.98969
G1 X68.514 Y136.658 E12.01357
G1 X68.649 Y136.149 E12.03809
G1 X68.811 Y135.663 E12.06194
G1 X69.024 Y135.141 E12.08819
G1 X69.257 Y134.666 E12.11283
G1 X69.525 Y134.199 E12.1379
G1 X69.814 Y133.762 E12.1623
G1 X70.149 Y133.322 E12.18805
G1 X70.491 Y132.929 E12.21231
G1 X70.879 Y132.538 E12.23795
G1 X71.272 Y132.191 E12.26237
G1 X71.7 Y131.859 E12.28759
G1 X72.138 Y131.563 E12.3122
G1 X72.612 Y131.286 E12.33777
G1 X73.086 Y131.049 E12.36245
G1 X73.626 Y130.825 E12.38967
G1 X74.102 Y130.665 E12.41305
G1 X74.597 Y130.532 E12.43692
G1 X75.124 Y130.424 E12.46197
G1 X75.674 Y130.348 E12.48782
G1 X76.188 Y130.312 E12.51181
G1 X76.481 Y130.302 E12.52546
G1 X81.937 Y130.302 E12.77952
G1 X81.767 Y130.189 E12.78902
G1 X81.334 Y129.86 E12.81435
G1 X80.937 Y129.516 E12.83881
G1 X80.54 Y129.124 E12.86479
G1 X80.197 Y128.736 E12.8889
G1 X79.865 Y128.307 E12.91416
G1 X79.562 Y127.859 E12.93934
G1 X79.281 Y127.378 E12.96528
G1 X79.048 Y126.91 E12.98963
G1 X78.832 Y126.391 E13.0158
G1 X78.668 Y125.909 E13.03951
G1 X78.529 Y125.398 E13.06417
G1 X78.424 Y124.885 E13.08855
G1 X78.35 Y124.344 E13.11398
G1 X78.313 Y123.829 E13.13802
G1 X78.302 Y123.528 E13.15204
G1 X78.3 Y86.496 E14.87641
G1 X78.309 Y86.224 E14.88908
G1 X78.342 Y85.716 E14.91279
G1 X78.413 Y85.172 E14.93833
G1 X78.512 Y84.672 E14.96207
G1 X78.641 Y84.179 E14.9858
G1 X78.804 Y83.682 E15.01015
G1 X79.026 Y83.138 E15.03751
G1 X79.259 Y82.664 E15.0621
G1 X79.523 Y82.202 E15.08688
G1 X79.809 Y81.769 E15.11104
G1 X80.139 Y81.335 E15.13643
G1 X80.481 Y80.94 E15.16076
G1 X80.873 Y80.543 E15.18674
M204 S3000
M205 X10 Y10
G0 F3000 X81.244 Y80.963
M204 S1800
M205 X8 Y8
G1 F2400 X81.634 Y80.618 E15.21099
G1 X82.007 Y80.329 E15.23296
G1 X82.455 Y80.026 E15.25814
G1 X82.872 Y79.783 E15.28061
G1 X83.34 Y79.55 E15.30496
G1 X83.79 Y79.362 E15.32767
G1 X84.272 Y79.198 E15.35137
G1 X84.714 Y79.078 E15.3727
G1 X85.227 Y78.973 E15.39708
G1 X85.699 Y78.908 E15.41927
G1 X86.219 Y78.871 E15.44354
G1 X86.477 Y78.862 E15.45556
G1 X123.5 Y78.86 E17.17951
G1 X123.967 Y78.89 E17.2013
G1 X124.979 Y79.021 E17.24882
G1 X125.653 Y79.174 E17.281
G1 X126.15 Y79.338 E17.30537
G1 X126.615 Y79.528 E17.32876
G1 X127.089 Y79.761 E17.35335
G1 X127.489 Y79.991 E17.37484
G1 X127.922 Y80.277 E17.399
G1 X128.299 Y80.562 E17.42101
G1 X128.694 Y80.904 E17.44534
G1 X129.037 Y81.244 E17.46783
G1 X129.382 Y81.634 E17.49207
G1 X129.67 Y82.005 E17.51394
G1 X129.972 Y82.451 E17.53902
G1 X130.215 Y82.867 E17.56146
G1 X130.448 Y83.334 E17.58576
G1 X130.637 Y83.787 E17.60861
G1 X130.802 Y84.272 E17.63247
G1 X130.922 Y84.714 E17.65379
G1 X131.027 Y85.227 E17.67818
G1 X131.092 Y85.696 E17.70022
G1 X131.129 Y86.211 E17.72427
G1 X131.138 Y86.472 E17.73643
G1 X131.14 Y123.504 E19.46079
G1 X131.133 Y123.734 E19.47151
G1 X131.101 Y124.24 E19.49512
G1 X131.038 Y124.721 E19.5177
G1 X130.938 Y125.223 E19.54154
G1 X130.827 Y125.646 E19.5619
G1 X130.664 Y126.143 E19.58626
G1 X130.472 Y126.615 E19.60998
G1 X130.239 Y127.089 E19.63458
G1 X130.009 Y127.489 E19.65606
G1 X129.723 Y127.922 E19.68023
G1 X129.438 Y128.299 E19.70223
G1 X129.096 Y128.694 E19.72656
G1 X128.756 Y129.037 E19.74905
G1 X128.366 Y129.382 E19.7733
G1 X127.993 Y129.671 E19.79527
G1 X127.545 Y129.974 E19.82045
G1 X127.128 Y130.217 E19.84293
G1 X126.66 Y130.45 E19.86727
G1 X126.21 Y130.638 E19.88998
G1 X125.728 Y130.802 E19.91369
G1 X125.286 Y130.922 E19.93501
G1 X124.773 Y131.027 E19.9594
G1 X124.301 Y131.092 E19.98158
G1 X123.781 Y131.129 E20.00586
G1 X123.523 Y131.138 E20.01788
G1 X115.495 Y131.138 E20.39169
G1 X115.684 Y131.182 E20.40073
G1 X116.169 Y131.345 E20.42455
G1 X116.612 Y131.527 E20.44686
G1 X117.087 Y131.76 E20.47149
G1 X117.49 Y131.991 E20.49312
G1 X117.926 Y132.279 E20.51745
G1 X118.31 Y132.571 E20.53992
G1 X118.704 Y132.914 E20.56424
G1 X119.04 Y133.247 E20.58627
G1 X119.385 Y133.637 E20.61051
G1 X119.674 Y134.009 E20.63245
G1 X119.971 Y134.448 E20.65713
G1 X120.212 Y134.86 E20.67935
G1 X120.45 Y135.336 E20.70413
G1 X120.644 Y135.804 E20.72772
G1 X120.804 Y136.28 E20.75111
G1 X120.92 Y136.709 E20.7718
G1 X121.028 Y137.236 E20.79685
G1 X121.093 Y137.71 E20.81913
G1 X121.129 Y138.219 E20.84289
G1 X121.138 Y138.476 E20.85486
G1 X121.14 Y175.505 E22.57909
G1 X121.132 Y175.746 E22.59032
G1 X121.099 Y176.244 E22.61356
G1 X121.041 Y176.695 E22.63473
G1 X120.944 Y177.196 E22.65849
G1 X120.83 Y177.634 E22.67957
G1 X120.669 Y178.127 E22.70372
G1 X120.482 Y178.589 E22.72692
G1 X120.251 Y179.064 E22.75152
G1 X120.016 Y179.477 E22.77364
G1 X119.727 Y179.915 E22.79808
G1 X119.448 Y180.284 E22.81962
G1 X119.109 Y180.678 E22.84382
G1 X118.773 Y181.021 E22.86618
G1 X118.385 Y181.367 E22.89039
G1 X118.004 Y181.663 E22.91285
G1 X117.548 Y181.972 E22.9385
G1 X117.134 Y182.215 E22.96086
G1 X116.666 Y182.449 E22.98522
G1 X116.202 Y182.642 E23.00862
G1 X115.728 Y182.802 E23.03192
G1 X115.302 Y182.917 E23.05246
G1 X114.79 Y183.023 E23.07681
G1 X114.324 Y183.089 E23.09872
G1 X113.804 Y183.128 E23.123
G1 X113.532 Y183.138 E23.13568
G1 X76.841 Y183.14 E24.84417
G1 X76.702 Y183.137 E24.85064
G1 X75.862 Y183.105 E24.88978
G1 X75.312 Y183.042 E24.91556
G1 X74.788 Y182.941 E24.94041
G1 X74.326 Y182.82 E24.96265
G1 X73.84 Y182.658 E24.9865
G1 X73.388 Y182.473 E25.00924
G1 X72.911 Y182.239 E25.03398
G1 X72.506 Y182.007 E25.05572
G1 X72.072 Y181.72 E25.07994
G1 X71.689 Y181.429 E25.10234
G1 X71.293 Y181.084 E25.1268
G1 X70.955 Y180.747 E25.14902
G1 X70.61 Y180.356 E25.1733
G1 X70.323 Y179.986 E25.19511
G1 X70.027 Y179.548 E25.21972
G1 X69.787 Y179.138 E25.24184
G1 X69.55 Y178.664 E25.26652
G1 X69.356 Y178.196 E25.29011
G1 X69.196 Y177.72 E25.31349
G1 X69.08 Y177.291 E25.33419
G1 X68.972 Y176.764 E25.35924
G1 X68.907 Y176.29 E25.38152
G1 X68.871 Y175.781 E25.40528
G1 X68.862 Y175.524 E25.41725
G1 X68.86 Y138.496 E27.14143
G1 X68.867 Y138.264 E27.15224
G1 X68.9 Y137.748 E27.17631
G1 X68.963 Y137.27 E27.19876
G1 X69.063 Y136.767 E27.22264
G1 X69.18 Y136.326 E27.24389
G1 X69.342 Y135.84 E27.26774
G1 X69.527 Y135.388 E27.29048
G1 X69.76 Y134.913 E27.31512
G1 X69.992 Y134.508 E27.33685
G1 X70.281 Y134.071 E27.36125
G1 X70.571 Y133.689 E27.38358
G1 X70.913 Y133.296 E27.40784
G1 X71.25 Y132.957 E27.4301
G1 X71.643 Y132.61 E27.45451
G1 X72.014 Y132.323 E27.47635
G1 X72.452 Y132.027 E27.50097
G1 X72.862 Y131.787 E27.52309
G1 X73.336 Y131.55 E27.54777
G1 X73.804 Y131.356 E27.57136
G1 X74.28 Y131.196 E27.59474
G1 X74.709 Y131.08 E27.61543
G1 X75.236 Y130.972 E27.64048
G1 X75.713 Y130.907 E27.6629
G1 X76.227 Y130.871 E27.68689
G1 X76.481 Y130.862 E27.69873
G1 X84.486 Y130.862 E28.07147
G1 X84.354 Y130.827 E28.07783
G1 X83.857 Y130.664 E28.10219
G1 X83.385 Y130.472 E28.12591
G1 X82.909 Y130.238 E28.15061
G1 X82.507 Y130.007 E28.1722
G1 X82.076 Y129.722 E28.19626
G1 X81.7 Y129.437 E28.21823
G1 X81.303 Y129.093 E28.24269
G1 X80.96 Y128.753 E28.26518
G1 X80.617 Y128.365 E28.28929
G1 X80.329 Y127.993 E28.3112
G1 X80.026 Y127.545 E28.33638
G1 X79.783 Y127.128 E28.35886
G1 X79.55 Y126.66 E28.3832
G1 X79.362 Y126.21 E28.40591
G1 X79.198 Y125.728 E28.42962
G1 X79.078 Y125.286 E28.45094
G1 X78.973 Y124.773 E28.47533
G1 X78.908 Y124.304 E28.49737
G1 X78.871 Y123.789 E28.52142
G1 X78.862 Y123.528 E28.53358
G1 X78.86 Y86.496 E30.25794
G1 X78.868 Y86.26 E30.26894
G1 X78.901 Y85.752 E30.29264
G1 X78.962 Y85.281 E30.31476
G1 X79.061 Y84.781 E30.33849
G1 X79.173 Y84.354 E30.35905
G1 X79.336 Y83.857 E30.3834
G1 X79.528 Y83.385 E30.40713
G1 X79.761 Y82.911 E30.43172
G1 X79.991 Y82.511 E30.45321
G1 X80.277 Y82.078 E30.47737
G1 X80.562 Y81.701 E30.49938
G1 X80.904 Y81.306 E30.52371
G1 X81.244 Y80.963 E30.54619
M204 S3000
M205 X10 Y10
G0 F3000 X81.615 Y81.382
M204 S1800
M205 X8 Y8
G1 F2400 X82.005 Y81.037 E30.57044
G1 X82.32 Y80.793 E30.58899
G1 X82.768 Y80.49 E30.61418
G1 X83.121 Y80.284 E30.63321
G1 X83.589 Y80.051 E30.65755
G1 X83.97 Y79.892 E30.67678
G1 X84.452 Y79.728 E30.70048
G1 X84.826 Y79.627 E30.71852
G1 X85.339 Y79.522 E30.74291
G1 X85.738 Y79.467 E30.76166
G1 X86.258 Y79.43 E30.78593
G1 X86.477 Y79.422 E30.79614
G1 X123.5 Y79.42 E32.52009
G1 X123.895 Y79.445 E32.53851
G1 X124.907 Y79.576 E32.58603
G1 X125.477 Y79.706 E32.61325
G1 X125.974 Y79.87 E32.63762
G1 X126.368 Y80.031 E32.65744
G1 X126.842 Y80.264 E32.68204
G1 X127.181 Y80.458 E32.70022
G1 X127.614 Y80.744 E32.72439
G1 X127.932 Y80.986 E32.74299
G1 X128.327 Y81.328 E32.76732
G1 X128.618 Y81.615 E32.78636
G1 X128.963 Y82.005 E32.8106
G1 X129.206 Y82.319 E32.82909
G1 X129.508 Y82.765 E32.85417
G1 X129.714 Y83.117 E32.87316
G1 X129.947 Y83.584 E32.89746
G1 X130.107 Y83.967 E32.91679
G1 X130.272 Y84.452 E32.94065
G1 X130.373 Y84.826 E32.95868
G1 X130.478 Y85.339 E32.98307
G1 X130.533 Y85.736 E33.00173
G1 X130.57 Y86.251 E33.02577
G1 X130.578 Y86.472 E33.03607
G1 X130.58 Y123.504 E34.76043
G1 X130.574 Y123.698 E34.76947
G1 X130.542 Y124.204 E34.79308
G1 X130.489 Y124.612 E34.81224
G1 X130.389 Y125.114 E34.83607
G1 X130.295 Y125.472 E34.85331
G1 X130.132 Y125.969 E34.87766
G1 X129.969 Y126.368 E34.89773
G1 X129.736 Y126.842 E34.92233
G1 X129.542 Y127.181 E34.94051
G1 X129.256 Y127.614 E34.96468
G1 X129.014 Y127.932 E34.98329
G1 X128.672 Y128.327 E35.00761
G1 X128.385 Y128.618 E35.02665
G1 X127.995 Y128.963 E35.05089
G1 X127.68 Y129.207 E35.06944
G1 X127.232 Y129.51 E35.09463
G1 X126.879 Y129.716 E35.11366
G1 X126.411 Y129.949 E35.138
G1 X126.03 Y130.108 E35.15723
G1 X125.548 Y130.272 E35.18094
G1 X125.174 Y130.373 E35.19897
G1 X124.661 Y130.478 E35.22336
G1 X124.262 Y130.533 E35.24211
G1 X123.742 Y130.57 E35.26639
G1 X123.523 Y130.578 E35.27659
G1 X86.498 Y130.58 E37.00063
G1 X86.299 Y130.574 E37.0099
G1 X85.789 Y130.541 E37.0337
G1 X85.39 Y130.488 E37.05244
G1 X84.89 Y130.389 E37.07617
G1 X84.528 Y130.295 E37.09359
G1 X84.031 Y130.132 E37.11794
G1 X83.632 Y129.969 E37.13801
G1 X83.156 Y129.735 E37.16271
G1 X82.816 Y129.54 E37.18096
G1 X82.385 Y129.255 E37.20502
G1 X82.067 Y129.014 E37.2236
G1 X81.67 Y128.67 E37.24806
G1 X81.379 Y128.382 E37.26713
G1 X81.036 Y127.994 E37.29124
G1 X80.793 Y127.68 E37.30973
G1 X80.49 Y127.232 E37.33491
G1 X80.284 Y126.879 E37.35394
G1 X80.051 Y126.411 E37.37829
G1 X79.892 Y126.03 E37.39751
G1 X79.728 Y125.548 E37.42122
G1 X79.627 Y125.174 E37.43926
G1 X79.522 Y124.661 E37.46364
G1 X79.467 Y124.264 E37.4823
G1 X79.43 Y123.749 E37.50635
G1 X79.422 Y123.528 E37.51664
G1 X79.42 Y86.496 E39.24101
G1 X79.426 Y86.296 E39.25033
G1 X79.459 Y85.788 E39.27403
G1 X79.512 Y85.39 E39.29273
G1 X79.611 Y84.89 E39.31646
G1 X79.705 Y84.528 E39.33388
G1 X79.868 Y84.031 E39.35823
G1 X80.031 Y83.632 E39.3783
G1 X80.264 Y83.158 E39.40289
G1 X80.458 Y82.819 E39.42108
G1 X80.744 Y82.386 E39.44524
G1 X80.986 Y82.068 E39.46385
G1 X81.328 Y81.673 E39.48818
G1 X81.615 Y81.382 E39.50721
M204 S3000
M205 X10 Y10
G0 F3000 X81.986 Y81.802
