;FLAVOR:Marlin
;TIME:1698
;Filament used: 1.51993m
;Layer height: 0.2
;MINX:87.728
;MINY:79.711
;MINZ:0.2
;MAXX:122.785
;MAXY:144.245
;MAXZ:13.4
;POSTPROCESSED
;Generated with Cura_SteamEngine 4.4.0
M140 S65
M105
M190 S65
M104 S210
M105
M109 S210
M82 ;absolute extrusion mode
G21 ;metric values
G90 ;absolute positioning
M82 ;set extruder to absolute mode
M107 ;start with the fan off
G28 X0 Y0 ;move X/Y to min endstops
G28 Z0 ;move Z to min endstops
G1 Z15.0 F100 ;move the platform down 15mm
G92 E0 ;zero the extruded length
G1 F200 E3 ;extrude 3mm of feed stock
G92 E0 ;zero the extruded length again
G1 F100
G0 Y20 F100
M117 Printing...
G5
G92 E0
G92 E0
G1 F2400 E-6
;LAYER_COUNT:71
;LAYER:0
M106 S255
M204 S3000
M205 X10 Y10
G1 F600 Z0.275
G0 F3000 X89.553 Y85.73 Z0.275
M204 S1800
M205 X8 Y8
;TYPE:SKIRT
G1 F600 Z0.2
G1 F2400 E0
G1 X89.878 Y85.417 E0.02101
G1 X90.199 Y85.129 E0.04109
G1 X90.324 Y85.02 E0.04881
G1 X90.526 Y84.848 E0.06117
G1 X90.671 Y84.728 E0.06993
G1 X91.11 Y84.376 E0.09613
G1 X91.268 Y84.254 E0.10543
G1 X91.538 Y84.051 E0.12116
G1 X91.65 Y83.968 E0.12765
G1 X92.037 Y83.69 E0.14984
G1 X92.182 Y83.589 E0.15807
G1 X92.436 Y83.417 E0.17235
G1 X92.58 Y83.323 E0.18036
G1 X93.142 Y82.964 E0.21141
G1 X93.419 Y82.796 E0.22649
G1 X93.928 Y82.506 E0.25377
G1 X94.093 Y82.415 E0.26255
G1 X94.714 Y82.085 E0.29529
G1 X95.15 Y81.875 E0.31783
G1 X96.326 Y81.36 E0.37761
G1 X96.574 Y81.257 E0.39011
G1 X96.839 Y81.154 E0.40335
G1 X97.068 Y81.07 E0.41471
G1 X97.968 Y80.759 E0.45905
G1 X98.159 Y80.696 E0.46841
G1 X98.468 Y80.6 E0.48348
G1 X98.808 Y80.505 E0.49992
G1 X99.688 Y80.284 E0.54217
G1 X100.058 Y80.202 E0.55981
G1 X100.751 Y80.071 E0.59265
G1 X100.902 Y80.045 E0.59979
G1 X101.687 Y79.916 E0.63683
G1 X101.939 Y79.879 E0.64869
G1 X102.23 Y79.843 E0.66234
G1 X102.456 Y79.82 E0.67292
G1 X102.98 Y79.774 E0.69742
G1 X103.306 Y79.753 E0.71263
G1 X104.346 Y79.715 E0.76109
G1 X104.58 Y79.711 E0.77198
G1 X105.072 Y79.711 E0.79489
G1 X105.243 Y79.713 E0.80286
G1 X105.579 Y79.722 E0.81851
G1 X105.899 Y79.739 E0.83343
G1 X106.692 Y79.8 E0.87046
G1 X106.916 Y79.821 E0.88094
G1 X107.556 Y79.893 E0.91093
G1 X107.922 Y79.945 E0.92814
G1 X108.237 Y79.999 E0.94302
G1 X108.351 Y80.02 E0.94842
G1 X109.393 Y80.218 E0.99781
G1 X109.733 Y80.292 E1.01401
G1 X110.587 Y80.503 E1.05497
G1 X110.786 Y80.555 E1.06455
G1 X111.216 Y80.676 E1.08535
G1 X111.606 Y80.8 E1.10441
G1 X112.311 Y81.048 E1.13921
G1 X112.521 Y81.126 E1.14964
G1 X113.402 Y81.471 E1.19369
G1 X113.596 Y81.551 E1.20347
G1 X113.789 Y81.634 E1.21325
G1 X113.954 Y81.707 E1.22165
G1 X114.161 Y81.803 E1.23228
G1 X114.401 Y81.921 E1.24473
G1 X115.235 Y82.351 E1.28842
G1 X115.396 Y82.436 E1.2969
G1 X115.722 Y82.616 E1.31424
G1 X115.931 Y82.737 E1.32548
G1 X116.253 Y82.931 E1.34299
G1 X116.371 Y83.004 E1.34945
G1 X117.035 Y83.424 E1.38603
G1 X117.207 Y83.537 E1.39562
G1 X117.462 Y83.71 E1.40997
G1 X117.626 Y83.824 E1.41927
G1 X117.986 Y84.085 E1.43997
G1 X118.236 Y84.277 E1.45465
G1 X119.17 Y85.027 E1.51043
G1 X119.504 Y85.314 E1.53093
G1 X119.725 Y85.518 E1.54494
G1 X120.024 Y85.812 E1.56446
G1 X120.253 Y86.053 E1.57994
G1 X120.715 Y86.599 E1.61325
G1 X121.115 Y87.192 E1.64655
G1 X121.445 Y87.827 E1.67988
G1 X121.703 Y88.494 E1.71318
G1 X121.884 Y89.186 E1.74648
G1 X121.998 Y90.019 E1.78563
G1 X122.017 Y90.293 E1.79842
G1 X122.031 Y90.621 E1.81371
G1 X122.782 Y132.397 E3.75929
G1 X122.783 Y132.493 E3.76376
G1 X122.785 Y133.156 E3.79463
G1 X122.747 Y133.87 E3.82793
G1 X122.63 Y134.576 E3.86125
G1 X122.435 Y135.264 E3.89455
G1 X122.164 Y135.926 E3.92785
G1 X121.821 Y136.553 E3.96113
G1 X121.41 Y137.139 E3.99446
G1 X121.091 Y137.513 E4.01735
G1 X120.678 Y137.961 E4.04572
G1 X120.174 Y138.451 E4.07846
G1 X119.696 Y138.867 E4.10796
G1 X119.525 Y139.01 E4.11834
G1 X119.287 Y139.203 E4.13261
G1 X119.142 Y139.317 E4.1412
G1 X118.671 Y139.677 E4.1688
G1 X118.537 Y139.777 E4.17659
G1 X118.168 Y140.044 E4.1978
G1 X118.037 Y140.136 E4.20525
G1 X117.435 Y140.549 E4.23925
G1 X117.159 Y140.728 E4.25456
G1 X116.65 Y141.04 E4.28236
G1 X116.418 Y141.176 E4.29488
G1 X115.597 Y141.633 E4.33864
G1 X115.434 Y141.721 E4.34726
G1 X115.047 Y141.922 E4.36757
G1 X114.738 Y142.071 E4.38354
G1 X114.29 Y142.274 E4.40645
G1 X114.114 Y142.351 E4.41539
G1 X113.551 Y142.586 E4.4438
G1 X113.398 Y142.648 E4.45149
G1 X113.065 Y142.777 E4.46811
G1 X112.895 Y142.84 E4.47656
G1 X112.27 Y143.062 E4.50744
G1 X111.989 Y143.154 E4.52121
G1 X111.206 Y143.392 E4.55931
G1 X110.955 Y143.463 E4.57146
G1 X110.755 Y143.515 E4.58108
G1 X110.501 Y143.576 E4.59325
G1 X109.145 Y143.87 E4.65785
G1 X108.892 Y143.919 E4.66985
G1 X108.589 Y143.972 E4.68418
G1 X108.366 Y144.007 E4.69469
G1 X107.876 Y144.075 E4.71772
G1 X107.568 Y144.11 E4.73216
G1 X106.843 Y144.175 E4.76605
G1 X106.637 Y144.191 E4.77567
G1 X106.009 Y144.227 E4.80496
G1 X105.766 Y144.236 E4.81629
G1 X105.298 Y144.245 E4.83808
G1 X105.073 Y144.245 E4.84856
G1 X104.319 Y144.233 E4.88367
G1 X104.069 Y144.224 E4.89532
G1 X103.36 Y144.185 E4.92839
G1 X103.016 Y144.157 E4.94446
G1 X102.815 Y144.135 E4.95387
G1 X102.644 Y144.114 E4.96189
G1 X101.466 Y143.953 E5.01726
G1 X101.113 Y143.895 E5.03391
G1 X100.387 Y143.754 E5.06835
G1 X100.181 Y143.71 E5.07816
G1 X99.726 Y143.606 E5.09989
G1 X99.409 Y143.525 E5.11513
G1 X98.434 Y143.249 E5.16231
G1 X98.034 Y143.121 E5.18187
G1 X97.339 Y142.874 E5.21621
G1 X97.159 Y142.808 E5.22514
G1 X96.471 Y142.54 E5.25952
G1 X96.196 Y142.425 E5.2734
G1 X95.73 Y142.218 E5.29715
G1 X95.471 Y142.096 E5.31048
G1 X94.986 Y141.854 E5.33572
G1 X94.799 Y141.757 E5.34552
G1 X93.852 Y141.245 E5.39565
G1 X93.58 Y141.089 E5.41025
G1 X93.301 Y140.92 E5.42544
G1 X92.973 Y140.708 E5.44363
G1 X92.056 Y140.073 E5.49557
G1 X91.86 Y139.931 E5.50684
G1 X91.272 Y139.49 E5.54106
G1 X91.122 Y139.374 E5.54989
G1 X90.969 Y139.252 E5.559
G1 X90.435 Y138.775 E5.59234
G1 X89.959 Y138.242 E5.62562
G1 X89.544 Y137.66 E5.6589
G1 X89.235 Y137.11 E5.68828
G1 X89.19 Y137.02 E5.69296
G1 X88.906 Y136.364 E5.72625
G1 X88.697 Y135.679 E5.7596
G1 X88.567 Y134.976 E5.79289
G1 X88.518 Y134.373 E5.82106
G1 X88.49 Y133.54 E5.85987
G1 X88.487 Y133.439 E5.86457
G1 X87.731 Y91.041 E7.83911
G1 X87.73 Y90.946 E7.84354
G1 X87.728 Y90.272 E7.87492
G1 X87.766 Y89.558 E7.90822
G1 X87.883 Y88.852 E7.94154
G1 X88.056 Y88.229 E7.97165
G1 X88.08 Y88.157 E7.97518
G1 X88.344 Y87.492 E8.0085
G1 X88.68 Y86.861 E8.04178
G1 X89.085 Y86.271 E8.07511
G1 X89.553 Y85.73 E8.10842
M204 S3000
M205 X10 Y10
G0 F3000 X90.252 Y85.834
M204 S1800
M205 X8 Y8
G1 F2400 X90.573 Y85.546 E8.1285
G1 X90.687 Y85.447 E8.13553
G1 X90.889 Y85.275 E8.14788
G1 X91.022 Y85.165 E8.15592
G1 X91.461 Y84.813 E8.18212
G1 X91.604 Y84.701 E8.19058
G1 X91.874 Y84.498 E8.20631
G1 X91.977 Y84.423 E8.21224
G1 X92.364 Y84.145 E8.23443
G1 X92.496 Y84.052 E8.24195
G1 X92.75 Y83.88 E8.25623
G1 X92.881 Y83.794 E8.26353
G1 X93.443 Y83.435 E8.29458
G1 X93.696 Y83.283 E8.30832
G1 X94.205 Y82.993 E8.3356
G1 X94.356 Y82.91 E8.34363
G1 X94.977 Y82.58 E8.37637
G1 X95.374 Y82.387 E8.39693
G1 X96.55 Y81.872 E8.45671
G1 X96.777 Y81.779 E8.46813
G1 X97.042 Y81.676 E8.48137
G1 X97.251 Y81.599 E8.49174
G1 X98.151 Y81.288 E8.53608
G1 X98.325 Y81.231 E8.5446
G1 X98.634 Y81.135 E8.55967
G1 X98.945 Y81.048 E8.57471
G1 X99.825 Y80.827 E8.61696
G1 X100.162 Y80.753 E8.63302
G1 X100.855 Y80.622 E8.66586
G1 X100.993 Y80.597 E8.67239
G1 X101.778 Y80.468 E8.70944
G1 X102.008 Y80.435 E8.72026
G1 X102.299 Y80.399 E8.73391
G1 X102.505 Y80.377 E8.74356
G1 X103.029 Y80.331 E8.76805
G1 X103.327 Y80.313 E8.78195
G1 X104.367 Y80.275 E8.83041
G1 X104.58 Y80.271 E8.84033
G1 X105.072 Y80.271 E8.86324
G1 X105.228 Y80.273 E8.8705
G1 X105.564 Y80.282 E8.88616
G1 X105.856 Y80.297 E8.89977
G1 X106.649 Y80.358 E8.93681
G1 X106.854 Y80.378 E8.9464
G1 X107.494 Y80.45 E8.97639
G1 X107.828 Y80.497 E8.99209
G1 X108.143 Y80.551 E9.00697
G1 X108.246 Y80.57 E9.01185
G1 X109.288 Y80.768 E9.06124
G1 X109.599 Y80.835 E9.07605
G1 X110.453 Y81.046 E9.11701
G1 X110.634 Y81.094 E9.12573
G1 X111.064 Y81.215 E9.14653
G1 X111.42 Y81.328 E9.16392
G1 X112.125 Y81.576 E9.19872
G1 X112.316 Y81.647 E9.20821
G1 X113.197 Y81.992 E9.25227
G1 X113.375 Y82.065 E9.26123
G1 X113.568 Y82.148 E9.27101
G1 X113.718 Y82.215 E9.27866
G1 X113.925 Y82.311 E9.28928
G1 X114.144 Y82.418 E9.30063
G1 X114.978 Y82.848 E9.34433
G1 X115.125 Y82.927 E9.3521
G1 X115.451 Y83.107 E9.36944
G1 X115.642 Y83.217 E9.3797
G1 X115.964 Y83.411 E9.39721
G1 X116.072 Y83.477 E9.4031
G1 X116.736 Y83.897 E9.43968
G1 X116.893 Y84 E9.44843
G1 X117.148 Y84.173 E9.46278
G1 X117.297 Y84.278 E9.47126
G1 X117.657 Y84.539 E9.49197
G1 X117.886 Y84.713 E9.50536
G1 X118.82 Y85.463 E9.56114
G1 X119.124 Y85.726 E9.57986
G1 X119.345 Y85.93 E9.59386
G1 X119.618 Y86.198 E9.61167
G1 X119.847 Y86.439 E9.62715
G1 X120.287 Y86.961 E9.65894
G1 X120.664 Y87.531 E9.69077
G1 X120.972 Y88.141 E9.72258
G1 X121.206 Y88.783 E9.7544
G1 X121.364 Y89.448 E9.78623
G1 X121.439 Y90.058 E9.81485
G1 X121.458 Y90.332 E9.82764
G1 X121.471 Y90.631 E9.84157
G1 X122.222 Y132.407 E11.78715
G1 X122.223 Y132.494 E11.7912
G1 X122.225 Y133.157 E11.82208
G1 X122.187 Y133.84 E11.85393
G1 X122.07 Y134.513 E11.88574
G1 X121.875 Y135.167 E11.91751
G1 X121.604 Y135.795 E11.94936
G1 X121.263 Y136.387 E11.98118
G1 X120.679 Y137.133 E12.02529
G1 X120.266 Y137.581 E12.05366
G1 X119.806 Y138.028 E12.08353
G1 X119.328 Y138.444 E12.11304
G1 X119.172 Y138.575 E12.12252
G1 X118.934 Y138.768 E12.13679
G1 X118.802 Y138.872 E12.14462
G1 X118.331 Y139.232 E12.17222
G1 X118.208 Y139.323 E12.17934
G1 X117.839 Y139.59 E12.20055
G1 X117.72 Y139.675 E12.20736
G1 X117.118 Y140.088 E12.24136
G1 X116.866 Y140.251 E12.25533
G1 X116.357 Y140.563 E12.28313
G1 X116.145 Y140.687 E12.29457
G1 X115.324 Y141.144 E12.33832
G1 X115.176 Y141.224 E12.34615
G1 X114.789 Y141.425 E12.36646
G1 X114.507 Y141.561 E12.38104
G1 X114.059 Y141.764 E12.40394
G1 X113.899 Y141.834 E12.41207
G1 X113.336 Y142.069 E12.44048
G1 X113.196 Y142.126 E12.44752
G1 X112.863 Y142.255 E12.46415
G1 X112.708 Y142.312 E12.47184
G1 X112.083 Y142.534 E12.50272
G1 X111.826 Y142.619 E12.51533
G1 X111.043 Y142.857 E12.55343
G1 X110.815 Y142.921 E12.56446
G1 X110.615 Y142.973 E12.57408
G1 X110.382 Y143.028 E12.58523
G1 X109.026 Y143.322 E12.64984
G1 X108.795 Y143.368 E12.66081
G1 X108.492 Y143.421 E12.67513
G1 X108.289 Y143.453 E12.6847
G1 X107.799 Y143.521 E12.70773
G1 X107.517 Y143.553 E12.72095
G1 X106.792 Y143.618 E12.75484
G1 X106.605 Y143.631 E12.76357
G1 X105.977 Y143.667 E12.79286
G1 X105.755 Y143.676 E12.80321
G1 X105.287 Y143.685 E12.825
G1 X105.082 Y143.685 E12.83455
G1 X104.328 Y143.673 E12.86966
G1 X104.1 Y143.665 E12.88029
G1 X103.391 Y143.626 E12.91335
G1 X103.077 Y143.6 E12.92802
G1 X102.876 Y143.578 E12.93744
G1 X102.72 Y143.559 E12.94475
G1 X101.542 Y143.398 E13.00012
G1 X101.22 Y143.345 E13.01531
G1 X100.494 Y143.204 E13.04975
G1 X100.306 Y143.164 E13.0587
G1 X99.851 Y143.06 E13.08043
G1 X99.561 Y142.986 E13.09437
G1 X98.586 Y142.71 E13.14155
G1 X98.221 Y142.594 E13.15939
G1 X97.526 Y142.347 E13.19373
G1 X97.362 Y142.286 E13.20188
G1 X96.674 Y142.018 E13.23626
G1 X96.423 Y141.913 E13.24893
G1 X95.957 Y141.706 E13.27267
G1 X95.721 Y141.595 E13.28482
G1 X95.236 Y141.353 E13.31006
G1 X95.066 Y141.264 E13.31899
G1 X94.119 Y140.752 E13.36912
G1 X93.87 Y140.61 E13.38247
G1 X93.591 Y140.441 E13.39766
G1 X93.292 Y140.247 E13.41425
G1 X92.375 Y139.612 E13.46619
G1 X92.196 Y139.483 E13.47646
G1 X91.608 Y139.042 E13.51069
G1 X91.471 Y138.936 E13.51875
G1 X91.318 Y138.814 E13.52787
G1 X90.81 Y138.358 E13.55965
G1 X90.358 Y137.845 E13.59149
G1 X89.97 Y137.283 E13.62329
G1 X89.736 Y136.86 E13.6458
G1 X89.691 Y136.77 E13.65048
G1 X89.421 Y136.142 E13.68231
G1 X89.227 Y135.487 E13.71412
G1 X89.111 Y134.813 E13.74597
G1 X89.077 Y134.354 E13.7674
G1 X89.049 Y133.521 E13.80621
G1 X89.047 Y133.429 E13.8105
G1 X88.291 Y91.031 E15.78504
G1 X88.29 Y90.944 E15.78909
G1 X88.288 Y90.27 E15.82047
G1 X88.326 Y89.588 E15.85228
G1 X88.443 Y88.915 E15.88409
G1 X88.588 Y88.406 E15.90873
G1 X88.612 Y88.334 E15.91227
G1 X88.865 Y87.7 E15.94405
G1 X89.191 Y87.099 E15.97589
G1 X89.585 Y86.541 E16.0077
G1 X90.252 Y85.834 E16.05295
M204 S3000
M205 X10 Y10
G0 F3000 X90.626 Y86.251
M204 S1800
M205 X8 Y8
G1 F2400 X90.947 Y85.963 E16.07304
G1 X91.05 Y85.873 E16.07941
G1 X91.252 Y85.701 E16.09176
G1 X91.372 Y85.602 E16.099
G1 X91.811 Y85.25 E16.1252
G1 X91.941 Y85.149 E16.13287
G1 X92.211 Y84.946 E16.1486
G1 X92.304 Y84.878 E16.15396
G1 X92.691 Y84.6 E16.17615
G1 X92.81 Y84.516 E16.18293
G1 X93.064 Y84.344 E16.19722
G1 X93.183 Y84.266 E16.20384
G1 X93.745 Y83.907 E16.2349
G1 X93.973 Y83.769 E16.24731
G1 X94.482 Y83.479 E16.27458
G1 X94.618 Y83.404 E16.28182
G1 X95.239 Y83.074 E16.31456
G1 X95.599 Y82.9 E16.33318
G1 X96.775 Y82.385 E16.39296
G1 X96.98 Y82.301 E16.40328
G1 X97.245 Y82.198 E16.41651
G1 X97.434 Y82.129 E16.42588
G1 X98.334 Y81.818 E16.47022
G1 X98.491 Y81.766 E16.47792
G1 X98.8 Y81.67 E16.49299
G1 X99.081 Y81.591 E16.50658
G1 X99.961 Y81.37 E16.54883
G1 X100.266 Y81.303 E16.56337
G1 X100.959 Y81.172 E16.59621
G1 X101.084 Y81.15 E16.60212
G1 X101.869 Y81.021 E16.63917
G1 X102.077 Y80.991 E16.64895
G1 X102.368 Y80.955 E16.6626
G1 X102.554 Y80.935 E16.67132
G1 X103.078 Y80.889 E16.69581
G1 X103.347 Y80.873 E16.70836
G1 X104.387 Y80.835 E16.75682
G1 X104.58 Y80.831 E16.76581
G1 X105.072 Y80.831 E16.78871
G1 X105.213 Y80.833 E16.79528
G1 X105.549 Y80.842 E16.81093
G1 X105.813 Y80.856 E16.82324
G1 X106.606 Y80.917 E16.86028
G1 X106.791 Y80.934 E16.86893
G1 X107.431 Y81.006 E16.89892
G1 X107.733 Y81.049 E16.91312
G1 X108.048 Y81.103 E16.928
G1 X108.142 Y81.12 E16.93245
G1 X109.184 Y81.318 E16.98184
G1 X109.464 Y81.379 E16.99518
G1 X110.318 Y81.59 E17.03614
G1 X110.482 Y81.633 E17.04404
G1 X110.912 Y81.754 E17.06484
G1 X111.234 Y81.856 E17.08057
G1 X111.939 Y82.104 E17.11537
G1 X112.112 Y82.169 E17.12397
G1 X112.993 Y82.514 E17.16803
G1 X113.154 Y82.58 E17.17613
G1 X113.347 Y82.663 E17.18591
G1 X113.482 Y82.723 E17.19279
G1 X113.689 Y82.819 E17.20342
G1 X113.888 Y82.916 E17.21373
G1 X114.722 Y83.346 E17.25742
G1 X114.854 Y83.417 E17.2644
G1 X115.18 Y83.597 E17.28174
G1 X115.353 Y83.696 E17.29102
G1 X115.675 Y83.89 E17.30852
G1 X115.773 Y83.951 E17.3139
G1 X116.437 Y84.371 E17.35048
G1 X116.578 Y84.464 E17.35835
G1 X116.833 Y84.637 E17.3727
G1 X116.968 Y84.731 E17.38036
G1 X117.328 Y84.992 E17.40106
G1 X117.535 Y85.15 E17.41319
G1 X118.469 Y85.9 E17.46896
G1 X118.744 Y86.137 E17.48587
G1 X118.965 Y86.341 E17.49987
G1 X119.212 Y86.584 E17.51601
G1 X119.441 Y86.825 E17.53149
G1 X119.858 Y87.323 E17.56173
G1 X120.212 Y87.868 E17.59199
G1 X120.495 Y88.452 E17.62221
G1 X120.705 Y89.067 E17.65247
G1 X120.838 Y89.703 E17.68273
G1 X120.88 Y90.097 E17.70118
G1 X120.899 Y90.371 E17.71397
G1 X120.911 Y90.641 E17.72655
G1 X121.662 Y132.417 E19.67213
G1 X121.663 Y132.496 E19.67581
G1 X121.665 Y133.159 E19.70668
G1 X121.627 Y133.808 E19.73696
G1 X121.51 Y134.447 E19.7672
G1 X121.315 Y135.066 E19.79742
G1 X121.045 Y135.657 E19.82768
G1 X120.705 Y136.211 E19.85795
G1 X120.267 Y136.754 E19.89043
G1 X119.854 Y137.202 E19.9188
G1 X119.438 Y137.606 E19.94581
G1 X118.96 Y138.022 E19.97531
G1 X118.82 Y138.14 E19.98384
G1 X118.582 Y138.333 E19.99811
G1 X118.462 Y138.427 E20.0052
G1 X117.991 Y138.787 E20.03281
G1 X117.88 Y138.87 E20.03926
G1 X117.511 Y139.137 E20.06047
G1 X117.403 Y139.213 E20.06662
G1 X116.801 Y139.626 E20.10061
G1 X116.573 Y139.774 E20.11327
G1 X116.064 Y140.086 E20.14107
G1 X115.873 Y140.197 E20.15136
G1 X115.052 Y140.654 E20.19511
