;FLAVOR:Marlin
;TIME:846
;Filament used: 0.65984m
;Layer height: 0.2
;MINX:89.48
;MINY:82.35
;MINZ:0.2
;MAXX:120.52
;MAXY:127.65
;MAXZ:7
;Generated with Cura_SteamEngine 4.4.1
M140 S60
M105
M190 S60
M104 S200
M105
M109 S200
M82 ;absolute extrusion mode
G21 ;metric values
G90 ;absolute positioning
M82 ;set extruder to absolute mode
M107 ;start with the fan off
G28 X0 Y0 ;move X/Y to min endstops
G28 Z0 ;move Z to min endstops
G1 Z15.0 F100 ;move the platform down 15mm
G92 E0 ;zero the extruded length
G1 F200 E3 ;extrude 3mm of feed stock
G92 E0 ;zero the extruded length again
G1 F100
G0 Y20 F100
M117 Printing...
G5
G92 E0
G92 E0
G1 F2400 E-6
;LAYER_COUNT:35
;LAYER:0
M106 S255
M204 S3000
M205 X10 Y10
G1 F600 Z0.275
G0 F3000 X92.17 Y84.187 Z0.275
M204 S1800
M205 X8 Y8
;TYPE:SKIRT
G1 F600 Z0.2
G1 F2400 E0
G1 X92.71 Y83.718 E0.0333
G1 X93.298 Y83.311 E0.0666
G1 X93.928 Y82.972 E0.09992
G1 X94.592 Y82.706 E0.13322
G1 X95.282 Y82.516 E0.16655
G1 X96.222 Y82.384 E0.21075
G1 X96.545 Y82.363 E0.22582
G1 X96.96 Y82.35 E0.24515
G1 X112.663 Y82.35 E0.97635
G1 X112.755 Y82.351 E0.98064
G1 X113.453 Y82.361 E1.01314
G1 X114.166 Y82.411 E1.04642
G1 X114.87 Y82.54 E1.07975
G1 X115.554 Y82.748 E1.11304
G1 X116.211 Y83.03 E1.14633
G1 X116.833 Y83.384 E1.17966
G1 X117.411 Y83.805 E1.21295
G1 X117.939 Y84.288 E1.24627
G1 X118.409 Y84.826 E1.27954
G1 X118.817 Y85.414 E1.31286
G1 X119.156 Y86.044 E1.34618
G1 X119.423 Y86.707 E1.37946
G1 X119.614 Y87.397 E1.4128
G1 X119.72 Y88.033 E1.44282
G1 X119.833 Y89.021 E1.48912
G1 X120.171 Y91.645 E1.61232
G1 X120.253 Y92.163 E1.63674
G1 X120.266 Y92.247 E1.6407
G1 X120.411 Y93.256 E1.68816
G1 X120.474 Y94.018 E1.72377
G1 X120.499 Y95.098 E1.77407
G1 X120.501 Y95.225 E1.77998
G1 X120.518 Y100.503 E2.02575
G1 X120.518 Y100.595 E2.03003
G1 X120.51 Y101.317 E2.06366
G1 X120.505 Y101.496 E2.07199
G1 X120.484 Y102.033 E2.09702
G1 X120.48 Y102.124 E2.10126
G1 X120.388 Y103.857 E2.18207
G1 X120.322 Y106.495 E2.30494
G1 X120.332 Y109.116 E2.42699
G1 X120.475 Y112.944 E2.60536
G1 X120.5 Y113.385 E2.62593
G1 X120.507 Y113.556 E2.6339
G1 X120.517 Y113.887 E2.64932
G1 X120.52 Y114.08 E2.65831
G1 X120.52 Y120.514 E2.9579
G1 X120.519 Y120.602 E2.962
G1 X120.509 Y121.329 E2.99585
G1 X120.46 Y122.043 E3.02918
G1 X120.331 Y122.746 E3.06246
G1 X120.124 Y123.431 E3.09578
G1 X119.842 Y124.088 E3.12907
G1 X119.488 Y124.71 E3.1624
G1 X119.068 Y125.288 E3.19567
G1 X118.585 Y125.816 E3.22899
G1 X118.047 Y126.287 E3.26228
G1 X117.459 Y126.695 E3.29561
G1 X116.829 Y127.035 E3.32894
G1 X116.166 Y127.302 E3.36222
G1 X115.477 Y127.493 E3.39552
G1 X114.771 Y127.607 E3.42882
G1 X114.29 Y127.638 E3.45126
G1 X113.97 Y127.647 E3.46617
G1 X113.79 Y127.65 E3.47455
G1 X96.587 Y127.65 E4.27559
G1 X96.504 Y127.649 E4.27946
G1 X95.806 Y127.64 E4.31196
G1 X95.093 Y127.591 E4.34524
G1 X94.389 Y127.463 E4.37856
G1 X93.704 Y127.257 E4.41187
G1 X93.047 Y126.975 E4.44516
G1 X92.425 Y126.622 E4.47846
G1 X91.846 Y126.202 E4.51177
G1 X91.317 Y125.72 E4.54509
G1 X90.846 Y125.182 E4.57839
G1 X90.438 Y124.595 E4.61168
G1 X90.098 Y123.965 E4.64501
G1 X89.83 Y123.302 E4.67831
G1 X89.638 Y122.613 E4.71161
G1 X89.524 Y121.907 E4.74491
G1 X89.491 Y121.414 E4.76792
G1 X89.482 Y121.081 E4.78343
G1 X89.48 Y120.908 E4.79149
G1 X89.48 Y114.457 E5.09188
G1 X89.481 Y114.366 E5.09611
G1 X89.491 Y113.66 E5.12899
G1 X89.496 Y113.483 E5.13724
G1 X89.531 Y112.649 E5.1761
G1 X89.535 Y112.555 E5.18049
G1 X89.599 Y111.42 E5.23342
G1 X89.674 Y108.749 E5.35784
G1 X89.672 Y106.105 E5.48096
G1 X89.596 Y103.457 E5.60431
G1 X89.498 Y101.57 E5.69229
G1 X89.492 Y101.419 E5.69933
G1 X89.483 Y101.101 E5.71415
G1 X89.48 Y100.92 E5.72257
G1 X89.48 Y95.284 E5.98501
G1 X89.481 Y95.195 E5.98915
G1 X89.488 Y94.693 E6.01253
G1 X89.494 Y94.481 E6.02241
G1 X89.519 Y93.95 E6.04716
G1 X89.569 Y93.397 E6.07302
G1 X89.625 Y92.981 E6.09256
G1 X89.639 Y92.882 E6.09722
G1 X89.928 Y90.962 E6.18763
G1 X90.178 Y88.83 E6.28758
G1 X90.186 Y88.762 E6.29077
G1 X90.289 Y87.958 E6.32851
G1 X90.419 Y87.254 E6.36185
G1 X90.627 Y86.57 E6.39514
G1 X90.91 Y85.913 E6.42845
G1 X91.265 Y85.292 E6.46176
G1 X91.687 Y84.714 E6.49508
G1 X92.17 Y84.187 E6.52837
M204 S3000
M205 X10 Y10
G0 F3000 X92.695 Y84.462
M204 S1800
M205 X8 Y8
G1 F2400 X93.225 Y84.031 E6.56018
G1 X93.802 Y83.665 E6.59199
G1 X94.417 Y83.369 E6.62378
G1 X95.064 Y83.147 E6.65563
G1 X95.731 Y83.002 E6.68741
G1 X96.258 Y82.943 E6.7121
G1 X96.581 Y82.922 E6.72717
G1 X96.96 Y82.91 E6.74483
G1 X112.663 Y82.91 E7.47603
G1 X112.747 Y82.911 E7.47994
G1 X113.445 Y82.921 E7.51245
G1 X114.126 Y82.97 E7.54424
G1 X114.797 Y83.099 E7.57605
G1 X115.448 Y83.306 E7.60786
G1 X116.071 Y83.587 E7.63969
G1 X116.657 Y83.939 E7.67152
G1 X117.197 Y84.357 E7.70332
G1 X117.685 Y84.835 E7.73512
G1 X118.114 Y85.367 E7.76695
G1 X118.478 Y85.945 E7.79875
G1 X118.772 Y86.562 E7.83058
G1 X118.991 Y87.209 E7.86238
G1 X119.163 Y88.096 E7.90446
G1 X119.27 Y89.036 E7.94851
G1 X119.618 Y91.729 E8.07495
G1 X119.7 Y92.25 E8.09951
G1 X119.712 Y92.326 E8.10309
G1 X119.857 Y93.335 E8.15056
G1 X119.914 Y94.031 E8.18307
G1 X119.939 Y95.111 E8.23338
G1 X119.941 Y95.227 E8.23878
G1 X119.958 Y100.505 E8.48455
G1 X119.958 Y100.589 E8.48846
G1 X119.95 Y101.311 E8.52208
G1 X119.946 Y101.474 E8.52967
G1 X119.925 Y102.011 E8.5547
G1 X119.921 Y102.094 E8.55856
G1 X119.828 Y103.848 E8.64035
G1 X119.762 Y106.484 E8.76313
G1 X119.772 Y109.139 E8.88676
G1 X119.914 Y112.945 E9.06411
G1 X119.941 Y113.417 E9.08612
G1 X119.947 Y113.573 E9.09339
G1 X119.957 Y113.904 E9.10881
G1 X119.96 Y114.08 E9.11701
G1 X119.96 Y120.514 E9.4166
G1 X119.959 Y120.594 E9.42033
G1 X119.949 Y121.321 E9.45418
G1 X119.9 Y122.003 E9.48602
G1 X119.772 Y122.674 E9.51783
G1 X119.565 Y123.325 E9.54964
G1 X119.285 Y123.948 E9.58144
G1 X118.933 Y124.534 E9.61328
G1 X118.516 Y125.075 E9.64508
G1 X118.038 Y125.563 E9.67689
G1 X117.506 Y125.992 E9.70871
G1 X116.928 Y126.356 E9.74052
G1 X116.311 Y126.65 E9.77234
G1 X115.664 Y126.87 E9.80417
G1 X114.996 Y127.013 E9.83597
G1 X114.274 Y127.079 E9.86973
G1 X113.954 Y127.088 E9.88464
G1 X113.79 Y127.09 E9.89228
G1 X96.512 Y127.09 E10.69681
G1 X95.814 Y127.081 E10.72932
G1 X95.132 Y127.032 E10.76116
G1 X94.461 Y126.904 E10.79297
G1 X93.81 Y126.698 E10.82476
G1 X93.186 Y126.418 E10.85661
G1 X92.6 Y126.067 E10.88841
G1 X92.059 Y125.65 E10.92022
G1 X91.57 Y125.172 E10.95206
G1 X91.141 Y124.641 E10.98385
G1 X90.776 Y124.063 E11.01568
G1 X90.482 Y123.447 E11.04746
G1 X90.261 Y122.8 E11.0793
G1 X90.117 Y122.132 E11.11112
G1 X90.051 Y121.399 E11.14539
G1 X90.042 Y121.066 E11.1609
G1 X90.04 Y120.908 E11.16826
G1 X90.04 Y114.457 E11.46864
G1 X90.041 Y114.374 E11.47251
G1 X90.051 Y113.668 E11.50539
G1 X90.055 Y113.506 E11.51293
G1 X90.09 Y112.672 E11.5518
G1 X90.094 Y112.587 E11.55576
G1 X90.159 Y111.432 E11.60963
G1 X90.234 Y108.765 E11.73386
G1 X90.232 Y106.125 E11.85679
G1 X90.154 Y103.412 E11.98317
G1 X90.057 Y101.541 E12.07041
G1 X90.051 Y101.403 E12.07685
G1 X90.042 Y101.085 E12.09166
G1 X90.04 Y100.92 E12.09934
G1 X90.04 Y95.284 E12.36178
G1 X90.041 Y95.203 E12.36555
G1 X90.048 Y94.701 E12.38893
G1 X90.053 Y94.507 E12.39796
G1 X90.078 Y93.976 E12.42272
G1 X90.124 Y93.472 E12.44628
G1 X90.18 Y93.056 E12.46583
G1 X90.193 Y92.965 E12.47011
G1 X90.482 Y91.048 E12.56038
G1 X90.734 Y88.895 E12.66132
G1 X90.741 Y88.833 E12.66422
G1 X90.844 Y88.029 E12.70197
G1 X90.971 Y87.357 E12.73381
G1 X91.175 Y86.705 E12.76562
G1 X91.453 Y86.082 E12.79739
G1 X91.803 Y85.495 E12.82921
G1 X92.218 Y84.952 E12.86104
G1 X92.695 Y84.462 E12.89288
M204 S3000
M205 X10 Y10
G0 F3000 X92.748 Y85.199
M204 S1800
M205 X8 Y8
G1 F2400 X93.217 Y84.749 E12.92314
G1 X93.736 Y84.359 E12.95337
G1 X94.3 Y84.036 E12.98364
G1 X94.899 Y83.785 E13.01388
G1 X95.525 Y83.61 E13.04415
G1 X96.294 Y83.502 E13.0803
G1 X96.617 Y83.481 E13.09538
G1 X96.96 Y83.47 E13.11136
G1 X112.663 Y83.47 E13.84255
G1 X112.739 Y83.471 E13.84609
G1 X113.437 Y83.481 E13.8786
G1 X114.084 Y83.53 E13.90881
G1 X114.721 Y83.658 E13.93907
G1 X115.337 Y83.864 E13.96931
G1 X115.924 Y84.144 E13.99959
G1 X116.471 Y84.493 E14.02981
G1 X116.972 Y84.907 E14.06007
G1 X117.417 Y85.38 E14.09031
G1 X117.802 Y85.904 E14.12059
G1 X118.119 Y86.471 E14.15084
G1 X118.364 Y87.072 E14.18106
G1 X118.533 Y87.699 E14.2113
G1 X118.607 Y88.16 E14.23304
G1 X118.711 Y89.072 E14.27578
G1 X119.065 Y91.819 E14.40475
G1 X119.147 Y92.337 E14.42917
G1 X119.157 Y92.406 E14.43241
G1 X119.302 Y93.415 E14.47988
G1 X119.355 Y94.044 E14.50927
G1 X119.38 Y95.124 E14.55958
G1 X119.381 Y95.229 E14.56447
G1 X119.398 Y100.507 E14.81023
G1 X119.398 Y100.583 E14.81377
G1 X119.39 Y101.305 E14.84739
G1 X119.386 Y101.452 E14.85424
G1 X119.365 Y101.989 E14.87926
G1 X119.362 Y102.064 E14.88276
G1 X119.267 Y103.839 E14.96553
G1 X119.202 Y106.472 E15.08817
G1 X119.212 Y109.161 E15.21338
G1 X119.355 Y113 E15.39227
G1 X119.381 Y113.449 E15.41321
G1 X119.388 Y113.59 E15.41978
G1 X119.398 Y113.921 E15.4352
G1 X119.4 Y114.08 E15.44261
G1 X119.4 Y120.587 E15.7456
G1 X119.39 Y121.314 E15.77945
G1 X119.341 Y121.961 E15.80967
G1 X119.213 Y122.598 E15.83992
G1 X119.007 Y123.215 E15.87021
G1 X118.728 Y123.801 E15.90043
G1 X118.379 Y124.349 E15.93068
G1 X117.965 Y124.849 E15.96091
G1 X117.492 Y125.295 E15.99118
G1 X116.969 Y125.68 E16.02142
G1 X116.402 Y125.998 E16.05169
G1 X115.801 Y126.243 E16.08192
G1 X115.174 Y126.413 E16.11217
G1 X114.258 Y126.519 E16.1551
G1 X113.938 Y126.528 E16.17001
G1 X113.79 Y126.53 E16.1769
G1 X96.519 Y126.53 E16.98111
G1 X95.821 Y126.521 E17.01362
G1 X95.173 Y126.472 E17.04388
G1 X94.536 Y126.345 E17.07412
G1 X93.92 Y126.14 E17.10435
G1 X93.333 Y125.861 E17.13461
G1 X92.785 Y125.512 E17.16487
G1 X92.284 Y125.099 E17.1951
G1 X91.837 Y124.627 E17.22537
G1 X91.452 Y124.104 E17.25561
G1 X91.134 Y123.537 E17.28588
G1 X90.888 Y122.936 E17.31612
G1 X90.718 Y122.309 E17.34637
G1 X90.611 Y121.384 E17.38973
G1 X90.602 Y121.051 E17.40524
G1 X90.6 Y120.908 E17.4119
G1 X90.6 Y114.457 E17.71229
G1 X90.601 Y114.382 E17.71578
G1 X90.611 Y113.676 E17.74866
G1 X90.615 Y113.53 E17.75546
G1 X90.65 Y112.696 E17.79433
G1 X90.653 Y112.618 E17.79796
G1 X90.72 Y111.443 E17.85276
G1 X90.794 Y108.781 E17.97676
G1 X90.792 Y106.108 E18.10123
G1 X90.715 Y103.41 E18.22691
G1 X90.616 Y101.512 E18.31541
G1 X90.611 Y101.387 E18.32124
G1 X90.602 Y101.069 E18.33605
G1 X90.6 Y100.92 E18.34299
G1 X90.6 Y95.284 E18.60542
G1 X90.601 Y95.21 E18.60887
G1 X90.608 Y94.708 E18.63225
G1 X90.613 Y94.534 E18.64035
G1 X90.638 Y94.003 E18.66511
G1 X90.679 Y93.547 E18.68642
G1 X90.735 Y93.131 E18.70597
G1 X90.747 Y93.049 E18.70983
G1 X91.035 Y91.139 E18.79977
G1 X91.29 Y88.96 E18.90193
G1 X91.297 Y88.904 E18.90456
G1 X91.4 Y88.1 E18.9423
G1 X91.522 Y87.462 E18.97255
G1 X91.721 Y86.844 E19.00278
G1 X91.995 Y86.255 E19.03303
G1 X92.339 Y85.704 E19.06327
G1 X92.748 Y85.199 E19.09353
M204 S3000
M205 X10 Y10
G1 F2400 E13.09353
;MESH:pogo_pin_serial_adaptor.stl
G0 F3000 X95.965 Y89.604
G0 X97.484 Y89.604
G0 X111.97 Y99.85
M204 S1800
M205 X8 Y8
;TYPE:WALL-INNER
G1 F2400 E19.09353
G1 F1500 X111.97 Y115.15 E19.80596
G1 X112.72 Y115.15 E19.84089
G1 X112.72 Y119.85 E20.05974
G1 X97.28 Y119.85 E20.77869
G1 X97.28 Y115.15 E20.99754
G1 X98.03 Y115.15 E21.03246
G1 X98.03 Y99.85 E21.7449
G1 X97.56 Y99.85 E21.76678
G1 X97.28 Y99.85 E21.77982
G1 X97.28 Y99.57 E21.78826
G1 X97.283 Y95.65 E21.97079
G1 X98.03 Y95.65 E22.00557
G1 X98.03 Y90.15 E22.26168
G1 X111.97 Y90.15 E22.91078
G1 X111.97 Y95.65 E23.16689
G1 X112.703 Y95.65 E23.20102
G1 X112.715 Y99.57 E23.38355
G1 X112.715 Y99.85 E23.39659
G1 X112.435 Y99.85 E23.40503
G1 X111.97 Y99.85 E23.42668
M204 S3000
M205 X10 Y10
G0 F3000 X112.53 Y100.41
M204 S1800
M205 X8 Y8
G1 F1500 X112.53 Y114.59 E24.08696
G1 X113.28 Y114.59 E24.12188
G1 X113.28 Y120.41 E24.39289
G1 X96.72 Y120.41 E25.16399
G1 X96.72 Y114.59 E25.43499
G1 X97.47 Y114.59 E25.46992
G1 X97.47 Y100.41 E26.1302
G1 X97 Y100.41 E26.15208
G1 X96.72 Y100.41 E26.16512
G1 X96.72 Y100.13 E26.17356
G1 X96.723 Y95.09 E26.40824
G1 X97.47 Y95.09 E26.44303
G1 X97.47 Y89.59 E26.69913
G1 X112.53 Y89.59 E27.40039
G1 X112.53 Y95.09 E27.65649
G1 X113.261 Y95.09 E27.69053
G1 X113.277 Y100.13 E27.92521
G1 X113.277 Y100.41 E27.93825
G1 X112.997 Y100.41 E27.94669
G1 X112.53 Y100.41 E27.96844
M204 S3000
M205 X10 Y10
G0 F3000 X113.09 Y100.97
M204 S1800
M205 X8 Y8
;TYPE:WALL-OUTER
G1 F1500 X113.09 Y114.03 E28.57656
G1 X113.84 Y114.03 E28.61149
G1 X113.84 Y120.97 E28.93464
G1 X96.16 Y120.97 E29.7579
G1 X96.16 Y114.03 E30.08105
G1 X96.91 Y114.03 E30.11598
G1 X96.91 Y100.97 E30.7241
G1 X96.44 Y100.97 E30.74599
G1 X96.16 Y100.97 E30.75903
G1 X96.16 Y100.69 E30.76747
G1 X96.163 Y94.53 E31.0543
G1 X96.91 Y94.53 E31.08909
G1 X96.91 Y89.03 E31.34519
G1 X113.09 Y89.03 E32.0986
G1 X113.09 Y94.53 E32.3547
G1 X113.819 Y94.53 E32.38865
G1 X113.839 Y100.69 E32.67548
G1 X113.839 Y100.97 E32.68852
G1 X113.559 Y100.97 E32.69696
G1 X113.09 Y100.97 E32.7188
M204 S3000
M205 X10 Y10
G0 F3000 X113.09 Y101.17
G0 X112.43 Y101.17
G0 X112.163 Y99.3
M204 S1800
M205 X8 Y8
;TYPE:SKIN
G1 F1500 X111.42 Y99.3 E32.7534
G1 X111.42 Y115.7 E33.51705
G1 X112.17 Y115.7 E33.55197
G1 X112.17 Y119.3 E33.7196
G1 X97.83 Y119.3 E34.38733
G1 X97.83 Y115.7 E34.55496
G1 X98.58 Y115.7 E34.58989
G1 X98.58 Y99.3 E35.35354
G1 X97.83 Y99.3 E35.38846
G1 X97.833 Y96.2 E35.53281
G1 X98.58 Y96.2 E35.5676
G1 X98.58 Y90.7 E35.8237
G1 X111.42 Y90.7 E36.42158
G1 X111.42 Y96.2 E36.67769
G1 X112.155 Y96.2 E36.71191
G1 X112.163 Y99.3 E36.85626
M204 S3000
M205 X10 Y10
G0 F3000 X111.159 Y91.36
M204 S1800
M205 X8 Y8
G1 F1500 X110.759 Y90.96 E36.8826
M204 S3000
M205 X10 Y10
G0 F3000 X109.967 Y90.96
M204 S1800
M205 X8 Y8
G1 F1500 X111.159 Y92.152 E36.9611
M204 S3000
M205 X10 Y10
G0 F3000 X111.159 Y92.944
M204 S1800
M205 X8 Y8
G1 F1500 X109.175 Y90.96 E37.09175
M204 S3000
M205 X10 Y10
G0 F3000 X108.383 Y90.96
M204 S1800
M205 X8 Y8
G1 F1500 X111.159 Y93.736 E37.27455
M204 S3000
M205 X10 Y10
G0 F3000 X111.159 Y94.528
M204 S1800
M205 X8 Y8
G1 F1500 X107.591 Y90.96 E37.50951
M204 S3000
M205 X10 Y10
G0 F3000 X106.799 Y90.96
M204 S1800
M205 X8 Y8
G1 F1500 X111.159 Y95.32 E37.79662
M204 S3000
M205 X10 Y10
G0 F3000 X111.159 Y96.112
M204 S1800
M205 X8 Y8
G1 F1500 X106.007 Y90.96 E38.13589
M204 S3000
M205 X10 Y10
G0 F3000 X105.215 Y90.96
M204 S1800
M205 X8 Y8
G1 F1500 X111.898 Y97.642 E38.57595
M204 S3000
M205 X10 Y10
G0 F3000 X111.899 Y98.436
M204 S1800
M205 X8 Y8
G1 F1500 X104.423 Y90.96 E39.06825
M204 S3000
M205 X10 Y10
G0 F3000 X103.631 Y90.96
M204 S1800
M205 X8 Y8
G1 F1500 X111.71 Y99.039 E39.60027
M204 S3000
M205 X10 Y10
G0 F3000 X111.16 Y99.28
M204 S1800
M205 X8 Y8
G1 F1500 X102.839 Y90.96 E40.14819
M204 S3000
M205 X10 Y10
G0 F3000 X102.047 Y90.96
M204 S1800
M205 X8 Y8
G1 F1500 X111.16 Y100.072 E40.74826
M204 S3000
M205 X10 Y10
G0 F3000 X111.16 Y100.864
M204 S1800
M205 X8 Y8
G1 F1500 X101.255 Y90.96 E41.40049
M204 S3000
M205 X10 Y10
G0 F3000 X100.463 Y90.96
M204 S1800
M205 X8 Y8
G1 F1500 X111.16 Y101.656 E42.10487
M204 S3000
M205 X10 Y10
G0 F3000 X111.16 Y102.448
M204 S1800
M205 X8 Y8
G1 F1500 X99.671 Y90.96 E42.86141
M204 S3000
M205 X10 Y10
G0 F3000 X98.879 Y90.96
M204 S1800
M205 X8 Y8
G1 F1500 X111.16 Y103.24 E43.6701
M204 S3000
M205 X10 Y10
G0 F3000 X111.16 Y104.032
M204 S1800
M205 X8 Y8
G1 F1500 X98.838 Y91.711 E44.48149
M204 S3000
M205 X10 Y10
G0 F3000 X98.838 Y92.503
M204 S1800
M205 X8 Y8
G1 F1500 X111.16 Y104.824 E45.29289
M204 S3000
M205 X10 Y10
G0 F3000 X111.16 Y105.616
M204 S1800
M205 X8 Y8
G1 F1500 X98.838 Y93.294 E46.10431
