;FLAVOR:Marlin
;TIME:7678
;Filament used: 5.83296m
;Layer height: 0.2
;MINX:22.6
;MINY:83.6
;MINZ:0.2
;MAXX:187.4
;MAXY:126.4
;MAXZ:37.6
;Generated with Cura_SteamEngine 4.4.1
M140 S60
M105
M190 S60
M104 S200
M105
M109 S200
M82 ;absolute extrusion mode
G21 ;metric values
G90 ;absolute positioning
M82 ;set extruder to absolute mode
M107 ;start with the fan off
G28 X0 Y0 ;move X/Y to min endstops
G28 Z0 ;move Z to min endstops
G1 Z15.0 F100 ;move the platform down 15mm
G92 E0 ;zero the extruded length
G1 F200 E3 ;extrude 3mm of feed stock
G92 E0 ;zero the extruded length again
G1 F100
G0 Y20 F100
M117 Printing...
G5
G92 E0
G92 E0
G1 F2400 E-6
;LAYER_COUNT:188
;LAYER:0
M106 S255
M204 S3000
M205 X10 Y10
G1 F600 Z0.275
G0 F3000 X26.952 Y83.949 Z0.275
M204 S1800
M205 X8 Y8
;TYPE:SKIRT
G1 F600 Z0.2
G1 F2400 E0
G1 X27.641 Y83.757 E0.03331
G1 X28.347 Y83.643 E0.06661
G1 X28.83 Y83.612 E0.08914
G1 X29.151 Y83.603 E0.1041
G1 X29.33 Y83.6 E0.11243
G1 X180.293 Y83.6 E7.1419
G1 X180.385 Y83.601 E7.14619
G1 X181.083 Y83.611 E7.17869
G1 X181.796 Y83.661 E7.21197
G1 X182.5 Y83.79 E7.2453
G1 X183.184 Y83.998 E7.27859
G1 X183.841 Y84.28 E7.31188
G1 X184.463 Y84.634 E7.34521
G1 X185.041 Y85.055 E7.3785
G1 X185.569 Y85.538 E7.41182
G1 X186.039 Y86.076 E7.44509
G1 X186.447 Y86.664 E7.47841
G1 X186.786 Y87.294 E7.51173
G1 X187.053 Y87.957 E7.54501
G1 X187.244 Y88.647 E7.57835
G1 X187.357 Y89.353 E7.61164
G1 X187.388 Y89.829 E7.63385
G1 X187.397 Y90.147 E7.64866
G1 X187.4 Y90.329 E7.65714
G1 X187.394 Y119.305 E9.00638
G1 X187.393 Y119.391 E9.01039
G1 X187.384 Y120.056 E9.04136
G1 X187.335 Y120.769 E9.07463
G1 X187.206 Y121.473 E9.10796
G1 X186.999 Y122.157 E9.14124
G1 X186.717 Y122.815 E9.17457
G1 X186.364 Y123.437 E9.20787
G1 X185.944 Y124.015 E9.24114
G1 X185.461 Y124.543 E9.27446
G1 X184.923 Y125.014 E9.30776
G1 X184.335 Y125.422 E9.34109
G1 X183.706 Y125.762 E9.37438
G1 X183.042 Y126.029 E9.4077
G1 X182.353 Y126.221 E9.44101
G1 X181.591 Y126.34 E9.47692
G1 X181.265 Y126.371 E9.49217
G1 X180.659 Y126.4 E9.52042
G1 X29.707 Y126.4 E16.54938
G1 X29.624 Y126.399 E16.55324
G1 X28.926 Y126.39 E16.58575
G1 X28.213 Y126.341 E16.61902
G1 X27.509 Y126.213 E16.65234
G1 X26.824 Y126.007 E16.68565
G1 X26.167 Y125.725 E16.71894
G1 X25.545 Y125.372 E16.75224
G1 X24.966 Y124.952 E16.78555
G1 X24.437 Y124.47 E16.81888
G1 X23.966 Y123.932 E16.85217
G1 X23.558 Y123.345 E16.88546
G1 X23.218 Y122.715 E16.91879
G1 X22.95 Y122.052 E16.95209
G1 X22.758 Y121.363 E16.9854
G1 X22.644 Y120.657 E17.0187
G1 X22.611 Y120.164 E17.0417
G1 X22.602 Y119.831 E17.05722
G1 X22.6 Y119.658 E17.06527
G1 X22.6 Y90.674 E18.41489
G1 X22.601 Y90.587 E18.41894
G1 X22.61 Y89.922 E18.44991
G1 X22.659 Y89.209 E18.48319
G1 X22.788 Y88.505 E18.51651
G1 X22.995 Y87.821 E18.54979
G1 X23.277 Y87.163 E18.58312
G1 X23.63 Y86.541 E18.61643
G1 X24.05 Y85.963 E18.6497
G1 X24.533 Y85.435 E18.68302
G1 X25.071 Y84.964 E18.71631
G1 X25.659 Y84.556 E18.74964
G1 X26.288 Y84.216 E18.78293
G1 X26.952 Y83.949 E18.81626
M204 S3000
M205 X10 Y10
G0 F3000 X27.453 Y84.38
M204 S1800
M205 X8 Y8
G1 F2400 X28.121 Y84.237 E18.84807
G1 X28.845 Y84.171 E18.88192
G1 X29.166 Y84.162 E18.89687
G1 X29.33 Y84.16 E18.90451
G1 X180.293 Y84.16 E25.93398
G1 X180.377 Y84.161 E25.93789
G1 X181.075 Y84.171 E25.9704
G1 X181.756 Y84.22 E26.00219
G1 X182.427 Y84.349 E26.034
G1 X183.078 Y84.556 E26.06581
G1 X183.701 Y84.837 E26.09764
G1 X184.287 Y85.189 E26.12947
G1 X184.827 Y85.607 E26.16127
G1 X185.315 Y86.085 E26.19307
G1 X185.744 Y86.617 E26.2249
G1 X186.108 Y87.195 E26.2567
G1 X186.402 Y87.812 E26.28853
G1 X186.621 Y88.459 E26.32033
G1 X186.764 Y89.127 E26.35214
G1 X186.829 Y89.845 E26.38571
G1 X186.838 Y90.163 E26.40053
G1 X186.84 Y90.329 E26.40826
G1 X186.834 Y119.305 E27.7575
G1 X186.833 Y119.383 E27.76113
G1 X186.824 Y120.048 E27.7921
G1 X186.775 Y120.729 E27.82389
G1 X186.647 Y121.401 E27.85575
G1 X186.441 Y122.052 E27.88754
G1 X186.16 Y122.675 E27.91937
G1 X185.809 Y123.261 E27.95117
G1 X185.391 Y123.802 E27.98301
G1 X184.914 Y124.29 E28.01478
G1 X184.382 Y124.719 E28.04661
G1 X183.804 Y125.084 E28.07844
G1 X183.187 Y125.378 E28.11026
G1 X182.541 Y125.598 E28.14204
G1 X181.538 Y125.783 E28.18953
G1 X181.212 Y125.814 E28.20478
G1 X180.659 Y125.84 E28.23056
G1 X29.632 Y125.84 E35.26301
G1 X28.934 Y125.831 E35.29551
G1 X28.252 Y125.782 E35.32735
G1 X27.581 Y125.654 E35.35916
G1 X26.93 Y125.448 E35.39095
G1 X26.306 Y125.168 E35.4228
G1 X25.72 Y124.817 E35.45461
G1 X25.179 Y124.4 E35.48641
G1 X24.69 Y123.922 E35.51825
G1 X24.261 Y123.391 E35.55004
G1 X23.896 Y122.813 E35.58187
G1 X23.602 Y122.197 E35.61366
G1 X23.381 Y121.55 E35.64549
G1 X23.237 Y120.882 E35.67731
G1 X23.171 Y120.149 E35.71158
G1 X23.162 Y119.816 E35.72709
G1 X23.16 Y119.658 E35.73445
G1 X23.16 Y90.674 E37.08407
G1 X23.161 Y90.595 E37.08775
G1 X23.17 Y89.93 E37.11871
G1 X23.219 Y89.249 E37.15051
G1 X23.347 Y88.577 E37.18236
G1 X23.553 Y87.926 E37.21415
G1 X23.834 Y87.303 E37.24598
G1 X24.185 Y86.717 E37.27779
G1 X24.603 Y86.176 E37.30962
G1 X25.08 Y85.688 E37.3414
G1 X25.612 Y85.259 E37.37322
G1 X26.19 Y84.894 E37.40505
G1 X26.807 Y84.6 E37.43687
G1 X27.453 Y84.38 E37.46865
M204 S3000
M205 X10 Y10
G0 F3000 X27.317 Y85.007
M204 S1800
M205 X8 Y8
G1 F2400 X27.944 Y84.837 E37.4989
G1 X28.861 Y84.731 E37.54188
G1 X29.182 Y84.722 E37.55684
G1 X29.33 Y84.72 E37.56373
G1 X180.293 Y84.72 E44.5932
G1 X180.369 Y84.721 E44.59674
G1 X181.067 Y84.731 E44.62924
G1 X181.714 Y84.78 E44.65946
G1 X182.351 Y84.908 E44.68971
G1 X182.967 Y85.114 E44.71996
G1 X183.554 Y85.394 E44.75024
G1 X184.101 Y85.743 E44.78045
G1 X184.602 Y86.157 E44.81072
G1 X185.047 Y86.63 E44.84096
G1 X185.432 Y87.154 E44.87123
G1 X185.749 Y87.721 E44.90148
G1 X185.994 Y88.322 E44.9317
G1 X186.163 Y88.949 E44.96194
G1 X186.269 Y89.861 E45.00469
G1 X186.278 Y90.179 E45.01951
G1 X186.28 Y90.329 E45.02649
G1 X186.274 Y119.305 E46.37574
G1 X186.274 Y119.375 E46.379
G1 X186.265 Y120.04 E46.40996
G1 X186.216 Y120.688 E46.44022
G1 X186.088 Y121.325 E46.47048
G1 X185.883 Y121.942 E46.50075
G1 X185.603 Y122.528 E46.53099
G1 X185.254 Y123.076 E46.56125
G1 X184.84 Y123.577 E46.59151
G1 X184.368 Y124.023 E46.62175
G1 X183.845 Y124.407 E46.65196
G1 X183.278 Y124.725 E46.68223
G1 X182.677 Y124.971 E46.71247
G1 X182.05 Y125.141 E46.74272
G1 X181.485 Y125.225 E46.76932
G1 X181.159 Y125.256 E46.78456
G1 X180.659 Y125.28 E46.80787
G1 X29.639 Y125.28 E53.84
G1 X28.941 Y125.271 E53.8725
G1 X28.293 Y125.222 E53.90276
G1 X27.656 Y125.095 E53.93301
G1 X27.04 Y124.89 E53.96324
G1 X26.453 Y124.611 E53.9935
G1 X25.905 Y124.262 E54.02375
G1 X25.404 Y123.849 E54.05399
G1 X24.957 Y123.377 E54.08426
G1 X24.572 Y122.854 E54.1145
G1 X24.254 Y122.287 E54.14477
G1 X24.008 Y121.686 E54.17501
G1 X23.838 Y121.059 E54.20526
G1 X23.731 Y120.134 E54.24861
G1 X23.722 Y119.801 E54.26413
G1 X23.72 Y119.658 E54.27079
G1 X23.72 Y90.603 E55.62371
G1 X23.729 Y89.938 E55.65468
G1 X23.778 Y89.29 E55.68494
G1 X23.906 Y88.653 E55.71519
G1 X24.111 Y88.036 E55.74546
G1 X24.391 Y87.45 E55.77571
G1 X24.74 Y86.902 E55.80596
G1 X25.154 Y86.401 E55.83622
G1 X25.626 Y85.955 E55.86646
G1 X26.149 Y85.571 E55.89667
G1 X26.716 Y85.253 E55.92694
G1 X27.317 Y85.007 E55.95718
M204 S3000
M205 X10 Y10
G1 F2400 E49.95718
;MESH:UniFi LED Abdeckung v1.stl
G0 F3000 X29.854 Y89.335
G0 X29.854 Y90.854
G0 X30.4 Y118.6
M204 S1800
M205 X8 Y8
;TYPE:WALL-INNER
G1 F2400 E55.95718
G1 F1500 X30.4 Y91.4 E57.22373
G1 X179.6 Y91.4 E64.1711
G1 X179.6 Y118.6 E65.43765
G1 X30.4 Y118.6 E72.38503
M204 S3000
M205 X10 Y10
G0 F3000 X29.84 Y119.16
M204 S1800
M205 X8 Y8
G1 F1500 X29.84 Y90.84 E73.70373
G1 X180.16 Y90.84 E80.70325
G1 X180.16 Y119.16 E82.02195
G1 X29.84 Y119.16 E89.02148
M204 S3000
M205 X10 Y10
G0 F3000 X29.28 Y119.72
M204 S1800
M205 X8 Y8
;TYPE:WALL-OUTER
G1 F1500 X29.28 Y90.28 E90.39233
G1 X180.72 Y90.28 E97.44401
G1 X180.72 Y119.72 E98.81486
G1 X29.28 Y119.72 E105.86654
M204 S3000
M205 X10 Y10
G0 F3000 X29.28 Y119.52
G0 X29.91 Y119.09
G0 X30.95 Y118.05
M204 S1800
M205 X8 Y8
;TYPE:SKIN
G1 F1500 X30.95 Y91.95 E107.08187
G1 X179.05 Y91.95 E113.97802
G1 X179.05 Y118.05 E115.19335
G1 X30.95 Y118.05 E122.08951
M204 S3000
M205 X10 Y10
G0 F3000 X31.465 Y117.789
M204 S1800
M205 X8 Y8
G1 F1500 X31.209 Y117.533 E122.10636
M204 S3000
M205 X10 Y10
G0 F3000 X31.209 Y116.741
M204 S1800
M205 X8 Y8
G1 F1500 X32.257 Y117.789 E122.17538
M204 S3000
M205 X10 Y10
G0 F3000 X33.049 Y117.789
M204 S1800
M205 X8 Y8
G1 F1500 X31.209 Y115.949 E122.29654
M204 S3000
M205 X10 Y10
G0 F3000 X31.209 Y115.157
M204 S1800
M205 X8 Y8
G1 F1500 X33.841 Y117.789 E122.46987
M204 S3000
M205 X10 Y10
G0 F3000 X34.633 Y117.789
M204 S1800
M205 X8 Y8
G1 F1500 X31.209 Y114.365 E122.69534
M204 S3000
M205 X10 Y10
G0 F3000 X31.209 Y113.573
M204 S1800
M205 X8 Y8
G1 F1500 X35.425 Y117.789 E122.97297
M204 S3000
M205 X10 Y10
G0 F3000 X36.217 Y117.789
M204 S1800
M205 X8 Y8
G1 F1500 X31.209 Y112.781 E123.30276
M204 S3000
M205 X10 Y10
G0 F3000 X31.209 Y111.989
M204 S1800
M205 X8 Y8
G1 F1500 X37.009 Y117.789 E123.6847
M204 S3000
M205 X10 Y10
G0 F3000 X37.801 Y117.789
M204 S1800
M205 X8 Y8
G1 F1500 X31.209 Y111.197 E124.11879
M204 S3000
M205 X10 Y10
G0 F3000 X31.209 Y110.405
M204 S1800
M205 X8 Y8
G1 F1500 X38.593 Y117.789 E124.60504
M204 S3000
M205 X10 Y10
G0 F3000 X39.385 Y117.789
M204 S1800
M205 X8 Y8
G1 F1500 X31.209 Y109.613 E125.14344
M204 S3000
M205 X10 Y10
G0 F3000 X31.209 Y108.821
M204 S1800
M205 X8 Y8
G1 F1500 X40.177 Y117.789 E125.734
M204 S3000
M205 X10 Y10
G0 F3000 X40.969 Y117.789
M204 S1800
M205 X8 Y8
G1 F1500 X31.209 Y108.029 E126.37672
M204 S3000
M205 X10 Y10
G0 F3000 X31.209 Y107.237
M204 S1800
M205 X8 Y8
G1 F1500 X41.761 Y117.789 E127.07158
M204 S3000
M205 X10 Y10
G0 F3000 X42.552 Y117.789
M204 S1800
M205 X8 Y8
G1 F1500 X31.209 Y106.445 E127.81857
M204 S3000
M205 X10 Y10
G0 F3000 X31.209 Y105.653
M204 S1800
M205 X8 Y8
G1 F1500 X43.344 Y117.789 E128.61771
M204 S3000
M205 X10 Y10
G0 F3000 X44.136 Y117.789
M204 S1800
M205 X8 Y8
G1 F1500 X31.209 Y104.861 E129.46901
M204 S3000
M205 X10 Y10
G0 F3000 X31.209 Y104.069
M204 S1800
M205 X8 Y8
G1 F1500 X44.928 Y117.789 E130.37247
M204 S3000
M205 X10 Y10
G0 F3000 X45.72 Y117.789
M204 S1800
M205 X8 Y8
G1 F1500 X31.209 Y103.277 E131.32807
M204 S3000
M205 X10 Y10
G0 F3000 X31.209 Y102.485
M204 S1800
M205 X8 Y8
G1 F1500 X46.512 Y117.789 E132.33583
M204 S3000
M205 X10 Y10
G0 F3000 X47.304 Y117.789
M204 S1800
M205 X8 Y8
G1 F1500 X31.209 Y101.693 E133.39575
M204 S3000
M205 X10 Y10
G0 F3000 X31.209 Y100.902
M204 S1800
M205 X8 Y8
G1 F1500 X48.096 Y117.789 E134.50779
M204 S3000
M205 X10 Y10
G0 F3000 X48.888 Y117.789
M204 S1800
M205 X8 Y8
G1 F1500 X31.209 Y100.11 E135.67198
M204 S3000
M205 X10 Y10
G0 F3000 X31.209 Y99.318
M204 S1800
M205 X8 Y8
G1 F1500 X49.68 Y117.789 E136.88833
M204 S3000
M205 X10 Y10
G0 F3000 X50.472 Y117.789
M204 S1800
M205 X8 Y8
G1 F1500 X31.209 Y98.526 E138.15683
M204 S3000
M205 X10 Y10
G0 F3000 X31.209 Y97.734
M204 S1800
M205 X8 Y8
G1 F1500 X51.264 Y117.789 E139.47748
M204 S3000
M205 X10 Y10
G0 F3000 X52.056 Y117.789
M204 S1800
M205 X8 Y8
G1 F1500 X31.209 Y96.942 E140.8503
M204 S3000
M205 X10 Y10
G0 F3000 X31.209 Y96.15
M204 S1800
M205 X8 Y8
G1 F1500 X52.848 Y117.789 E142.27526
M204 S3000
M205 X10 Y10
G0 F3000 X53.64 Y117.789
M204 S1800
M205 X8 Y8
G1 F1500 X31.209 Y95.358 E143.75238
M204 S3000
M205 X10 Y10
G0 F3000 X31.209 Y94.566
M204 S1800
M205 X8 Y8
G1 F1500 X54.432 Y117.789 E145.28165
M204 S3000
M205 X10 Y10
G0 F3000 X55.224 Y117.789
M204 S1800
M205 X8 Y8
G1 F1500 X31.209 Y93.774 E146.86308
M204 S3000
M205 X10 Y10
G0 F3000 X31.209 Y92.982
M204 S1800
M205 X8 Y8
G1 F1500 X56.016 Y117.789 E148.49667
M204 S3000
M205 X10 Y10
G0 F3000 X56.808 Y117.789
M204 S1800
M205 X8 Y8
G1 F1500 X31.228 Y92.209 E150.18115
M204 S3000
M205 X10 Y10
G0 F3000 X32.02 Y92.209
M204 S1800
M205 X8 Y8
G1 F1500 X57.6 Y117.789 E151.86564
M204 S3000
M205 X10 Y10
G0 F3000 X58.392 Y117.789
M204 S1800
M205 X8 Y8
G1 F1500 X32.812 Y92.209 E153.55013
M204 S3000
M205 X10 Y10
G0 F3000 X33.604 Y92.209
M204 S1800
M205 X8 Y8
G1 F1500 X59.184 Y117.789 E155.23461
M204 S3000
M205 X10 Y10
G0 F3000 X59.976 Y117.789
M204 S1800
M205 X8 Y8
G1 F1500 X34.396 Y92.209 E156.9191
M204 S3000
M205 X10 Y10
G0 F3000 X35.188 Y92.209
M204 S1800
M205 X8 Y8
G1 F1500 X60.768 Y117.789 E158.60359
M204 S3000
M205 X10 Y10
G0 F3000 X61.56 Y117.789
M204 S1800
M205 X8 Y8
G1 F1500 X35.98 Y92.209 E160.28807
M204 S3000
M205 X10 Y10
G0 F3000 X36.772 Y92.209
M204 S1800
M205 X8 Y8
G1 F1500 X62.351 Y117.789 E161.97253
M204 S3000
M205 X10 Y10
G0 F3000 X63.143 Y117.789
M204 S1800
M205 X8 Y8
G1 F1500 X37.564 Y92.209 E163.65698
M204 S3000
M205 X10 Y10
G0 F3000 X38.356 Y92.209
M204 S1800
M205 X8 Y8
G1 F1500 X63.935 Y117.789 E165.34143
M204 S3000
M205 X10 Y10
G0 F3000 X64.727 Y117.789
M204 S1800
M205 X8 Y8
G1 F1500 X39.148 Y92.209 E167.02589
M204 S3000
M205 X10 Y10
G0 F3000 X39.94 Y92.209
M204 S1800
M205 X8 Y8
G1 F1500 X65.519 Y117.789 E168.71034
M204 S3000
M205 X10 Y10
G0 F3000 X66.311 Y117.789
M204 S1800
M205 X8 Y8
G1 F1500 X40.732 Y92.209 E170.3948
M204 S3000
M205 X10 Y10
G0 F3000 X41.524 Y92.209
M204 S1800
M205 X8 Y8
G1 F1500 X67.103 Y117.789 E172.07925
M204 S3000
M205 X10 Y10
G0 F3000 X67.895 Y117.789
M204 S1800
M205 X8 Y8
G1 F1500 X42.316 Y92.209 E173.7637
M204 S3000
M205 X10 Y10
G0 F3000 X43.108 Y92.209
M204 S1800
M205 X8 Y8
G1 F1500 X68.687 Y117.789 E175.44816
M204 S3000
M205 X10 Y10
G0 F3000 X69.479 Y117.789
M204 S1800
M205 X8 Y8
G1 F1500 X43.9 Y92.209 E177.13261
M204 S3000
M205 X10 Y10
G0 F3000 X44.691 Y92.209
M204 S1800
M205 X8 Y8
G1 F1500 X70.271 Y117.789 E178.8171
M204 S3000
M205 X10 Y10
G0 F3000 X71.063 Y117.789
M204 S1800
M205 X8 Y8
G1 F1500 X45.483 Y92.209 E180.50158
M204 S3000
M205 X10 Y10
G0 F3000 X46.275 Y92.209
M204 S1800
M205 X8 Y8
G1 F1500 X71.855 Y117.789 E182.18607
M204 S3000
M205 X10 Y10
G0 F3000 X72.647 Y117.789
M204 S1800
M205 X8 Y8
G1 F1500 X47.067 Y92.209 E183.87056
M204 S3000
M205 X10 Y10
G0 F3000 X47.859 Y92.209
M204 S1800
M205 X8 Y8
G1 F1500 X73.439 Y117.789 E185.55504
M204 S3000
M205 X10 Y10
G0 F3000 X74.231 Y117.789
M204 S1800
M205 X8 Y8
G1 F1500 X48.651 Y92.209 E187.23953
M204 S3000
M205 X10 Y10
G0 F3000 X49.443 Y92.209
M204 S1800
M205 X8 Y8
G1 F1500 X75.023 Y117.789 E188.92402
M204 S3000
M205 X10 Y10
G0 F3000 X75.815 Y117.789
M204 S1800
M205 X8 Y8
G1 F1500 X50.235 Y92.209 E190.6085
M204 S3000
M205 X10 Y10
G0 F3000 X51.027 Y92.209
M204 S1800
M205 X8 Y8
G1 F1500 X76.607 Y117.789 E192.29299
M204 S3000
M205 X10 Y10
G0 F3000 X77.399 Y117.789
M204 S1800
M205 X8 Y8
G1 F1500 X51.819 Y92.209 E193.97748
M204 S3000
M205 X10 Y10
G0 F3000 X52.611 Y92.209
M204 S1800
M205 X8 Y8
G1 F1500 X78.191 Y117.789 E195.66196
M204 S3000
M205 X10 Y10
G0 F3000 X78.983 Y117.789
M204 S1800
M205 X8 Y8
G1 F1500 X53.403 Y92.209 E197.34645
M204 S3000
M205 X10 Y10
G0 F3000 X54.195 Y92.209
M204 S1800
M205 X8 Y8
G1 F1500 X79.775 Y117.789 E199.03094
M204 S3000
M205 X10 Y10
G0 F3000 X80.567 Y117.789
M204 S1800
M205 X8 Y8
G1 F1500 X54.987 Y92.209 E200.71542
M204 S3000
M205 X10 Y10
G0 F3000 X55.779 Y92.209
M204 S1800
M205 X8 Y8
G1 F1500 X81.358 Y117.789 E202.39988
M204 S3000
M205 X10 Y10
G0 F3000 X82.15 Y117.789
M204 S1800
M205 X8 Y8
G1 F1500 X56.571 Y92.209 E204.08433
M204 S3000
M205 X10 Y10
G0 F3000 X57.363 Y92.209
M204 S1800
M205 X8 Y8
G1 F1500 X82.942 Y117.789 E205.76879
M204 S3000
M205 X10 Y10
G0 F3000 X83.734 Y117.789
M204 S1800
