;FLAVOR:Marlin
;TIME:1431
;Filament used: 0.852361m
;Layer height: 0.2
;MINX:90.1
;MINY:94.176
;MINZ:0.2
;MAXX:119.9
;MAXY:115.825
;MAXZ:49
;Generated with Cura_SteamEngine 4.4.1
M140 S60
M105
M190 S60
M104 S200
M105
M109 S200
M82 ;absolute extrusion mode
G21 ;metric values
G90 ;absolute positioning
M82 ;set extruder to absolute mode
M107 ;start with the fan off
G28 X0 Y0 ;move X/Y to min endstops
G28 Z0 ;move Z to min endstops
G1 Z15.0 F100 ;move the platform down 15mm
G92 E0 ;zero the extruded length
G1 F200 E3 ;extrude 3mm of feed stock
G92 E0 ;zero the extruded length again
G1 F100
G0 Y20 F100
M117 Printing...
G5
G92 E0
G92 E0
G1 F2400 E-6
;LAYER_COUNT:245
;LAYER:0
M106 S255
M204 S3000
M205 X10 Y10
G1 F600 Z0.275
G0 F3000 X92.449 Y95.873 Z0.275
M204 S1800
M205 X8 Y8
;TYPE:SKIRT
G1 F600 Z0.2
G1 F2400 E0
G1 X92.626 Y95.724 E0.01077
G1 X93.198 Y95.295 E0.04407
G1 X93.815 Y94.932 E0.0774
G1 X94.468 Y94.64 E0.11071
G1 X95.149 Y94.423 E0.14399
G1 X95.851 Y94.283 E0.17732
G1 X96.595 Y94.222 E0.21208
G1 X97.348 Y94.204 E0.24715
G1 X97.49 Y94.202 E0.25377
G1 X112.194 Y94.176 E0.93845
G1 X112.281 Y94.176 E0.9425
G1 X112.953 Y94.184 E0.97379
G1 X113.365 Y94.203 E0.993
G1 X113.718 Y94.23 E1.00948
G1 X114.427 Y94.324 E1.04279
G1 X115.121 Y94.497 E1.07609
G1 X115.792 Y94.746 E1.10942
G1 X116.43 Y95.068 E1.14269
G1 X117.109 Y95.52 E1.18068
G1 X117.298 Y95.664 E1.19174
G1 X117.842 Y96.129 E1.22506
G1 X118.33 Y96.651 E1.25834
G1 X118.757 Y97.225 E1.29165
G1 X119.118 Y97.843 E1.32498
G1 X119.505 Y98.776 E1.37201
G1 X119.572 Y98.982 E1.3821
G1 X119.755 Y99.673 E1.41538
G1 X119.86 Y100.381 E1.44871
G1 X119.885 Y100.852 E1.47067
G1 X119.899 Y101.671 E1.50881
G1 X119.9 Y101.78 E1.51389
G1 X119.9 Y108.046 E1.80566
G1 X119.899 Y108.133 E1.80971
G1 X119.889 Y108.87 E1.84403
G1 X119.875 Y109.228 E1.86072
G1 X119.85 Y109.587 E1.87747
G1 X119.76 Y110.296 E1.91075
G1 X119.592 Y110.991 E1.94405
G1 X119.347 Y111.664 E1.9774
G1 X119.029 Y112.304 E2.01067
G1 X118.664 Y112.874 E2.04219
G1 X118.519 Y113.076 E2.05377
G1 X118.07 Y113.633 E2.08708
G1 X117.562 Y114.136 E2.12037
G1 X117.001 Y114.58 E2.15368
G1 X116.394 Y114.958 E2.18698
G1 X115.748 Y115.266 E2.22031
G1 X115.299 Y115.43 E2.24256
G1 X115.093 Y115.497 E2.25265
G1 X114.402 Y115.68 E2.28594
G1 X113.694 Y115.785 E2.31926
G1 X113.22 Y115.81 E2.34137
G1 X112.376 Y115.824 E2.38067
G1 X112.27 Y115.825 E2.38561
G1 X97.831 Y115.825 E3.05795
G1 X97.74 Y115.824 E3.06218
G1 X97.035 Y115.814 E3.09502
G1 X96.66 Y115.798 E3.11249
G1 X96.304 Y115.772 E3.12911
G1 X95.594 Y115.68 E3.16245
G1 X94.9 Y115.51 E3.19572
G1 X94.229 Y115.263 E3.22902
G1 X93.589 Y114.942 E3.26236
G1 X92.887 Y114.477 E3.30156
G1 X92.697 Y114.332 E3.31269
G1 X92.154 Y113.867 E3.34598
G1 X91.666 Y113.344 E3.37929
G1 X91.239 Y112.77 E3.4126
G1 X90.879 Y112.152 E3.44591
G1 X90.499 Y111.24 E3.49191
G1 X90.434 Y111.042 E3.50162
G1 X90.25 Y110.351 E3.53491
G1 X90.143 Y109.644 E3.56821
G1 X90.116 Y109.156 E3.59097
G1 X90.101 Y108.281 E3.63172
G1 X90.1 Y108.171 E3.63684
G1 X90.1 Y107.232 E3.68056
G1 X90.101 Y107.142 E3.68475
G1 X90.108 Y106.674 E3.70655
G1 X90.1 Y101.674 E3.93937
G1 X90.101 Y101.569 E3.94426
G1 X90.111 Y100.894 E3.97569
G1 X90.161 Y100.181 E4.00897
G1 X90.343 Y99.279 E4.05182
G1 X90.404 Y99.059 E4.06245
G1 X90.633 Y98.381 E4.09577
G1 X90.937 Y97.734 E4.12906
G1 X91.31 Y97.124 E4.16236
G1 X91.75 Y96.56 E4.19566
G1 X92.449 Y95.873 E4.2413
M204 S3000
M205 X10 Y10
G0 F3000 X92.81 Y96.301
M204 S1800
M205 X8 Y8
G1 F2400 X92.987 Y96.152 E4.25207
G1 X93.535 Y95.744 E4.28389
G1 X94.126 Y95.402 E4.31568
G1 X94.753 Y95.131 E4.34749
G1 X95.408 Y94.936 E4.37931
G1 X96.081 Y94.818 E4.41113
G1 X96.608 Y94.782 E4.43572
G1 X97.361 Y94.764 E4.4708
G1 X97.491 Y94.762 E4.47685
G1 X112.195 Y94.736 E5.16153
G1 X112.275 Y94.736 E5.16526
G1 X112.947 Y94.744 E5.19655
G1 X113.322 Y94.761 E5.21403
G1 X113.675 Y94.788 E5.23051
G1 X114.352 Y94.88 E5.26233
G1 X115.014 Y95.05 E5.29415
G1 X115.651 Y95.297 E5.32597
G1 X116.255 Y95.616 E5.35777
G1 X116.769 Y95.966 E5.38673
G1 X116.958 Y96.11 E5.39779
G1 X117.477 Y96.555 E5.42963
G1 X117.939 Y97.057 E5.46139
G1 X118.34 Y97.611 E5.49324
G1 X118.674 Y98.207 E5.52505
G1 X118.973 Y98.949 E5.5623
G1 X119.04 Y99.155 E5.57239
G1 X119.213 Y99.816 E5.60421
G1 X119.307 Y100.492 E5.63599
G1 X119.325 Y100.861 E5.65319
G1 X119.339 Y101.68 E5.69133
G1 X119.34 Y101.78 E5.69599
G1 X119.34 Y108.046 E5.98776
G1 X119.339 Y108.125 E5.99144
G1 X119.329 Y108.862 E6.02576
G1 X119.316 Y109.189 E6.041
G1 X119.291 Y109.548 E6.05775
G1 X119.204 Y110.225 E6.08954
G1 X119.038 Y110.888 E6.12136
G1 X118.796 Y111.527 E6.15318
G1 X118.481 Y112.133 E6.18498
G1 X118.209 Y112.548 E6.20809
G1 X118.064 Y112.75 E6.21966
G1 X117.634 Y113.28 E6.25144
G1 X117.145 Y113.757 E6.28325
G1 X116.603 Y114.174 E6.3151
G1 X116.017 Y114.524 E6.34688
G1 X115.126 Y114.898 E6.39187
G1 X114.92 Y114.965 E6.40196
G1 X114.259 Y115.138 E6.43378
G1 X113.583 Y115.232 E6.46556
G1 X113.211 Y115.25 E6.4829
G1 X112.367 Y115.264 E6.5222
G1 X112.27 Y115.265 E6.52672
G1 X97.831 Y115.265 E7.19906
G1 X97.748 Y115.264 E7.20293
G1 X97.043 Y115.254 E7.23576
G1 X96.701 Y115.239 E7.2517
G1 X96.345 Y115.213 E7.26832
G1 X95.667 Y115.124 E7.30016
G1 X95.005 Y114.956 E7.33196
G1 X94.367 Y114.712 E7.36377
G1 X93.762 Y114.395 E7.39557
G1 X93.227 Y114.032 E7.42568
G1 X93.037 Y113.887 E7.43681
G1 X92.519 Y113.441 E7.46864
G1 X92.057 Y112.938 E7.50044
G1 X91.656 Y112.384 E7.53228
G1 X91.323 Y111.788 E7.56407
G1 X91.031 Y111.066 E7.60034
G1 X90.966 Y110.868 E7.61004
G1 X90.792 Y110.207 E7.64187
G1 X90.695 Y109.531 E7.67367
G1 X90.676 Y109.146 E7.69162
G1 X90.661 Y108.271 E7.73237
G1 X90.66 Y108.171 E7.73703
G1 X90.66 Y107.232 E7.78075
G1 X90.661 Y107.15 E7.78457
G1 X90.668 Y106.673 E7.80678
G1 X90.66 Y101.673 E8.0396
G1 X90.661 Y101.577 E8.04407
G1 X90.671 Y100.902 E8.07551
G1 X90.721 Y100.221 E8.1073
G1 X90.882 Y99.429 E8.14494
G1 X90.943 Y99.209 E8.15557
G1 X91.164 Y98.562 E8.1874
G1 X91.459 Y97.946 E8.21921
G1 X91.824 Y97.368 E8.25104
G1 X92.253 Y96.837 E8.28282
G1 X92.81 Y96.301 E8.31882
M204 S3000
M205 X10 Y10
G0 F3000 X93.171 Y96.73
M204 S1800
M205 X8 Y8
G1 F2400 X93.348 Y96.581 E8.32959
G1 X93.869 Y96.194 E8.35981
G1 X94.435 Y95.874 E8.39009
G1 X95.035 Y95.626 E8.42032
G1 X95.661 Y95.453 E8.45056
G1 X96.622 Y95.342 E8.49561
G1 X97.375 Y95.324 E8.53068
G1 X97.492 Y95.322 E8.53613
G1 X112.196 Y95.296 E9.22081
G1 X112.268 Y95.296 E9.22416
G1 X112.94 Y95.304 E9.25546
G1 X113.28 Y95.319 E9.2713
G1 X113.633 Y95.346 E9.28779
G1 X114.276 Y95.436 E9.31802
G1 X114.904 Y95.603 E9.34828
G1 X115.506 Y95.847 E9.37853
G1 X116.074 Y96.162 E9.40877
G1 X116.43 Y96.411 E9.429
G1 X116.619 Y96.555 E9.44006
G1 X117.11 Y96.98 E9.4703
G1 X117.546 Y97.462 E9.50056
G1 X117.919 Y97.993 E9.53078
G1 X118.224 Y98.567 E9.56105
G1 X118.44 Y99.122 E9.58878
G1 X118.507 Y99.328 E9.59887
G1 X118.67 Y99.957 E9.62912
G1 X118.765 Y100.871 E9.67191
G1 X118.779 Y101.69 E9.71005
G1 X118.78 Y101.78 E9.71424
G1 X118.78 Y108.118 E10.00937
G1 X118.77 Y108.855 E10.04369
G1 X118.757 Y109.15 E10.05744
G1 X118.732 Y109.509 E10.07419
G1 X118.647 Y110.153 E10.10444
G1 X118.484 Y110.782 E10.1347
G1 X118.245 Y111.386 E10.16495
G1 X117.754 Y112.221 E10.21005
G1 X117.609 Y112.423 E10.22163
G1 X117.199 Y112.926 E10.25185
G1 X116.729 Y113.376 E10.28214
G1 X116.209 Y113.764 E10.31236
G1 X115.644 Y114.085 E10.34261
G1 X114.953 Y114.365 E10.37733
G1 X114.747 Y114.432 E10.38742
G1 X114.118 Y114.595 E10.41767
G1 X113.202 Y114.69 E10.46056
G1 X112.358 Y114.704 E10.49986
G1 X112.27 Y114.705 E10.50396
G1 X97.831 Y114.705 E11.1763
G1 X97.756 Y114.704 E11.17979
G1 X97.051 Y114.694 E11.21262
G1 X96.741 Y114.681 E11.22707
G1 X96.385 Y114.655 E11.24369
G1 X95.742 Y114.568 E11.27391
G1 X95.113 Y114.402 E11.3042
G1 X94.51 Y114.161 E11.33443
G1 X93.941 Y113.847 E11.3647
G1 X93.567 Y113.586 E11.38593
G1 X93.377 Y113.441 E11.39706
G1 X92.886 Y113.016 E11.4273
G1 X92.45 Y112.534 E11.45756
G1 X92.078 Y112.002 E11.48779
G1 X91.773 Y111.428 E11.51806
G1 X91.563 Y110.891 E11.54491
G1 X91.498 Y110.693 E11.55461
G1 X91.334 Y110.064 E11.58488
G1 X91.236 Y109.137 E11.62828
G1 X91.221 Y108.262 E11.66903
G1 X91.22 Y108.171 E11.67327
G1 X91.22 Y107.232 E11.717
G1 X91.221 Y107.158 E11.72044
G1 X91.228 Y106.672 E11.74307
G1 X91.22 Y101.672 E11.9759
G1 X91.221 Y101.586 E11.9799
G1 X91.231 Y100.911 E12.01133
G1 X91.28 Y100.263 E12.04159
G1 X91.422 Y99.578 E12.07417
G1 X91.483 Y99.358 E12.0848
G1 X91.695 Y98.744 E12.11505
G1 X91.98 Y98.161 E12.14526
G1 X92.335 Y97.617 E12.17551
G1 X92.755 Y97.12 E12.20581
G1 X93.171 Y96.73 E12.23236
M204 S3000
M205 X10 Y10
G1 F2400 E6.23236
G0 F3000 X95.839 Y103.61
G0 X97.983 Y104.161
G0 X98.857 Y102.93
M204 S1800
M205 X8 Y8
;TYPE:SUPPORT
G1 F2400 E12.23236
G1 F1500 X102.73 Y102.93 E12.4127
G1 X102.623 Y103.036 E12.41972
G1 X102.271 Y103.561 E12.44915
G1 X102.04 Y104.137 E12.47805
G1 X101.925 Y104.76 E12.50755
G1 X101.962 Y105.522 E12.54307
G1 X102.123 Y106.113 E12.57159
G1 X102.406 Y106.669 E12.60064
G1 X102.728 Y107.07 E12.62459
G1 X98.855 Y107.07 E12.80493
G1 X98.855 Y106.258 E12.84274
G1 X98.117 Y105.52 E12.89134
G1 X98.055 Y105.52 E12.89423
G1 X98.055 Y104.48 E12.94266
G1 X98.115 Y104.48 E12.94545
G1 X98.851 Y103.747 E12.99382
G1 X98.857 Y102.93 E13.03186
M204 S3000
M205 X10 Y10
G0 F3000 X98.896 Y104.013
M204 S1800
M205 X8 Y8
G1 F1500 X101.853 Y104.013 E13.16955
M204 S3000
M205 X10 Y10
G0 F3000 X101.346 Y103.15
M204 S1800
M205 X8 Y8
G1 F1500 X101.346 Y106.85 E13.34184
M204 S3000
M205 X10 Y10
G0 F3000 X102.166 Y106.68
M204 S1800
M205 X8 Y8
G1 F1500 X99.075 Y106.68 E13.48577
M204 S3000
M205 X10 Y10
G0 F3000 X98.679 Y105.77
M204 S1800
M205 X8 Y8
G1 F1500 X98.679 Y104.228 E13.55757
M204 S3000
M205 X10 Y10
G1 F2400 E7.55757
G0 F3000 X96.39 Y104.161
G0 X95.836 Y100.876
G0 X96.621 Y99.94
G0 X112.896 Y99.911
G0 X113.95 Y100.297
G0 X114.161 Y103.61
G0 X112.015 Y104.161
G0 X107.272 Y102.93
M204 S1800
M205 X8 Y8
G1 F2400 E13.55757
G1 F1500 X111.145 Y102.93 E13.73792
G1 X111.145 Y103.742 E13.77573
G1 X111.883 Y104.48 E13.82432
G1 X113.22 Y104.48 E13.88658
G1 X113.22 Y105.517 E13.93487
G1 X111.881 Y105.52 E13.99722
G1 X111.147 Y106.254 E14.04555
G1 X111.142 Y107.07 E14.08355
G1 X107.269 Y107.07 E14.26389
G1 X107.377 Y106.963 E14.27097
G1 X107.733 Y106.433 E14.3007
G1 X107.978 Y105.807 E14.332
G1 X108.083 Y105.043 E14.36791
G1 X108.035 Y104.457 E14.39529
G1 X107.874 Y103.886 E14.42292
G1 X107.595 Y103.332 E14.4518
G1 X107.272 Y102.93 E14.47581
M204 S3000
M205 X10 Y10
G0 F3000 X108.137 Y104.013
M204 S1800
M205 X8 Y8
G1 F1500 X111.104 Y104.013 E14.61397
M204 S3000
M205 X10 Y10
G0 F3000 X112.014 Y104.7
M204 S1800
M205 X8 Y8
G1 F1500 X112.014 Y105.3 E14.64191
M204 S3000
M205 X10 Y10
G0 F3000 X110.924 Y106.68
M204 S1800
M205 X8 Y8
G1 F1500 X107.833 Y106.68 E14.78584
M204 S3000
M205 X10 Y10
G0 F3000 X109.347 Y106.85
M204 S1800
M205 X8 Y8
G1 F1500 X109.347 Y103.15 E14.95812
M204 S3000
M205 X10 Y10
G1 F2400 E8.95812
;MESH:usb_end.stl
G0 F3000 X109.347 Y101.65
G0 X97.761 Y101.633
G0 X97.811 Y101.719
M204 S1800
M205 X8 Y8
;TYPE:WALL-OUTER
G1 F2400 E14.95812
G1 F1500 X97.604 Y102.003 E14.97449
G1 X97.595 Y103.22 E15.03116
G1 X96.78 Y103.22 E15.06911
G1 X96.78 Y101.015 E15.17178
G1 X96.808 Y100.919 E15.17644
G1 X96.853 Y100.883 E15.17912
G1 X112.781 Y100.855 E15.9208
G1 X112.868 Y100.855 E15.92485
G1 X113.139 Y100.875 E15.9375
G1 X113.192 Y100.919 E15.94071
G1 X113.22 Y101.015 E15.94537
G1 X113.22 Y101.102 E15.94942
G1 X113.22 Y103.22 E16.04804
G1 X112.405 Y103.22 E16.08599
G1 X112.405 Y102.093 E16.13847
G1 X112.281 Y101.795 E16.1535
G1 X111.981 Y101.67 E16.16863
G1 X98.233 Y101.67 E16.80879
G1 X97.811 Y101.719 E16.82858
M204 S3000
M205 X10 Y10
G0 F3000 X97.694 Y101.88
G0 X97.263 Y101.506
M204 S1800
M205 X8 Y8
;TYPE:SKIN
G1 F1500 X97.394 Y101.354 E16.83325
G1 X98.445 Y101.274 E16.85779
G1 X104.945 Y101.268 E17.0091
G1 X111.445 Y101.263 E17.16042
G1 X112.048 Y101.3 E17.17449
G1 X112.552 Y101.522 E17.18731
M204 S3000
M205 X10 Y10
G0 F3000 X112.944 Y101.631
M204 S1800
M205 X8 Y8
G1 F1500 X112.444 Y101.131 E17.19907
M204 S3000
M205 X10 Y10
G0 F3000 X112.835 Y101.239
M204 S1800
M205 X8 Y8
G1 F1500 X112.773 Y102.025 E17.21333
G1 X112.761 Y102.861 E17.22845
M204 S3000
M205 X10 Y10
G0 F3000 X112.678 Y102.779
G0 X112.309 Y101.767
G0 X98.231 Y101.631
G0 X97.354 Y101.879
G0 X97.204 Y101.729
M204 S1800
M205 X8 Y8
G1 F1500 X97.191 Y101.999 E17.23588
G1 X97.17 Y102.827 E17.25862
M204 S3000
M205 X10 Y10
G0 F3000 X97.039 Y102.708
G1 F2400 E11.25862
G0 F3000 X98.541 Y103.213
G0 X102.314 Y104.388
G0 X103.81 Y104.665
G0 X105.256 Y104.355
M204 S1800
M205 X8 Y8
;TYPE:WALL-INNER
G1 F2400 E17.25862
G1 F1500 X105.374 Y104.417 E17.26483
G1 X105.492 Y104.512 E17.27189
G1 X105.584 Y104.626 E17.27871
G1 X105.646 Y104.745 E17.28495
G1 X105.68 Y104.869 E17.29094
G1 X105.69 Y104.971 E17.29571
G1 X105.656 Y105.219 E17.30737
G1 X105.621 Y105.309 E17.31187
G1 X105.536 Y105.438 E17.31906
G1 X105.438 Y105.536 E17.32551
G1 X105.313 Y105.617 E17.33245
G1 X105.217 Y105.655 E17.33726
G1 X104.968 Y105.689 E17.34896
G1 X104.872 Y105.681 E17.35344
G1 X104.744 Y105.645 E17.35964
G1 X104.626 Y105.583 E17.36584
G1 X104.508 Y105.488 E17.3729
G1 X104.419 Y105.378 E17.37949
G1 X104.356 Y105.255 E17.38592
G1 X104.326 Y105.149 E17.39105
G1 X104.313 Y104.909 E17.40224
G1 X104.331 Y104.816 E17.40665
G1 X104.383 Y104.683 E17.4133
G1 X104.462 Y104.564 E17.41995
G1 X104.564 Y104.462 E17.42667
G1 X104.684 Y104.384 E17.43333
G1 X104.783 Y104.345 E17.43829
G1 X105.032 Y104.311 E17.44999
G1 X105.128 Y104.319 E17.45448
G1 X105.256 Y104.355 E17.46067
M204 S3000
M205 X10 Y10
G0 F3000 X105.461 Y103.831
M204 S1800
M205 X8 Y8
G1 F1500 X105.684 Y103.947 E17.47237
G1 X105.89 Y104.114 E17.48472
G1 X106.053 Y104.315 E17.49677
G1 X106.17 Y104.541 E17.50862
G1 X106.234 Y104.768 E17.5196
G1 X106.253 Y104.982 E17.52961
G1 X106.202 Y105.363 E17.54751
G1 X106.119 Y105.571 E17.55793
G1 X105.973 Y105.793 E17.57031
G1 X105.792 Y105.974 E17.58223
G1 X105.572 Y106.117 E17.59444
G1 X105.363 Y106.201 E17.60493
G1 X104.982 Y106.253 E17.62284
G1 X104.767 Y106.234 E17.63289
G1 X104.539 Y106.169 E17.64393
G1 X104.316 Y106.053 E17.65563
G1 X104.11 Y105.886 E17.66798
G1 X103.947 Y105.685 E17.68003
G1 X103.832 Y105.462 E17.69171
G1 X103.77 Y105.243 E17.70231
G1 X103.751 Y104.869 E17.71975
G1 X103.791 Y104.66 E17.72966
G1 X103.884 Y104.423 E17.74151
G1 X104.026 Y104.208 E17.75351
G1 X104.21 Y104.024 E17.76563
G1 X104.424 Y103.885 E17.77751
G1 X104.639 Y103.799 E17.78829
G1 X105.018 Y103.747 E17.80611
G1 X105.233 Y103.766 E17.81616
G1 X105.461 Y103.831 E17.8272
M204 S3000
M205 X10 Y10
G0 F3000 X105.671 Y103.309
M204 S1800
M205 X8 Y8
;TYPE:WALL-OUTER
G1 F1500 X105.994 Y103.477 E17.84415
G1 X106.287 Y103.715 E17.86173
G1 X106.524 Y104.006 E17.8792
G1 X106.692 Y104.333 E17.89632
G1 X106.788 Y104.669 E17.91259
G1 X106.817 Y104.994 E17.92779
G1 X106.748 Y105.504 E17.95175
G1 X106.617 Y105.834 E17.96828
G1 X106.41 Y106.148 E17.98579
G1 X106.147 Y106.411 E18.00311
G1 X105.833 Y106.616 E18.02058
G1 X105.504 Y106.747 E18.03706
G1 X104.997 Y106.817 E18.0609
G1 X104.667 Y106.788 E18.07632
G1 X104.329 Y106.691 E18.0927
G1 X104.006 Y106.523 E18.10965
G1 X103.713 Y106.285 E18.12723
G1 X103.476 Y105.994 E18.1447
G1 X103.308 Y105.667 E18.16182
G1 X103.214 Y105.337 E18.1778
G1 X103.189 Y104.83 E18.20143
G1 X103.251 Y104.501 E18.21702
G1 X103.384 Y104.164 E18.23389
G1 X103.59 Y103.852 E18.2513
G1 X103.853 Y103.589 E18.26862
G1 X104.168 Y103.384 E18.28612
