;FLAVOR:Marlin
;TIME:1957
;Filament used: 1.62689m
;Layer height: 0.2
;MINX:61.6
;MINY:110.618
;MINZ:0.2
;MAXX:128.4
;MAXY:143.382
;MAXZ:8.6
;Generated with Cura_SteamEngine 4.4.1
M140 S60
M105
M190 S60
M104 S200
M105
M109 S200
M82 ;absolute extrusion mode
G21 ;metric values
G90 ;absolute positioning
M82 ;set extruder to absolute mode
M107 ;start with the fan off
G28 X0 Y0 ;move X/Y to min endstops
G28 Z0 ;move Z to min endstops
G1 Z15.0 F100 ;move the platform down 15mm
G92 E0 ;zero the extruded length
G1 F200 E3 ;extrude 3mm of feed stock
G92 E0 ;zero the extruded length again
G1 F100
G0 Y20 F100
M117 Printing...
G5
G92 E0
G92 E0
G1 F2400 E-6
;LAYER_COUNT:43
;LAYER:0
M106 S255
M204 S3000
M205 X10 Y10
G1 F600 Z0.275
G0 F3000 X71.73 Y112.238 Z0.275
M204 S1800
M205 X8 Y8
;TYPE:SKIRT
G1 F600 Z0.2
G1 F2400 E0
G1 X72.417 Y111.818 E0.03749
G1 X72.866 Y111.581 E0.06114
G1 X73.517 Y111.283 E0.09447
G1 X73.868 Y111.157 E0.11184
G1 X74.3 Y111.016 E0.133
G1 X75.203 Y110.792 E0.17632
G1 X75.64 Y110.717 E0.19697
G1 X76.609 Y110.626 E0.24229
G1 X77.057 Y110.618 E0.26315
G1 X77.268 Y110.618 E0.27298
G1 X77.863 Y110.627 E0.30068
G1 X77.948 Y110.629 E0.30464
G1 X79.565 Y110.675 E0.37997
G1 X82.207 Y110.675 E0.50299
G1 X82.739 Y110.658 E0.52778
G1 X82.834 Y110.656 E0.5322
G1 X85.062 Y110.618 E0.63596
G1 X85.268 Y110.618 E0.64555
G1 X85.863 Y110.627 E0.67326
G1 X85.948 Y110.629 E0.67722
G1 X87.565 Y110.675 E0.75254
G1 X90.207 Y110.675 E0.87557
G1 X90.739 Y110.658 E0.90035
G1 X90.834 Y110.656 E0.90478
G1 X93.062 Y110.618 E1.00854
G1 X93.268 Y110.618 E1.01813
G1 X93.863 Y110.627 E1.04584
G1 X93.948 Y110.629 E1.0498
G1 X95.565 Y110.675 E1.12512
G1 X98.207 Y110.675 E1.24814
G1 X98.739 Y110.658 E1.27293
G1 X98.834 Y110.656 E1.27735
G1 X101.055 Y110.618 E1.38079
G1 X102.008 Y110.673 E1.42524
G1 X102.489 Y110.737 E1.44783
G1 X102.858 Y110.797 E1.46524
G1 X103.202 Y110.863 E1.48155
G1 X105.903 Y111.35 E1.60935
G1 X108.467 Y111.736 E1.73008
G1 X111.145 Y112.064 E1.85571
G1 X113.734 Y112.305 E1.97679
G1 X116.404 Y112.478 E2.10138
G1 X119.052 Y112.576 E2.22476
G1 X122.064 Y112.61 E2.36502
G1 X122.777 Y112.658 E2.3983
G1 X123.481 Y112.786 E2.43162
G1 X124.166 Y112.991 E2.46491
G1 X124.824 Y113.271 E2.49821
G1 X125.447 Y113.623 E2.53153
G1 X126.026 Y114.043 E2.56484
G1 X126.555 Y114.524 E2.59813
G1 X127.028 Y115.061 E2.63145
G1 X127.437 Y115.648 E2.66477
G1 X127.778 Y116.277 E2.69808
G1 X128.047 Y116.939 E2.73135
G1 X128.24 Y117.628 E2.76467
G1 X128.355 Y118.334 E2.79798
G1 X128.388 Y118.83 E2.82113
G1 X128.397 Y119.15 E2.83603
G1 X128.4 Y119.33 E2.84442
G1 X128.4 Y134.343 E3.54348
G1 X128.391 Y135.07 E3.57734
G1 X128.342 Y135.784 E3.61066
G1 X128.214 Y136.488 E3.64398
G1 X128.008 Y137.173 E3.67729
G1 X127.727 Y137.83 E3.71056
G1 X127.374 Y138.453 E3.74391
G1 X126.954 Y139.032 E3.77721
G1 X126.472 Y139.56 E3.8105
G1 X125.935 Y140.032 E3.84379
G1 X125.347 Y140.44 E3.87712
G1 X124.718 Y140.781 E3.91044
G1 X124.055 Y141.049 E3.94373
G1 X123.366 Y141.241 E3.97704
G1 X122.66 Y141.356 E4.01035
G1 X122.17 Y141.388 E4.03321
G1 X121.849 Y141.397 E4.04816
G1 X121.67 Y141.4 E4.0565
G1 X117.169 Y141.4 E4.26609
G1 X114.507 Y141.438 E4.39005
G1 X111.867 Y141.55 E4.51309
G1 X109.222 Y141.737 E4.63656
G1 X106.565 Y142.001 E4.76089
G1 X103.95 Y142.335 E4.88365
G1 X101.367 Y142.741 E5.0054
G1 X99.599 Y143.072 E5.08916
G1 X99.491 Y143.091 E5.09426
G1 X98.346 Y143.285 E5.14834
G1 X97.391 Y143.374 E5.193
G1 X96.943 Y143.382 E5.21386
G1 X96.732 Y143.382 E5.22369
G1 X96.137 Y143.373 E5.2514
G1 X96.052 Y143.371 E5.25536
G1 X94.435 Y143.325 E5.33068
G1 X91.793 Y143.325 E5.4537
G1 X91.261 Y143.342 E5.47849
G1 X91.166 Y143.344 E5.48291
G1 X88.938 Y143.382 E5.58667
G1 X88.732 Y143.382 E5.59626
G1 X88.137 Y143.373 E5.62397
G1 X88.052 Y143.371 E5.62793
G1 X86.435 Y143.325 E5.70326
G1 X83.793 Y143.325 E5.82628
G1 X83.261 Y143.342 E5.85106
G1 X83.166 Y143.344 E5.85549
G1 X80.945 Y143.382 E5.95892
G1 X79.996 Y143.328 E6.00318
G1 X79.543 Y143.268 E6.02446
G1 X78.615 Y143.074 E6.06861
G1 X78.201 Y142.955 E6.08867
G1 X77.283 Y142.613 E6.13428
G1 X76.831 Y142.404 E6.15747
G1 X76.732 Y142.357 E6.16257
G1 X74.127 Y141.098 E6.2973
G1 X71.706 Y140.014 E6.42081
G1 X69.22 Y138.982 E6.54615
G1 X66.673 Y138.012 E6.67306
G1 X66.566 Y137.971 E6.67839
G1 X66.115 Y137.79 E6.70102
G1 X65.467 Y137.486 E6.73435
G1 X64.605 Y136.929 E6.78214
G1 X64.425 Y136.791 E6.7927
G1 X63.883 Y136.325 E6.82599
G1 X63.29 Y135.671 E6.86709
G1 X63.105 Y135.436 E6.88102
G1 X62.695 Y134.85 E6.91432
G1 X62.22 Y133.924 E6.96278
G1 X62.136 Y133.721 E6.97301
G1 X61.9 Y133.046 E7.00631
G1 X61.741 Y132.349 E7.0396
G1 X61.677 Y131.866 E7.06228
G1 X61.642 Y131.489 E7.07991
G1 X61.62 Y131.144 E7.09601
G1 X61.608 Y130.833 E7.1105
G1 X61.603 Y130.641 E7.11945
G1 X61.6 Y130.295 E7.13556
G1 X61.6 Y123.88 E7.43427
G1 X61.601 Y123.789 E7.43851
G1 X61.611 Y123.083 E7.47138
G1 X61.625 Y122.729 E7.48788
G1 X61.639 Y122.528 E7.49726
G1 X61.654 Y122.356 E7.5053
G1 X61.676 Y122.129 E7.51592
G1 X61.785 Y121.422 E7.54923
G1 X61.971 Y120.731 E7.58255
G1 X62.11 Y120.354 E7.60126
G1 X62.193 Y120.148 E7.6116
G1 X62.497 Y119.501 E7.64489
G1 X62.954 Y118.774 E7.68488
G1 X63.125 Y118.539 E7.69841
G1 X63.578 Y117.985 E7.73173
G1 X64.355 Y117.266 E7.78103
G1 X64.553 Y117.111 E7.79273
G1 X64.987 Y116.799 E7.81762
G1 X65.368 Y116.549 E7.83884
G1 X65.45 Y116.496 E7.84339
G1 X67.024 Y115.497 E7.9302
G1 X69.238 Y114.005 E8.05451
G1 X70.038 Y113.426 E8.1005
G1 X70.113 Y113.372 E8.1048
G1 X71.73 Y112.238 E8.19677
M204 S3000
M205 X10 Y10
G0 F3000 X72.052 Y112.697
M204 S1800
M205 X8 Y8
G1 F2400 X72.679 Y112.313 E8.231
G1 X73.128 Y112.076 E8.25464
G1 X74.042 Y111.689 E8.30086
G1 X74.474 Y111.548 E8.32202
G1 X75.298 Y111.344 E8.36155
G1 X75.735 Y111.269 E8.38219
G1 X76.619 Y111.186 E8.42354
G1 X77.067 Y111.178 E8.4444
G1 X77.259 Y111.178 E8.45334
G1 X77.854 Y111.187 E8.48105
G1 X77.932 Y111.188 E8.48468
G1 X79.584 Y111.235 E8.56164
G1 X82.225 Y111.235 E8.68461
G1 X82.757 Y111.218 E8.7094
G1 X82.843 Y111.216 E8.7134
G1 X85.071 Y111.178 E8.81716
G1 X85.259 Y111.178 E8.82592
G1 X85.854 Y111.187 E8.85363
G1 X85.932 Y111.188 E8.85726
G1 X87.584 Y111.235 E8.93422
G1 X90.225 Y111.235 E9.05719
G1 X90.757 Y111.218 E9.08198
G1 X90.843 Y111.216 E9.08598
G1 X93.071 Y111.178 E9.18974
G1 X93.259 Y111.178 E9.1985
G1 X93.854 Y111.187 E9.2262
G1 X93.932 Y111.188 E9.22984
G1 X95.584 Y111.235 E9.30679
G1 X98.225 Y111.235 E9.42977
G1 X98.757 Y111.218 E9.45455
G1 X98.843 Y111.216 E9.45856
G1 X101.064 Y111.178 E9.56199
G1 X101.934 Y111.228 E9.60257
G1 X102.415 Y111.292 E9.62517
G1 X102.752 Y111.347 E9.64107
G1 X103.083 Y111.411 E9.65676
G1 X105.784 Y111.897 E9.78455
G1 X108.425 Y112.295 E9.90892
G1 X111.059 Y112.617 E10.03248
G1 X113.715 Y112.865 E10.15669
G1 X116.383 Y113.038 E10.28119
G1 X119.026 Y113.136 E10.40434
G1 X122.057 Y113.17 E10.54549
G1 X122.739 Y113.218 E10.57732
G1 X123.41 Y113.345 E10.60912
G1 X124.062 Y113.55 E10.64095
G1 X124.686 Y113.829 E10.67277
G1 X125.272 Y114.179 E10.70456
G1 X125.814 Y114.595 E10.73637
G1 X126.303 Y115.072 E10.76818
G1 X126.734 Y115.602 E10.79999
G1 X127.099 Y116.18 E10.83182
G1 X127.395 Y116.796 E10.86364
G1 X127.617 Y117.442 E10.89545
G1 X127.761 Y118.11 E10.92727
G1 X127.829 Y118.846 E10.96169
G1 X127.838 Y119.166 E10.97659
G1 X127.84 Y119.33 E10.98423
G1 X127.84 Y134.336 E11.68297
G1 X127.831 Y135.063 E11.71683
G1 X127.782 Y135.745 E11.74867
G1 X127.654 Y136.416 E11.78048
G1 X127.449 Y137.068 E11.8123
G1 X127.169 Y137.691 E11.8441
G1 X126.819 Y138.277 E11.87589
G1 X126.402 Y138.819 E11.90773
G1 X125.925 Y139.308 E11.93954
G1 X125.394 Y139.737 E11.97133
G1 X124.816 Y140.102 E12.00316
G1 X124.2 Y140.397 E12.03496
G1 X123.553 Y140.618 E12.0668
G1 X122.885 Y140.762 E12.09862
G1 X122.155 Y140.829 E12.13275
G1 X121.834 Y140.838 E12.1477
G1 X121.67 Y140.84 E12.15534
G1 X117.161 Y140.84 E12.3653
G1 X114.51 Y140.877 E12.48875
G1 X111.803 Y140.992 E12.61492
G1 X109.2 Y141.177 E12.73643
G1 X106.508 Y141.444 E12.86239
G1 X103.861 Y141.783 E12.98666
G1 X101.247 Y142.193 E13.10986
G1 X99.496 Y142.521 E13.19281
G1 X99.398 Y142.539 E13.19745
G1 X98.253 Y142.733 E13.25153
G1 X97.381 Y142.814 E13.29231
G1 X96.933 Y142.822 E13.31317
G1 X96.741 Y142.822 E13.32211
G1 X96.146 Y142.813 E13.34982
G1 X96.068 Y142.812 E13.35345
G1 X94.416 Y142.765 E13.43041
G1 X91.775 Y142.765 E13.55339
G1 X91.243 Y142.782 E13.57817
G1 X91.157 Y142.784 E13.58218
G1 X88.929 Y142.822 E13.68594
G1 X88.741 Y142.822 E13.69469
G1 X88.146 Y142.813 E13.7224
G1 X88.068 Y142.812 E13.72603
G1 X86.416 Y142.765 E13.80299
G1 X83.775 Y142.765 E13.92596
G1 X83.243 Y142.782 E13.95075
G1 X83.157 Y142.784 E13.95475
G1 X80.936 Y142.822 E14.05819
G1 X80.069 Y142.772 E14.09863
G1 X79.616 Y142.712 E14.1199
G1 X78.77 Y142.536 E14.16014
G1 X78.356 Y142.417 E14.1802
G1 X77.518 Y142.105 E14.22184
G1 X77.066 Y141.896 E14.24502
G1 X76.976 Y141.853 E14.24967
G1 X74.363 Y140.59 E14.38481
G1 X71.929 Y139.5 E14.50899
G1 X69.438 Y138.466 E14.63458
G1 X66.872 Y137.489 E14.76243
G1 X66.775 Y137.451 E14.76728
G1 X66.324 Y137.27 E14.78991
G1 X65.706 Y136.979 E14.82172
G1 X64.946 Y136.485 E14.86392
G1 X64.766 Y136.347 E14.87449
G1 X64.249 Y135.9 E14.90631
G1 X63.73 Y135.324 E14.94241
G1 X63.545 Y135.089 E14.95634
G1 X63.155 Y134.529 E14.98812
G1 X62.738 Y133.71 E15.03091
G1 X62.654 Y133.507 E15.04114
G1 X62.43 Y132.861 E15.07298
G1 X62.283 Y132.194 E15.10478
G1 X62.235 Y131.814 E15.12262
G1 X62.2 Y131.437 E15.14025
G1 X62.179 Y131.122 E15.15495
G1 X62.167 Y130.811 E15.16944
G1 X62.163 Y130.637 E15.17754
G1 X62.16 Y130.291 E15.19366
G1 X62.16 Y123.88 E15.49218
G1 X62.161 Y123.797 E15.49604
G1 X62.171 Y123.091 E15.52892
G1 X62.184 Y122.768 E15.54397
G1 X62.198 Y122.567 E15.55336
G1 X62.211 Y122.41 E15.56069
G1 X62.233 Y122.183 E15.57131
G1 X62.339 Y121.508 E15.60313
G1 X62.629 Y120.563 E15.64916
G1 X62.712 Y120.357 E15.6595
G1 X63.004 Y119.74 E15.69128
G1 X63.407 Y119.104 E15.72634
G1 X63.578 Y118.869 E15.73987
G1 X64.011 Y118.341 E15.77167
G1 X64.7 Y117.706 E15.8153
G1 X64.898 Y117.551 E15.82701
G1 X65.294 Y117.267 E15.8497
G1 X65.675 Y117.017 E15.87092
G1 X65.75 Y116.969 E15.87507
G1 X67.343 Y115.958 E15.96292
G1 X69.548 Y114.472 E16.08673
G1 X70.366 Y113.88 E16.13375
G1 X70.435 Y113.831 E16.13769
G1 X72.052 Y112.697 E16.22966
M204 S3000
M205 X10 Y10
G0 F3000 X72.373 Y113.155
M204 S1800
M205 X8 Y8
G1 F2400 X72.94 Y112.809 E16.26059
G1 X73.389 Y112.572 E16.28423
G1 X74.216 Y112.222 E16.32604
G1 X74.648 Y112.081 E16.3472
G1 X75.393 Y111.896 E16.38295
G1 X75.83 Y111.821 E16.40359
G1 X76.629 Y111.746 E16.44096
G1 X77.077 Y111.738 E16.46183
G1 X77.251 Y111.738 E16.46993
G1 X77.846 Y111.747 E16.49764
G1 X77.916 Y111.748 E16.5009
G1 X79.568 Y111.795 E16.57785
G1 X82.242 Y111.795 E16.70236
G1 X82.774 Y111.778 E16.72715
G1 X82.853 Y111.776 E16.73083
G1 X85.081 Y111.738 E16.83459
G1 X85.251 Y111.738 E16.8425
G1 X85.846 Y111.747 E16.87021
G1 X85.916 Y111.748 E16.87347
G1 X87.568 Y111.795 E16.95043
G1 X90.242 Y111.795 E17.07494
G1 X90.774 Y111.778 E17.09973
G1 X90.853 Y111.776 E17.10341
G1 X93.081 Y111.738 E17.20717
G1 X93.251 Y111.738 E17.21508
G1 X93.846 Y111.747 E17.24279
G1 X93.916 Y111.748 E17.24605
G1 X95.568 Y111.795 E17.32301
G1 X98.242 Y111.795 E17.44752
G1 X98.774 Y111.778 E17.4723
G1 X98.853 Y111.776 E17.47598
G1 X101.074 Y111.738 E17.57942
G1 X101.86 Y111.783 E17.61608
G1 X102.341 Y111.847 E17.63867
G1 X102.646 Y111.897 E17.65306
G1 X102.984 Y111.962 E17.66909
G1 X105.71 Y112.453 E17.79807
G1 X108.343 Y112.85 E17.92206
G1 X111.009 Y113.176 E18.04712
G1 X113.662 Y113.423 E18.17119
G1 X116.363 Y113.598 E18.29722
G1 X118.999 Y113.695 E18.42005
G1 X122.051 Y113.73 E18.56217
G1 X122.699 Y113.778 E18.59243
G1 X123.336 Y113.904 E18.62267
G1 X123.953 Y114.108 E18.65292
G1 X124.54 Y114.386 E18.68317
G1 X125.088 Y114.734 E18.7134
G1 X125.59 Y115.147 E18.74367
G1 X126.037 Y115.618 E18.7739
G1 X126.423 Y116.14 E18.80413
G1 X126.742 Y116.706 E18.83438
G1 X126.989 Y117.307 E18.86464
G1 X127.16 Y117.934 E18.8949
G1 X127.269 Y118.862 E18.93841
G1 X127.278 Y119.182 E18.95332
G1 X127.28 Y119.33 E18.96021
G1 X127.28 Y134.329 E19.65863
G1 X127.271 Y135.056 E19.69248
G1 X127.223 Y135.704 E19.72274
G1 X127.095 Y136.341 E19.75299
G1 X126.891 Y136.958 E19.78325
G1 X126.612 Y137.545 E19.81352
G1 X126.264 Y138.093 E19.84374
G1 X125.851 Y138.594 E19.87398
G1 X125.379 Y139.041 E19.90425
G1 X124.856 Y139.426 E19.93449
G1 X124.29 Y139.744 E19.96472
G1 X123.688 Y139.991 E19.99502
G1 X123.062 Y140.161 E20.02522
G1 X122.139 Y140.269 E20.06849
G1 X121.818 Y140.278 E20.08345
G1 X121.67 Y140.28 E20.09034
G1 X117.153 Y140.28 E20.30067
G1 X114.478 Y140.318 E20.42524
G1 X111.812 Y140.431 E20.54949
G1 X109.105 Y140.623 E20.67586
G1 X106.452 Y140.886 E20.8
G1 X103.812 Y141.224 E20.92393
G1 X101.155 Y141.641 E21.04917
G1 X99.393 Y141.971 E21.13264
G1 X99.304 Y141.987 E21.13685
G1 X98.159 Y142.181 E21.19093
G1 X97.371 Y142.254 E21.22777
G1 X96.923 Y142.262 E21.24864
G1 X96.749 Y142.262 E21.25674
G1 X96.154 Y142.253 E21.28445
G1 X96.084 Y142.252 E21.28771
G1 X94.432 Y142.205 E21.36467
G1 X91.758 Y142.205 E21.48918
G1 X91.226 Y142.222 E21.51396
G1 X91.147 Y142.224 E21.51764
G1 X88.919 Y142.262 E21.6214
G1 X88.749 Y142.262 E21.62932
G1 X88.154 Y142.253 E21.65703
G1 X88.084 Y142.252 E21.66029
G1 X86.432 Y142.205 E21.73724
G1 X83.758 Y142.205 E21.86175
G1 X83.226 Y142.222 E21.88654
G1 X83.147 Y142.224 E21.89022
G1 X80.926 Y142.262 E21.99365
G1 X80.143 Y142.217 E22.03017
G1 X79.69 Y142.157 E22.05145
G1 X78.924 Y141.998 E22.08788
G1 X78.51 Y141.879 E22.10794
G1 X77.753 Y141.596 E22.14557
G1 X77.301 Y141.387 E22.16876
G1 X77.219 Y141.349 E22.17297
G1 X74.586 Y140.076 E22.30915
G1 X72.122 Y138.973 E22.43485
G1 X69.673 Y137.956 E22.55833
G1 X67.072 Y136.966 E22.68792
G1 X66.983 Y136.931 E22.69237
G1 X66.532 Y136.75 E22.715
G1 X65.946 Y136.472 E22.7452
G1 X65.286 Y136.04 E22.78193
G1 X65.106 Y135.902 E22.79249
G1 X64.616 Y135.476 E22.82273
G1 X64.17 Y134.978 E22.85386
G1 X63.985 Y134.743 E22.86778
G1 X63.616 Y134.209 E22.89801
G1 X63.255 Y133.496 E22.93522
G1 X63.171 Y133.293 E22.94545
G1 X62.96 Y132.678 E22.97573
G1 X62.793 Y131.762 E23.01908
G1 X62.758 Y131.385 E23.03671
G1 X62.739 Y131.101 E23.04997
G1 X62.727 Y130.79 E23.06446
G1 X62.723 Y130.632 E23.07182
G1 X62.72 Y130.286 E23.08793
G1 X62.72 Y123.88 E23.38622
G1 X62.721 Y123.805 E23.38971
G1 X62.731 Y123.099 E23.42259
G1 X62.743 Y122.807 E23.4362
G1 X62.757 Y122.606 E23.44558
G1 X62.769 Y122.464 E23.45222
G1 X62.791 Y122.237 E23.46284
G1 X62.893 Y121.595 E23.49311
G1 X63.149 Y120.773 E23.53319
G1 X63.232 Y120.567 E23.54354
G1 X63.511 Y119.98 E23.5738
G1 X63.86 Y119.433 E23.60401
G1 X64.031 Y119.198 E23.61755
G1 X64.444 Y118.698 E23.64774
G1 X65.045 Y118.147 E23.68571
G1 X65.243 Y117.992 E23.69742
G1 X65.601 Y117.736 E23.71791
G1 X65.982 Y117.486 E23.73913
G1 X66.05 Y117.442 E23.7429
G1 X67.637 Y116.435 E23.83042
G1 X69.858 Y114.938 E23.95514
G1 X70.694 Y114.333 E24.00319
G1 X70.756 Y114.289 E24.00673
G1 X72.373 Y113.155 E24.0987
M204 S3000
M205 X10 Y10
G1 F2400 E18.0987
;MESH:Apple_Usb_Cable_Guard_Reinforced.stl
G0 F3000 X73.165 Y121.284
G0 X73.944 Y122.609
G0 X73.64 Y123.326
M204 S1800
M205 X8 Y8
;TYPE:WALL-INNER
G1 F2400 E24.0987
G1 F1500 X74.095 Y123.132 E24.12173
G1 X74.22 Y123.079 E24.12805
G1 X74.6 Y122.784 E24.15045
G1 X74.6 Y123.079 E24.1534
G1 X74.6 Y123.215 E24.15889
G1 X74.6 Y130.6 E24.50277
G1 X69.4 Y130.6 E24.7449
G1 X69.4 Y123.4 E25.08016
G1 X73.095 Y123.4 E25.25222
G1 X73.64 Y123.326 E25.27783
M204 S3000
M205 X10 Y10
