;FLAVOR:Marlin
;TIME:3917
;Filament used: 3.84288m
;Layer height: 0.2
;MINX:85.101
;MINY:62.518
;MINZ:0.2
;MAXX:124.899
;MAXY:124.481
;MAXZ:23
;Generated with Cura_SteamEngine 4.4.1
M140 S60
M105
M190 S60
M104 S200
M105
M109 S200
M82 ;absolute extrusion mode
G21 ;metric values
G90 ;absolute positioning
M82 ;set extruder to absolute mode
M107 ;start with the fan off
G28 X0 Y0 ;move X/Y to min endstops
G28 Z0 ;move Z to min endstops
G1 Z15.0 F100 ;move the platform down 15mm
G92 E0 ;zero the extruded length
G1 F200 E3 ;extrude 3mm of feed stock
G92 E0 ;zero the extruded length again
G1 F100
G0 Y20 F100
M117 Printing...
G5
G92 E0
G92 E0
G1 F2400 E-6
;LAYER_COUNT:115
;LAYER:0
M106 S255
M204 S3000
M205 X10 Y10
G1 F600 Z0.275
;MESH:WeMosRelais Box v2.stl
G0 F3000 X121.522 Y63.796 Z0.275
M204 S1800
M205 X8 Y8
;TYPE:WALL-INNER
G1 F600 Z0.2
G1 F2400 E0
G1 F1500 X121.82 Y63.888 E0.01452
G1 X122.135 Y64.033 E0.03067
G1 X122.368 Y64.174 E0.04335
G1 X122.626 Y64.376 E0.05861
G1 X122.85 Y64.601 E0.07339
G1 X123.036 Y64.838 E0.08742
G1 X123.202 Y65.112 E0.10234
G1 X123.33 Y65.397 E0.11689
G1 X123.424 Y65.696 E0.13148
G1 X123.48 Y66.006 E0.14615
G1 X123.501 Y66.353 E0.16234
G1 X123.501 Y88.284 E1.18354
G1 X123.48 Y88.628 E1.19958
G1 X123.423 Y88.939 E1.21431
G1 X123.333 Y89.229 E1.22845
G1 X123.186 Y89.548 E1.2448
G1 X123.036 Y89.797 E1.25834
G1 X122.846 Y90.039 E1.27266
G1 X122.626 Y90.26 E1.28718
G1 X122.378 Y90.454 E1.30184
G1 X122.105 Y90.619 E1.3167
G1 X121.827 Y90.745 E1.33091
G1 X121.515 Y90.842 E1.34612
G1 X121.213 Y90.897 E1.36042
G1 X120.867 Y90.918 E1.37656
G1 X88.935 Y90.918 E2.86345
G1 X88.591 Y90.897 E2.87949
G1 X88.28 Y90.84 E2.89422
G1 X87.99 Y90.75 E2.90836
G1 X87.671 Y90.603 E2.92471
G1 X87.422 Y90.453 E2.93825
G1 X87.181 Y90.264 E2.95251
G1 X86.952 Y90.035 E2.96759
G1 X86.766 Y89.798 E2.98162
G1 X86.599 Y89.522 E2.99664
G1 X86.472 Y89.239 E3.01108
G1 X86.378 Y88.94 E3.02568
G1 X86.322 Y88.63 E3.04034
G1 X86.301 Y88.284 E3.05649
G1 X86.301 Y66.353 E4.07769
G1 X86.322 Y66.008 E4.09378
G1 X86.379 Y65.697 E4.1085
G1 X86.469 Y65.407 E4.12264
G1 X86.618 Y65.083 E4.13925
G1 X86.766 Y64.839 E4.15254
G1 X86.955 Y64.598 E4.1668
G1 X87.184 Y64.369 E4.18188
G1 X87.421 Y64.183 E4.1959
G1 X87.697 Y64.016 E4.21093
G1 X87.98 Y63.889 E4.22537
G1 X88.279 Y63.795 E4.23996
G1 X88.589 Y63.739 E4.25463
G1 X88.936 Y63.718 E4.27082
G1 X120.866 Y63.718 E5.75761
G1 X121.211 Y63.739 E5.77371
G1 X121.522 Y63.796 E5.78843
M204 S3000
M205 X10 Y10
G0 F3000 X121.656 Y63.251
M204 S1800
M205 X8 Y8
G1 F1500 X122.018 Y63.363 E5.80608
G1 X122.395 Y63.537 E5.82541
G1 X122.69 Y63.715 E5.84145
G1 X122.999 Y63.957 E5.85973
G1 X123.268 Y64.227 E5.87748
G1 X123.498 Y64.52 E5.89482
G1 X123.7 Y64.854 E5.913
G1 X123.853 Y65.195 E5.9304
G1 X123.969 Y65.566 E5.9485
G1 X124.037 Y65.939 E5.96616
G1 X124.061 Y66.335 E5.98463
G1 X124.061 Y88.301 E7.00746
G1 X124.037 Y88.697 E7.02593
G1 X123.968 Y89.073 E7.04373
G1 X123.857 Y89.43 E7.06114
G1 X123.682 Y89.811 E7.08066
G1 X123.498 Y90.117 E7.09729
G1 X123.268 Y90.409 E7.1146
G1 X122.999 Y90.679 E7.13234
G1 X122.694 Y90.918 E7.15039
G1 X122.367 Y91.115 E7.16816
G1 X122.022 Y91.271 E7.18579
G1 X121.653 Y91.386 E7.20379
G1 X121.28 Y91.454 E7.22145
G1 X120.884 Y91.478 E7.23992
G1 X88.918 Y91.478 E8.72839
G1 X88.522 Y91.454 E8.74686
G1 X88.146 Y91.385 E8.76466
G1 X87.789 Y91.274 E8.78207
G1 X87.408 Y91.099 E8.80159
G1 X87.102 Y90.915 E8.81822
G1 X86.81 Y90.685 E8.83553
G1 X86.534 Y90.409 E8.8537
G1 X86.304 Y90.116 E8.87105
G1 X86.102 Y89.782 E8.88922
G1 X85.949 Y89.441 E8.90663
G1 X85.833 Y89.07 E8.92473
G1 X85.765 Y88.697 E8.94238
G1 X85.741 Y88.301 E8.96086
G1 X85.741 Y66.335 E9.98368
G1 X85.765 Y65.939 E10.00216
G1 X85.834 Y65.563 E10.01996
G1 X85.945 Y65.206 E10.03737
G1 X86.121 Y64.823 E10.05699
G1 X86.304 Y64.519 E10.07352
G1 X86.534 Y64.227 E10.09082
G1 X86.81 Y63.951 E10.109
G1 X87.103 Y63.721 E10.12634
G1 X87.437 Y63.519 E10.14452
G1 X87.778 Y63.366 E10.16192
G1 X88.149 Y63.25 E10.18002
G1 X88.522 Y63.182 E10.19768
G1 X88.918 Y63.158 E10.21615
G1 X120.884 Y63.158 E11.70462
G1 X121.28 Y63.182 E11.7231
G1 X121.656 Y63.251 E11.7409
M204 S3000
M205 X10 Y10
G0 F3000 X121.79 Y62.706
M204 S1800
M205 X8 Y8
;TYPE:WALL-OUTER
G1 F1500 X122.219 Y62.839 E11.76181
G1 X122.651 Y63.038 E11.78396
G1 X123.012 Y63.256 E11.80359
G1 X123.372 Y63.538 E11.82489
G1 X123.686 Y63.853 E11.8456
G1 X123.96 Y64.202 E11.86626
G1 X124.197 Y64.594 E11.88759
G1 X124.379 Y65 E11.90831
G1 X124.513 Y65.429 E11.92923
G1 X124.594 Y65.87 E11.95011
G1 X124.621 Y66.318 E11.97101
G1 X124.621 Y88.318 E12.99542
G1 X124.594 Y88.766 E13.01632
G1 X124.513 Y89.207 E13.0372
G1 X124.382 Y89.628 E13.05773
G1 X124.177 Y90.075 E13.08063
G1 X123.96 Y90.434 E13.10016
G1 X123.686 Y90.783 E13.12082
G1 X123.372 Y91.098 E13.14153
G1 X123.012 Y91.38 E13.16283
G1 X122.625 Y91.614 E13.18389
G1 X122.22 Y91.796 E13.20456
G1 X121.79 Y91.93 E13.22553
G1 X121.349 Y92.011 E13.24641
G1 X120.901 Y92.038 E13.26731
G1 X88.901 Y92.038 E14.75737
G1 X88.453 Y92.011 E14.77826
G1 X88.012 Y91.93 E14.79914
G1 X87.591 Y91.799 E14.81967
G1 X87.144 Y91.594 E14.84257
G1 X86.785 Y91.377 E14.8621
G1 X86.436 Y91.103 E14.88277
G1 X86.116 Y90.783 E14.90384
G1 X85.842 Y90.434 E14.9245
G1 X85.605 Y90.042 E14.94583
G1 X85.423 Y89.636 E14.96655
G1 X85.289 Y89.207 E14.98747
G1 X85.208 Y88.766 E15.00835
G1 X85.181 Y88.318 E15.02925
G1 X85.181 Y66.318 E16.05366
G1 X85.208 Y65.87 E16.07456
G1 X85.289 Y65.429 E16.09544
G1 X85.42 Y65.008 E16.11597
G1 X85.625 Y64.561 E16.13887
G1 X85.842 Y64.202 E16.1584
G1 X86.116 Y63.853 E16.17906
G1 X86.436 Y63.533 E16.20014
G1 X86.785 Y63.259 E16.2208
G1 X87.177 Y63.022 E16.24213
G1 X87.583 Y62.84 E16.26284
G1 X88.012 Y62.706 E16.28377
G1 X88.453 Y62.625 E16.30465
G1 X88.901 Y62.598 E16.32555
G1 X120.901 Y62.598 E17.8156
G1 X121.349 Y62.625 E17.8365
G1 X121.79 Y62.706 E17.85738
M204 S3000
M205 X10 Y10
G0 F3000 X121.981 Y62.765
G0 X121.786 Y63.395
G0 X121.384 Y64.329
M204 S1800
M205 X8 Y8
;TYPE:SKIN
G1 F1500 X121.631 Y64.406 E17.86943
G1 X121.873 Y64.518 E17.88184
G1 X122.057 Y64.628 E17.89183
G1 X122.261 Y64.788 E17.9039
G1 X122.435 Y64.963 E17.91539
G1 X122.584 Y65.153 E17.92663
G1 X122.714 Y65.368 E17.93833
G1 X122.812 Y65.587 E17.9495
G1 X122.887 Y65.825 E17.96112
G1 X122.934 Y66.087 E17.97352
G1 X122.951 Y66.353 E17.98593
G1 X122.951 Y88.284 E19.00713
G1 X122.934 Y88.553 E19.01968
G1 X122.887 Y88.809 E19.0318
G1 X122.819 Y89.03 E19.04257
G1 X122.699 Y89.29 E19.0559
G1 X122.584 Y89.483 E19.06636
G1 X122.436 Y89.671 E19.0775
G1 X122.262 Y89.845 E19.08896
G1 X122.065 Y90 E19.10063
G1 X121.845 Y90.133 E19.1126
G1 X121.629 Y90.23 E19.12363
G1 X121.385 Y90.306 E19.13553
G1 X121.146 Y90.35 E19.14685
G1 X120.85 Y90.368 E19.16065
G1 X88.936 Y90.368 E20.6467
G1 X88.666 Y90.352 E20.6593
G1 X88.407 Y90.304 E20.67156
G1 X88.191 Y90.237 E20.68209
G1 X87.925 Y90.114 E20.69574
G1 X87.736 Y90.001 E20.70599
G1 X87.549 Y89.854 E20.71707
G1 X87.362 Y89.667 E20.72938
G1 X87.223 Y89.49 E20.73986
G1 X87.082 Y89.257 E20.75254
G1 X86.991 Y89.053 E20.76295
G1 X86.915 Y88.811 E20.77476
G1 X86.867 Y88.545 E20.78734
G1 X86.851 Y88.284 E20.79952
G1 X86.851 Y66.353 E21.82072
G1 X86.867 Y66.083 E21.83331
G1 X86.915 Y65.827 E21.84544
G1 X86.984 Y65.603 E21.85635
G1 X87.104 Y65.343 E21.86969
G1 X87.218 Y65.154 E21.87997
G1 X87.366 Y64.965 E21.89114
G1 X87.552 Y64.779 E21.90339
G1 X87.729 Y64.64 E21.91387
G1 X87.962 Y64.499 E21.92655
G1 X88.166 Y64.408 E21.93695
G1 X88.408 Y64.332 E21.94877
G1 X88.67 Y64.285 E21.96116
G1 X88.937 Y64.268 E21.97362
G1 X120.849 Y64.268 E23.45957
G1 X121.146 Y64.286 E23.47343
G1 X121.384 Y64.329 E23.48469
M204 S3000
M205 X10 Y10
G0 F3000 X121.797 Y64.775
M204 S1800
M205 X8 Y8
G1 F1500 X122.439 Y65.417 E23.52697
M204 S3000
M205 X10 Y10
G0 F3000 X122.69 Y66.46
M204 S1800
M205 X8 Y8
G1 F1500 X120.757 Y64.528 E23.65423
M204 S3000
M205 X10 Y10
G0 F3000 X119.965 Y64.528
M204 S1800
M205 X8 Y8
G1 F1500 X122.69 Y67.252 E23.83364
M204 S3000
M205 X10 Y10
G0 F3000 X122.69 Y68.044
M204 S1800
M205 X8 Y8
G1 F1500 X119.173 Y64.528 E24.06521
M204 S3000
M205 X10 Y10
G0 F3000 X118.381 Y64.528
M204 S1800
M205 X8 Y8
G1 F1500 X122.69 Y68.836 E24.34893
M204 S3000
M205 X10 Y10
G0 F3000 X122.69 Y69.628
M204 S1800
M205 X8 Y8
G1 F1500 X117.589 Y64.528 E24.68481
M204 S3000
M205 X10 Y10
G0 F3000 X116.797 Y64.528
M204 S1800
M205 X8 Y8
G1 F1500 X122.69 Y70.42 E25.07284
M204 S3000
M205 X10 Y10
G0 F3000 X122.69 Y71.212
M204 S1800
M205 X8 Y8
G1 F1500 X116.005 Y64.528 E25.51302
M204 S3000
M205 X10 Y10
G0 F3000 X115.213 Y64.528
M204 S1800
M205 X8 Y8
G1 F1500 X122.69 Y72.004 E26.00536
M204 S3000
M205 X10 Y10
G0 F3000 X122.69 Y72.796
M204 S1800
M205 X8 Y8
G1 F1500 X114.421 Y64.528 E26.54986
M204 S3000
M205 X10 Y10
G0 F3000 X113.629 Y64.528
M204 S1800
M205 X8 Y8
G1 F1500 X122.69 Y73.588 E27.14651
M204 S3000
M205 X10 Y10
G0 F3000 X122.69 Y74.38
M204 S1800
M205 X8 Y8
G1 F1500 X112.837 Y64.528 E27.79531
M204 S3000
M205 X10 Y10
G0 F3000 X112.046 Y64.528
M204 S1800
M205 X8 Y8
G1 F1500 X122.69 Y75.172 E28.49624
M204 S3000
M205 X10 Y10
G0 F3000 X122.69 Y75.964
M204 S1800
M205 X8 Y8
G1 F1500 X111.254 Y64.528 E29.24932
M204 S3000
M205 X10 Y10
G0 F3000 X110.462 Y64.528
M204 S1800
M205 X8 Y8
G1 F1500 X122.69 Y76.756 E30.05455
M204 S3000
M205 X10 Y10
G0 F3000 X122.69 Y77.548
M204 S1800
M205 X8 Y8
G1 F1500 X109.67 Y64.528 E30.91194
M204 S3000
M205 X10 Y10
G0 F3000 X108.878 Y64.528
M204 S1800
M205 X8 Y8
G1 F1500 X122.69 Y78.34 E31.82148
M204 S3000
M205 X10 Y10
G0 F3000 X122.69 Y79.132
M204 S1800
M205 X8 Y8
G1 F1500 X108.086 Y64.528 E32.78318
M204 S3000
M205 X10 Y10
G0 F3000 X107.294 Y64.528
M204 S1800
M205 X8 Y8
G1 F1500 X122.69 Y79.924 E33.79704
M204 S3000
M205 X10 Y10
G0 F3000 X122.69 Y80.716
M204 S1800
M205 X8 Y8
G1 F1500 X106.502 Y64.528 E34.86304
M204 S3000
M205 X10 Y10
G0 F3000 X105.71 Y64.528
M204 S1800
M205 X8 Y8
G1 F1500 X122.69 Y81.508 E35.98121
M204 S3000
M205 X10 Y10
G0 F3000 X122.69 Y82.3
M204 S1800
M205 X8 Y8
G1 F1500 X104.918 Y64.528 E37.15152
M204 S3000
M205 X10 Y10
G0 F3000 X104.126 Y64.528
M204 S1800
M205 X8 Y8
G1 F1500 X122.69 Y83.092 E38.37399
M204 S3000
M205 X10 Y10
G0 F3000 X122.69 Y83.884
M204 S1800
M205 X8 Y8
G1 F1500 X103.334 Y64.528 E39.64862
M204 S3000
M205 X10 Y10
G0 F3000 X102.542 Y64.528
M204 S1800
M205 X8 Y8
G1 F1500 X122.69 Y84.676 E40.9754
M204 S3000
M205 X10 Y10
G0 F3000 X122.69 Y85.467
M204 S1800
M205 X8 Y8
G1 F1500 X101.75 Y64.528 E42.3543
M204 S3000
M205 X10 Y10
G0 F3000 X100.958 Y64.528
M204 S1800
M205 X8 Y8
G1 F1500 X122.69 Y86.259 E43.78536
M204 S3000
M205 X10 Y10
G0 F3000 X122.69 Y87.051
M204 S1800
M205 X8 Y8
G1 F1500 X100.166 Y64.528 E45.26857
M204 S3000
M205 X10 Y10
G0 F3000 X99.374 Y64.528
M204 S1800
M205 X8 Y8
G1 F1500 X122.69 Y87.843 E46.80393
M204 S3000
M205 X10 Y10
G0 F3000 X122.659 Y88.605
M204 S1800
M205 X8 Y8
G1 F1500 X98.582 Y64.528 E48.38945
M204 S3000
M205 X10 Y10
G0 F3000 X97.79 Y64.528
M204 S1800
M205 X8 Y8
G1 F1500 X122.454 Y89.192 E50.01361
M204 S3000
M205 X10 Y10
G0 F3000 X122.104 Y89.634
M204 S1800
M205 X8 Y8
G1 F1500 X96.998 Y64.528 E51.66688
M204 S3000
M205 X10 Y10
G0 F3000 X96.206 Y64.528
M204 S1800
M205 X8 Y8
G1 F1500 X121.624 Y89.946 E53.3407
M204 S3000
M205 X10 Y10
G0 F3000 X120.985 Y90.099
M204 S1800
M205 X8 Y8
G1 F1500 X95.414 Y64.528 E55.0246
M204 S3000
M205 X10 Y10
G0 F3000 X94.622 Y64.528
M204 S1800
M205 X8 Y8
G1 F1500 X120.201 Y90.107 E56.70902
M204 S3000
M205 X10 Y10
G0 F3000 X119.409 Y90.107
M204 S1800
M205 X8 Y8
G1 F1500 X93.83 Y64.528 E58.39344
M204 S3000
M205 X10 Y10
G0 F3000 X93.038 Y64.528
M204 S1800
M205 X8 Y8
G1 F1500 X118.617 Y90.107 E60.07786
M204 S3000
M205 X10 Y10
G0 F3000 X117.825 Y90.107
M204 S1800
M205 X8 Y8
G1 F1500 X92.247 Y64.528 E61.76225
M204 S3000
M205 X10 Y10
G0 F3000 X91.455 Y64.528
M204 S1800
M205 X8 Y8
G1 F1500 X117.033 Y90.107 E63.44664
M204 S3000
M205 X10 Y10
G0 F3000 X116.241 Y90.107
M204 S1800
M205 X8 Y8
G1 F1500 X90.663 Y64.528 E65.13102
M204 S3000
M205 X10 Y10
G0 F3000 X89.871 Y64.528
M204 S1800
M205 X8 Y8
G1 F1500 X115.45 Y90.107 E66.81544
M204 S3000
M205 X10 Y10
G0 F3000 X114.658 Y90.107
M204 S1800
M205 X8 Y8
G1 F1500 X89.079 Y64.528 E68.49987
M204 S3000
M205 X10 Y10
G0 F3000 X88.373 Y64.614
M204 S1800
M205 X8 Y8
G1 F1500 X113.866 Y90.107 E70.17862
M204 S3000
M205 X10 Y10
G0 F3000 X113.074 Y90.107
M204 S1800
M205 X8 Y8
G1 F1500 X87.845 Y64.879 E71.83996
M204 S3000
M205 X10 Y10
G0 F3000 X87.451 Y65.276
M204 S1800
M205 X8 Y8
G1 F1500 X112.282 Y90.107 E73.47513
M204 S3000
M205 X10 Y10
G0 F3000 X111.49 Y90.107
M204 S1800
M205 X8 Y8
G1 F1500 X87.191 Y65.809 E75.07522
M204 S3000
M205 X10 Y10
G0 F3000 X87.109 Y66.518
M204 S1800
M205 X8 Y8
G1 F1500 X110.698 Y90.107 E76.6286
M204 S3000
M205 X10 Y10
G0 F3000 X109.906 Y90.107
M204 S1800
M205 X8 Y8
G1 F1500 X87.109 Y67.31 E78.12982
M204 S3000
M205 X10 Y10
G0 F3000 X87.109 Y68.102
M204 S1800
M205 X8 Y8
G1 F1500 X109.114 Y90.107 E79.57889
M204 S3000
M205 X10 Y10
G0 F3000 X108.322 Y90.107
M204 S1800
M205 X8 Y8
G1 F1500 X87.109 Y68.894 E80.9758
M204 S3000
M205 X10 Y10
G0 F3000 X87.109 Y69.686
M204 S1800
M205 X8 Y8
G1 F1500 X107.53 Y90.107 E82.32056
M204 S3000
M205 X10 Y10
G0 F3000 X106.738 Y90.107
M204 S1800
M205 X8 Y8
G1 F1500 X87.109 Y70.478 E83.61316
M204 S3000
M205 X10 Y10
G0 F3000 X87.109 Y71.27
M204 S1800
M205 X8 Y8
G1 F1500 X105.946 Y90.107 E84.85361
M204 S3000
M205 X10 Y10
G0 F3000 X105.154 Y90.107
M204 S1800
M205 X8 Y8
G1 F1500 X87.109 Y72.062 E86.0419
M204 S3000
M205 X10 Y10
G0 F3000 X87.109 Y72.854
M204 S1800
M205 X8 Y8
G1 F1500 X104.362 Y90.107 E87.17804
M204 S3000
M205 X10 Y10
G0 F3000 X103.57 Y90.107
M204 S1800
M205 X8 Y8
G1 F1500 X87.109 Y73.646 E88.26203
M204 S3000
M205 X10 Y10
G0 F3000 X87.109 Y74.438
M204 S1800
M205 X8 Y8
G1 F1500 X102.778 Y90.107 E89.29386
M204 S3000
M205 X10 Y10
G0 F3000 X101.986 Y90.107
M204 S1800
M205 X8 Y8
G1 F1500 X87.109 Y75.23 E90.27353
M204 S3000
M205 X10 Y10
G0 F3000 X87.109 Y76.022
M204 S1800
M205 X8 Y8
G1 F1500 X101.194 Y90.107 E91.20106
M204 S3000
M205 X10 Y10
G0 F3000 X100.402 Y90.107
M204 S1800
M205 X8 Y8
G1 F1500 X87.109 Y76.814 E92.07642
M204 S3000
M205 X10 Y10
G0 F3000 X87.109 Y77.606
M204 S1800
M205 X8 Y8
G1 F1500 X99.61 Y90.107 E92.89964
M204 S3000
M205 X10 Y10
G0 F3000 X98.818 Y90.107
M204 S1800
M205 X8 Y8
G1 F1500 X87.109 Y78.398 E93.67069
M204 S3000
M205 X10 Y10
G0 F3000 X87.109 Y79.19
M204 S1800
M205 X8 Y8
G1 F1500 X98.026 Y90.107 E94.3896
M204 S3000
M205 X10 Y10
G0 F3000 X97.234 Y90.107
M204 S1800
M205 X8 Y8
G1 F1500 X87.109 Y79.982 E95.05634
M204 S3000
M205 X10 Y10
G0 F3000 X87.109 Y80.774
M204 S1800
M205 X8 Y8
G1 F1500 X96.443 Y90.107 E95.67097
M204 S3000
M205 X10 Y10
G0 F3000 X95.651 Y90.107
M204 S1800
M205 X8 Y8
G1 F1500 X87.109 Y81.566 E96.23344
M204 S3000
M205 X10 Y10
G0 F3000 X87.109 Y82.358
M204 S1800
M205 X8 Y8
G1 F1500 X94.859 Y90.107 E96.74376
M204 S3000
M205 X10 Y10
G0 F3000 X94.067 Y90.107
M204 S1800
M205 X8 Y8
G1 F1500 X87.109 Y83.15 E97.20192
M204 S3000
M205 X10 Y10
G0 F3000 X87.109 Y83.942
M204 S1800
M205 X8 Y8
G1 F1500 X93.275 Y90.107 E97.60793
M204 S3000
M205 X10 Y10
G0 F3000 X92.483 Y90.107
M204 S1800
M205 X8 Y8
G1 F1500 X87.109 Y84.734 E97.96179
M204 S3000
M205 X10 Y10
G0 F3000 X87.109 Y85.525
M204 S1800
M205 X8 Y8
G1 F1500 X91.691 Y90.107 E98.26352
M204 S3000
M205 X10 Y10
G0 F3000 X90.899 Y90.107
M204 S1800
M205 X8 Y8
G1 F1500 X87.109 Y86.317 E98.5131
M204 S3000
