;FLAVOR:Marlin
;TIME:5441
;Filament used: 5.75623m
;Layer height: 0.3
;MINX:12.2
;MINY:45.628
;MINZ:0.25
;MAXX:197.8
;MAXY:164.228
;MAXZ:45.85
;Generated with Cura_SteamEngine 4.4.0
M140 S60
M105
M190 S60
M104 S199
M105
M109 S199
M82 ;absolute extrusion mode
G21 ;metric values
G90 ;absolute positioning
M82 ;set extruder to absolute mode
M107 ;start with the fan off
G28 X0 Y0 Z0 ;move X/Y to min endstops
G0 Z0.15
G92 E0 ;zero the extruded length
G1 X40 E25 F500 ; Extrude 25mm of filament in a 4cm line. Reduce speed (F) if you have a
nozzle smaller than 0.4mm!
G92 E0 ;zero the extruded length again
G1 E-1 F500 ; Retract a little
G1 X80 F4000 ; Quickly wipe away from the filament line
M117 Printing…
G5
G92 E0
G92 E0
G1 F3000 E-6
;LAYER_COUNT:153
;LAYER:0
M106 S51
M204 S3000
M205 X10 Y10
G1 F600 Z0.35
G0 F4200 X14.526 Y45.873 Z0.35
M204 S500
;TYPE:SKIRT
G1 F600 Z0.25
G1 F3000 E0.06236
G1 F1200 X15.04 Y45.72 E0.08356
G1 X15.708 Y45.638 E0.11016
G1 X16.029 Y45.629 E0.12285
G1 X16.13 Y45.628 E0.12684
G1 X193.545 Y45.628 E7.13852
G1 X194.243 Y45.638 E7.16611
G1 X194.777 Y45.686 E7.1873
G1 X195.298 Y45.812 E7.20848
G1 X195.795 Y46.015 E7.2297
G1 X196.256 Y46.289 E7.25089
G1 X196.671 Y46.628 E7.27207
G1 X197.031 Y47.026 E7.29328
G1 X197.328 Y47.472 E7.31446
G1 X197.556 Y47.958 E7.33568
G1 X197.708 Y48.472 E7.35686
G1 X197.79 Y49.137 E7.38334
G1 X197.799 Y49.457 E7.39599
G1 X197.8 Y49.558 E7.39998
G1 X197.8 Y159.942 E11.76251
G1 X197.79 Y160.665 E11.79109
G1 X197.742 Y161.199 E11.81227
G1 X197.616 Y161.72 E11.83346
G1 X197.414 Y162.217 E11.85466
G1 X197.14 Y162.678 E11.87586
G1 X196.801 Y163.093 E11.89703
G1 X196.404 Y163.454 E11.91824
G1 X195.958 Y163.751 E11.93942
G1 X195.472 Y163.979 E11.96063
G1 X194.958 Y164.132 E11.98183
G1 X194.336 Y164.212 E12.00661
G1 X194.016 Y164.225 E12.01927
G1 X193.87 Y164.228 E12.02504
G1 X16.694 Y164.228 E19.02728
G1 X15.93 Y164.217 E19.05748
G1 X15.589 Y164.195 E19.07098
G1 X15.416 Y164.176 E19.07786
G1 X14.889 Y164.078 E19.09904
G1 X14.382 Y163.903 E19.12024
G1 X13.907 Y163.654 E19.14144
G1 X13.474 Y163.338 E19.16262
G1 X13.093 Y162.961 E19.1838
G1 X12.772 Y162.531 E19.20501
G1 X12.518 Y162.058 E19.22623
G1 X12.338 Y161.553 E19.24742
G1 X12.235 Y161.027 E19.2686
G1 X12.211 Y160.708 E19.28124
G1 X12.203 Y160.447 E19.29156
G1 X12.201 Y160.337 E19.29591
G1 X12.2 Y49.902 E23.66045
G1 X12.2 Y49.853 E23.66239
G1 X12.209 Y49.188 E23.68867
G1 X12.257 Y48.654 E23.70986
G1 X12.383 Y48.133 E23.73105
G1 X12.585 Y47.636 E23.75225
G1 X12.858 Y47.175 E23.77342
G1 X13.197 Y46.759 E23.79463
G1 X13.594 Y46.399 E23.81581
G1 X14.041 Y46.101 E23.83705
G1 X14.526 Y45.873 E23.85823
M204 S3000
G0 F4200 X14.888 Y46.172
M204 S500
G1 F1200 X15.382 Y46.066 E23.87819
G1 X15.719 Y46.038 E23.89156
G1 X16.04 Y46.029 E23.90425
G1 X16.13 Y46.028 E23.90781
G1 X193.539 Y46.028 E30.91925
G1 X194.237 Y46.038 E30.94684
G1 X194.74 Y46.085 E30.96681
G1 X195.23 Y46.211 E30.9868
G1 X195.694 Y46.413 E31.0068
G1 X196.12 Y46.685 E31.02678
G1 X196.498 Y47.02 E31.04674
G1 X196.818 Y47.411 E31.06671
G1 X197.073 Y47.848 E31.0867
G1 X197.256 Y48.319 E31.10667
G1 X197.363 Y48.813 E31.12665
G1 X197.39 Y49.148 E31.13993
G1 X197.399 Y49.468 E31.15258
G1 X197.4 Y49.558 E31.15614
G1 X197.4 Y159.936 E35.51843
G1 X197.39 Y160.659 E35.54701
G1 X197.343 Y161.163 E35.56701
G1 X197.217 Y161.652 E35.58697
G1 X197.016 Y162.116 E35.60695
G1 X196.744 Y162.543 E35.62696
G1 X196.409 Y162.921 E35.64692
G1 X196.018 Y163.241 E35.66689
G1 X195.582 Y163.497 E35.68687
G1 X195.11 Y163.68 E35.70688
G1 X194.616 Y163.786 E35.72685
G1 X194.32 Y163.812 E35.73859
G1 X194 Y163.825 E35.75125
G1 X193.87 Y163.828 E35.75639
G1 X16.7 Y163.828 E42.75839
G1 X15.936 Y163.817 E42.78858
G1 X15.633 Y163.798 E42.80058
G1 X15.46 Y163.779 E42.80746
G1 X14.963 Y163.684 E42.82746
G1 X14.488 Y163.512 E42.84742
G1 X14.045 Y163.268 E42.86741
G1 X13.647 Y162.957 E42.88737
G1 X13.302 Y162.587 E42.90737
G1 X13.02 Y162.167 E42.92736
G1 X12.808 Y161.708 E42.94734
G1 X12.67 Y161.222 E42.96731
G1 X12.611 Y160.696 E42.98823
G1 X12.603 Y160.435 E42.99855
G1 X12.601 Y160.337 E43.00242
G1 X12.6 Y49.902 E47.36696
G1 X12.6 Y49.859 E47.36866
G1 X12.609 Y49.194 E47.39495
G1 X12.656 Y48.69 E47.41495
G1 X12.782 Y48.201 E47.43491
G1 X12.983 Y47.737 E47.45489
G1 X13.254 Y47.31 E47.47488
G1 X13.589 Y46.932 E47.49484
G1 X13.98 Y46.611 E47.51484
G1 X14.417 Y46.356 E47.53483
G1 X14.888 Y46.172 E47.55482
M204 S3000
G1 F3000 E41.55482
;MESH:PSUCoverDummy_AllVersions.stl
G0 F4200 X31.364 Y62.191
M204 S250
;TYPE:WALL-INNER
G1 F3000 E47.61718
G1 F1080 X31.597 Y62.191 E47.62639
G1 X31.598 Y62.191 E47.62643
G1 X105.377 Y62.191 E50.54227
G1 X105.378 Y62.191 E50.54231
G1 X105.619 Y62.191 E50.55184
G1 X105.573 Y62.428 E50.5577
G1 X105.508 Y62.76 E50.57107
G1 X105.502 Y63.503 E50.60043
G1 X105.619 Y64.23 E50.62953
G1 X105.873 Y64.967 E50.66034
G1 X106.459 Y65.927 E50.70479
G1 X107.231 Y66.625 E50.74593
G1 X107.921 Y67.035 E50.77765
G1 X108.983 Y67.397 E50.82199
G1 X110.031 Y67.433 E50.86343
G1 X110.817 Y67.304 E50.89491
G1 X111.863 Y66.9 E50.93923
G1 X112.684 Y66.255 E50.98049
G1 X113.182 Y65.679 E51.01058
G1 X113.253 Y65.56 E51.01606
G1 X113.278 Y65.519 E51.01796
G1 X113.315 Y65.561
G1 X113.382 Y65.637 E51.01938
G1 X114.168 Y66.206 E51.05773
G1 X115.08 Y66.535 E51.09605
G1 X115.119 Y66.55 E51.0977
G1 X115.16 Y66.555 E51.09933
G1 X115.928 Y66.663 E51.12998
G1 X178.677 Y66.663 E53.60991
G1 X178.756 Y66.663 E53.61303
G1 X178.839 Y66.663 E53.61631
G1 X178.756 Y66.908 E53.62249
G1 X178.754 Y66.987 E53.62518
G1 X178.731 Y67.663 E53.65191
G1 X113.564 Y67.663 E56.2274
G1 X112.706 Y67.813 E56.26182
G1 X111.789 Y68.341 E56.30364
G1 X111.112 Y69.148 E56.34527
G1 X110.753 Y70.135 E56.38678
G1 X110.738 Y112.145 E58.04707
G1 X110.738 Y141.336 E59.20074
G1 X110.738 Y141.337 E59.20078
G1 X110.738 Y141.582 E59.21046
G1 X110.498 Y141.531 E59.21639
G1 X110.231 Y141.474 E59.22718
G1 X110.192 Y141.465 E59.22876
G1 X109.738 Y141.459 E59.2467
G1 X109.738 Y70.489 E62.05154
G1 X109.588 Y69.631 E62.08596
G1 X109.06 Y68.714 E62.12778
G1 X108.254 Y68.037 E62.16938
G1 X107.336 Y67.706 E62.20795
G1 X107.272 Y67.682 E62.21065
G1 X105.421 Y67.663 E62.2838
G1 X104.704 Y67.663 E62.31214
G1 X104.693 Y67.663 E62.31258
G1 X104.704 Y67.374 E62.32036
G1 X104.581 Y66.622 E62.35048
G1 X104.327 Y65.886 E62.38125
G1 X103.741 Y64.926 E62.4257
G1 X102.968 Y64.229 E62.46683
G1 X102.313 Y63.835 E62.49704
G1 X101.619 Y63.576 E62.52632
G1 X100.894 Y63.433 E62.55552
G1 X100.155 Y63.427 E62.58473
G1 X99.426 Y63.539 E62.61388
G1 X98.684 Y63.797 E62.64493
G1 X97.726 Y64.383 E62.68931
G1 X97.488 Y64.647 E62.70336
G1 X97.337 Y64.814 E62.71225
G1 X97.19 Y64.643 E62.71782
G1 X96.864 Y64.262 E62.73764
G1 X96.033 Y63.65 E62.77842
G1 X95.071 Y63.298 E62.81891
G1 X94.261 Y63.191 E62.8512
G1 X90.066 Y63.191 E63.01699
G1 X89.156 Y63.365 E63.05361
G1 X88.25 Y63.893 E63.09505
G1 X87.308 Y65.021 E63.15313
G1 X86.898 Y65.537 E63.17918
G1 X86.798 Y65.664 E63.18557
G1 X86.648 Y65.943 E63.19809
G1 X86.582 Y65.733 E63.19976
G1 X86.533 Y65.579 E63.20492
G1 X86.371 Y65.071 E63.22599
G1 X85.878 Y64.249 E63.26387
G1 X85.053 Y63.571 E63.30608
G1 X84.046 Y63.207 E63.34839
G1 X54.968 Y63.191 E64.4976
G1 X34.411 Y63.191 E65.31004
G1 X33.539 Y63.34 E65.345
G1 X32.622 Y63.854 E65.38654
G1 X31.922 Y64.641 E65.42817
G1 X31.526 Y65.619 E65.46987
G1 X31.475 Y66.671 E65.5115
G1 X31.775 Y67.678 E65.55302
G1 X32.39 Y68.523 E65.59433
G1 X32.686 Y68.729 E65.60858
G1 X32.662 Y68.757
G1 X32.355 Y69.111 E65.6271
G1 X32.211 Y69.352 E65.63819
G1 X32.182 Y69.329
G1 X31.848 Y69.063 E65.65507
G1 X30.825 Y68.718 E65.69774
G1 X29.749 Y68.746 E65.74028
G1 X28.735 Y69.133 E65.78317
G1 X27.923 Y69.832 E65.82551
G1 X27.393 Y70.764 E65.86789
G1 X27.238 Y71.647 E65.90332
G1 X27.238 Y118.44 E67.75264
G1 X27.36 Y119.239 E67.78458
G1 X27.792 Y120.1 E67.82265
G1 X28.358 Y120.679 E67.85465
G1 X28.934 Y121.108 E67.88304
G1 X29.557 Y121.56 E67.91346
G1 X30.436 Y121.905 E67.95078
G1 X31.374 Y121.954 E67.9879
G1 X31.561 Y121.912 E67.99547
G1 X31.562 Y121.922
G1 X31.687 Y122.678 E68.02576
G1 X31.733 Y122.796 E68.03076
G1 X31.71 Y122.8
G1 X31.271 Y122.88 E68.0484
G1 X29.623 Y123.818 E68.12334
G1 X28.624 Y124.401 E68.16905
G1 X27.933 Y124.987 E68.20486
G1 X27.394 Y125.927 E68.24769
G1 X27.238 Y126.815 E68.28332
G1 X27.238 Y141.459 E68.86207
G1 X26.929 Y141.455 E68.87428
G1 X26.238 Y141.565 E68.90194
G1 X26.238 Y67.476 E71.83003
G1 X26.238 Y67.397 E71.83315
G1 X26.238 Y67.314 E71.83644
G1 X26.483 Y67.397 E71.84261
G1 X26.562 Y67.399 E71.8453
G1 X27.531 Y67.433 E71.88362
G1 X28.317 Y67.304 E71.9151
G1 X29.363 Y66.9 E71.95942
G1 X30.184 Y66.255 E72.00068
G1 X30.682 Y65.679 E72.03077
G1 X31.082 Y65.01 E72.06158
G1 X31.444 Y63.946 E72.10599
G1 X31.48 Y62.898 E72.14744
G1 X31.401 Y62.422 E72.16651
G1 X31.364 Y62.191 E72.17223
M204 S3000
G1 F3000 E66.17223
G0 F4200 X39.922 Y70.577
M204 S250
G1 F3000 E72.23459
G1 F1080 X40.156 Y70.577 E72.24384
G1 X40.157 Y70.577 E72.24388
G1 X64.428 Y70.599 E73.2031
G1 X81.515 Y70.599 E73.87841
G1 X81.594 Y70.599 E73.88153
G1 X81.677 Y70.599 E73.88481
G1 X81.594 Y70.844 E73.89098
G1 X81.592 Y70.923 E73.89367
G1 X81.568 Y71.599 E73.92041
G1 X40.032 Y71.599 E75.56197
G1 X40.042 Y71.306 E75.57355
G1 X39.96 Y70.809 E75.59346
G1 X39.959 Y70.808 E75.59352
G1 X39.922 Y70.577 E75.59923
M204 S3000
G1 F3000 E69.59923
G0 F4200 X34.8 Y75.709
M204 S250
G1 F3000 E75.66159
G1 F1080 X35.307 Y75.816 E75.68207
G1 X35.346 Y75.825 E75.68365
G1 X35.8 Y75.831 E75.7016
G1 X35.8 Y117.367 E77.34316
G1 X35.507 Y117.357 E77.35474
G1 X34.8 Y117.473 E77.38306
G1 X34.8 Y75.709 E79.03363
M204 S3000
G1 F3000 E73.03363
G0 F4200 X40.032 Y121.599
M204 S250
G1 F3000 E79.09599
G1 F1080 X81.568 Y121.599 E80.73755
G1 X81.558 Y121.892 E80.74914
G1 X81.637 Y122.368 E80.76821
G1 X81.674 Y122.599 E80.77745
G1 X81.441 Y122.599 E80.78315
G1 X81.44 Y122.599 E80.78319
G1 X40.085 Y122.599 E82.4176
G1 X40.006 Y122.599 E82.42072
G1 X39.923 Y122.599 E82.424
G1 X40.006 Y122.354 E82.43017
G1 X40.008 Y122.275 E82.43287
G1 X40.032 Y121.599 E82.4596
M204 S3000
G1 F3000 E76.4596
G0 F4200 X85.8 Y75.831
M204 S250
G1 F3000 E82.52196
G1 F1080 X86.109 Y75.835 E82.53417
G1 X86.591 Y75.757 E82.55347
G1 X86.592 Y75.756 E82.55353
G1 X86.822 Y75.721 E82.56272
G1 X86.822 Y75.953 E82.56841
G1 X86.822 Y75.955 E82.56849
G1 X86.8 Y100.142 E83.5244
G1 X86.8 Y117.314 E84.20306
G1 X86.8 Y117.393 E84.20618
G1 X86.8 Y117.476 E84.20946
G1 X86.555 Y117.393 E84.21563
G1 X86.476 Y117.391 E84.21832
G1 X85.8 Y117.367 E84.24506
G1 X85.8 Y75.831 E85.88662
M204 S3000
G1 F3000 E79.88662
G0 F4200 X99.462 Y71.772
M204 S250
G1 F3000 E85.94898
G1 F1080 X99.702 Y71.823 E85.95868
G1 X99.969 Y71.88 E85.96947
G1 X100.008 Y71.889 E85.97105
G1 X100.462 Y71.895 E85.98899
G1 X100.462 Y142.865 E88.79382
G1 X100.612 Y143.723 E88.82825
G1 X101.14 Y144.64 E88.87007
G1 X101.946 Y145.317 E88.91167
G1 X102.864 Y145.648 E88.95023
G1 X102.928 Y145.672 E88.95293
G1 X104.779 Y145.691 E89.02609
G1 X105.505 Y145.691 E89.05478
G1 X105.502 Y146.003 E89.06712
G1 X105.619 Y146.73 E89.09622
G1 X105.873 Y147.467 E89.12703
G1 X106.459 Y148.427 E89.17148
G1 X107.231 Y149.125 E89.21261
G1 X107.921 Y149.535 E89.24433
G1 X108.983 Y149.897 E89.28867
G1 X110.031 Y149.933 E89.33012
G1 X110.817 Y149.804 E89.36159
G1 X111.863 Y149.4 E89.40591
G1 X112.684 Y148.755 E89.44717
G1 X112.866 Y148.544 E89.45819
G1 X112.893 Y148.575
G1 X113.336 Y149.092 E89.48509
G1 X114.168 Y149.704 E89.52591
G1 X115.129 Y150.055 E89.56635
G1 X115.937 Y150.163 E89.59856
G1 X178.72 Y150.163 E92.07983
G1 X178.731 Y150.163 E92.08027
G1 X178.72 Y150.49 E92.08938
G1 X178.807 Y150.925 E92.10691
G1 X178.854 Y151.163 E92.1165
G1 X178.612 Y151.163 E92.12237
G1 X178.611 Y151.163 E92.12241
G1 X104.712 Y151.163 E95.043
G1 X104.668 Y151.163 E95.04474
G1 X104.585 Y151.163 E95.04802
G1 X104.668 Y150.849 E95.05659
G1 X104.669 Y150.805 E95.0582
G1 X104.704 Y149.874 E95.09502
G1 X104.581 Y149.122 E95.12513
G1 X104.327 Y148.386 E95.15591
G1 X103.741 Y147.426 E95.20036
G1 X102.968 Y146.729 E95.24149
G1 X102.313 Y146.335 E95.2717
G1 X101.619 Y146.076 E95.30098
G1 X100.894 Y145.933 E95.33018
G1 X100.155 Y145.927 E95.35939
G1 X99.426 Y146.039 E95.38854
G1 X98.684 Y146.297 E95.41958
G1 X97.726 Y146.883 E95.46397
G1 X97.028 Y147.656 E95.50513
G1 X96.947 Y147.793 E95.51142
G1 X96.921 Y147.835 E95.51337
G1 X96.879 Y147.787
G1 X96.817 Y147.716 E95.51446
G1 X96.035 Y147.151 E95.55259
G1 X95.08 Y146.799 E95.59281
G1 X94.268 Y146.691 E95.62518
G1 X31.523 Y146.691 E98.10495
G1 X31.444 Y146.691 E98.10807
G1 X31.361 Y146.691 E98.11135
G1 X31.444 Y146.446 E98.11753
G1 X31.446 Y146.367 E98.12022
G1 X31.47 Y145.691 E98.14695
G1 X96.636 Y145.691 E100.7224
G1 X97.494 Y145.541 E100.75682
G1 X98.411 Y145.013 E100.79864
G1 X99.088 Y144.206 E100.84027
G1 X99.447 Y143.219 E100.88178
G1 X99.462 Y101.209 E102.54207
G1 X99.462 Y72.018 E103.69574
G1 X99.462 Y72.017 E103.69578
G1 X99.462 Y71.772 E103.7017
M204 S3000
G1 F3000 E97.7017
G0 F4200 X182.962 Y71.895
M204 S250
G1 F3000 E103.76406
G1 F1080 X183.271 Y71.899 E103.77628
G1 X183.737 Y71.824 E103.79493
G1 X183.967 Y71.788 E103.80413
G1 X183.967 Y72.02 E103.80981
G1 X183.967 Y72.021 E103.80985
G1 X183.962 Y114.952 E105.50654
G1 X183.962 Y145.803 E106.72582
G1 X183.962 Y145.804 E106.72586
G1 X183.962 Y146.045 E106.73538
G1 X183.725 Y145.999 E106.74124
G1 X183.394 Y145.933 E106.75458
G1 X182.962 Y145.929 E106.77165
G1 X182.962 Y71.895 E109.69758
M204 S3000
G0 F4200 X182.562 Y71.716
M204 S250
G1 F1080 X182.562 Y71.54 E109.70453
G1 X182.554 Y71.49 E109.70653
G1 X182.73 Y71.492 E109.71133
G1 X183.242 Y71.499 E109.73157
G1 X183.905 Y71.393 E109.7581
G1 X184.103 Y71.324 E109.76639
G1 X184.367 Y71.232 E109.77744
G1 X184.367 Y71.511 E109.78397
G1 X184.367 Y71.512 E109.78401
G1 X184.362 Y114.952 E111.50082
G1 X184.362 Y146.334 E112.74107
G1 X184.362 Y146.352 E112.74179
G1 X184.37 Y146.415 E112.7443
G1 X184.395 Y146.606 E112.75191
G1 X184.283 Y146.564 E112.75243
G1 X184.01 Y146.462 E112.76068
G1 X183.993 Y146.459 E112.76136
G1 X183.353 Y146.333 E112.78714
G1 X182.684 Y146.327 E112.81358
G1 X182.571 Y146.344 E112.8181
G1 X182.552 Y146.347 E112.81886
G1 X182.558 Y146.307
G1 X182.562 Y146.285
G1 X182.562 Y71.716 E115.76593
M204 S3000
G1 F3000 E109.76593
G0 F4200 X179.144 Y68.073
M204 S250
G1 F3000 E115.82829
G1 F1080 X179.102 Y68.068 E115.82996
G1 X179.073 Y68.063 E115.83112
G1 X113.599 Y68.063 E118.41874
G1 X112.844 Y68.195 E118.44904
G1 X112.05 Y68.652 E118.48524
G1 X111.464 Y69.351 E118.52129
G1 X111.153 Y70.206 E118.55725
G1 X111.138 Y112.145 E120.21473
G1 X111.138 Y141.755 E121.38496
G1 X111.138 Y141.884 E121.39006
G1 X111.16 Y142.05 E121.39668
G1 X111.169 Y142.115 E121.39927
G1 X111.072 Y142.062 E121.40027
G1 X110.946 Y142.036 E121.40535
G1 X110.186 Y141.873 E121.43607
G1 X110.147 Y141.864 E121.43765
G1 X109.458 Y141.855 E121.46489
G1 X109.348 Y141.872 E121.46929
G1 X109.328 Y141.876 E121.47009
G1 X109.334 Y141.836
G1 X109.338 Y141.811
G1 X109.338 Y70.524 E124.28745
G1 X109.206 Y69.769 E124.31774
G1 X108.749 Y68.975 E124.35395
G1 X108.051 Y68.389 E124.38997
G1 X107.2 Y68.081 E124.42574
G1 X105.419 Y68.063 E124.49613
G1 X104.52 Y68.063 E124.53166
G1 X104.351 Y68.063 E124.53834
G1 X104.278 Y68.073 E124.54125
G1 X104.278 Y68.061
G1 X104.284 Y67.892 E124.54597
G1 X104.303 Y67.399 E124.56547
G1 X104.192 Y66.72 E124.59266
G1 X103.963 Y66.057 E124.62038
G1 X103.43 Y65.184 E124.6608
G1 X102.729 Y64.552 E124.69811
G1 X102.138 Y64.197 E124.72535
G1 X101.51 Y63.962 E124.75185
