;FLAVOR:Marlin
;TIME:13328
;Filament used: 16.1499m
;Layer height: 0.3
;MINX:1.858
;MINY:45.45
;MINZ:0.25
;MAXX:208.339
;MAXY:164.75
;MAXZ:45.85
;Generated with Cura_SteamEngine 4.4.0
M140 S60
M105
M190 S60
M104 S199
M105
M109 S199
M82 ;absolute extrusion mode
G21 ;metric values
G90 ;absolute positioning
M82 ;set extruder to absolute mode
M107 ;start with the fan off
G28 X0 Y0 Z0 ;move X/Y to min endstops
G0 Z0.15
G92 E0 ;zero the extruded length
G1 X40 E25 F500 ; Extrude 25mm of filament in a 4cm line. Reduce speed (F) if you have a
nozzle smaller than 0.4mm!
G92 E0 ;zero the extruded length again
G1 E-1 F500 ; Retract a little
G1 X80 F4000 ; Quickly wipe away from the filament line
M117 Printing…
G5
G92 E0
G92 E0
G1 F3000 E-6
;LAYER_COUNT:153
;LAYER:0
M106 S51
M204 S3000
M205 X10 Y10
G1 F600 Z0.35
G0 F4200 X5.24 Y45.478 Z0.35
M204 S500
;TYPE:SKIRT
G1 F600 Z0.25
G1 F3000 E0.06236
G1 F1200 X5.522 Y45.461 E0.07353
G1 X5.993 Y45.451 E0.09215
G1 X6.069 Y45.45 E0.09515
G1 X183.066 Y45.45 E7.09031
G1 X183.758 Y45.46 E7.11766
G1 X184.292 Y45.508 E7.13885
G1 X184.813 Y45.635 E7.16005
G1 X185.31 Y45.837 E7.18125
G1 X185.856 Y46.172 E7.20657
G1 X185.989 Y46.271 E7.21312
G1 X186.394 Y46.623 E7.23433
G1 X186.742 Y47.03 E7.25549
G1 X187.026 Y47.485 E7.27669
G1 X187.239 Y47.977 E7.29787
G1 X187.377 Y48.495 E7.31906
G1 X187.438 Y49.096 E7.34294
G1 X187.453 Y49.952 E7.37677
G1 X187.454 Y50.015 E7.37926
G1 X187.456 Y90.247 E8.96928
G1 X187.495 Y93.028 E9.0792
G1 X187.611 Y95.757 E9.18715
G1 X187.804 Y98.481 E9.29508
G1 X188.071 Y101.163 E9.4016
G1 X188.418 Y103.872 E9.50954
G1 X188.846 Y106.601 E9.61871
G1 X189.342 Y109.264 E9.72577
G1 X189.904 Y111.875 E9.83132
G1 X190.567 Y114.581 E9.94143
G1 X191.293 Y117.217 E10.04949
G1 X192.084 Y119.802 E10.15632
G1 X192.952 Y122.374 E10.26361
G1 X193.907 Y124.963 E10.37267
G1 X194.921 Y127.489 E10.48024
G1 X196.004 Y129.979 E10.58755
G1 X197.166 Y132.456 E10.69568
G1 X198.39 Y134.887 E10.80325
G1 X199.686 Y137.288 E10.91108
G1 X201.033 Y139.621 E11.01755
G1 X202.488 Y141.984 E11.12722
G1 X203.958 Y144.23 E11.23331
G1 X205.531 Y146.488 E11.34207
G1 X207.026 Y148.518 E11.44171
G1 X207.104 Y148.628 E11.44704
G1 X207.281 Y148.888 E11.45947
G1 X207.536 Y149.326 E11.4795
G1 X207.679 Y149.617 E11.49231
G1 X207.872 Y150.094 E11.51265
G1 X208.115 Y150.843 E11.54377
G1 X208.242 Y151.364 E11.56496
G1 X208.289 Y151.827 E11.58335
G1 X208.317 Y152.618 E11.61463
G1 X208.319 Y152.73 E11.61906
G1 X208.339 Y157.526 E11.80861
G1 X208.339 Y157.577 E11.81062
G1 X208.332 Y158.283 E11.83853
G1 X208.315 Y158.593 E11.8508
G1 X208.28 Y158.956 E11.86521
G1 X208.188 Y159.489 E11.88659
G1 X208.121 Y159.755 E11.89743
G1 X208.094 Y159.858 E11.90164
G1 X208.007 Y160.165 E11.91425
G1 X207.838 Y160.633 E11.93391
G1 X207.673 Y161.008 E11.9501
G1 X207.374 Y161.554 E11.97471
G1 X207.047 Y162.045 E11.99802
G1 X206.637 Y162.554 E12.02385
G1 X206.326 Y162.875 E12.04151
G1 X205.953 Y163.21 E12.06133
G1 X205.654 Y163.443 E12.07631
G1 X205.476 Y163.573 E12.08502
G1 X205.279 Y163.708 E12.09446
G1 X204.75 Y164.008 E12.11849
G1 X204.496 Y164.125 E12.12955
G1 X204.388 Y164.172 E12.1342
G1 X204.184 Y164.258 E12.14295
G1 X203.782 Y164.4 E12.1598
G1 X203.216 Y164.563 E12.18308
G1 X202.557 Y164.688 E12.20959
G1 X202.259 Y164.716 E12.22142
G1 X202.022 Y164.731 E12.2308
G1 X201.374 Y164.749 E12.25642
G1 X201.274 Y164.75 E12.26037
G1 X189.694 Y164.75 E12.71803
G1 X188.989 Y164.74 E12.7459
G1 X188.828 Y164.734 E12.75226
G1 X188.302 Y164.703 E12.77309
G1 X188.188 Y164.694 E12.77761
G1 X186.332 Y164.525 E12.85126
G1 X186.277 Y164.52 E12.85345
G1 X185.563 Y164.444 E12.88182
G1 X182.877 Y164.235 E12.9883
G1 X180.116 Y164.1 E13.09755
G1 X176.747 Y164.04 E13.23072
G1 X158.811 Y164.04 E13.93957
G1 X158.11 Y164.03 E13.96728
G1 X158.056 Y164.028 E13.96941
G1 X155.179 Y163.944 E14.08317
G1 X152.438 Y163.944 E14.19149
G1 X150.289 Y163.998 E14.27645
G1 X149.331 Y164.033 E14.31434
G1 X149.238 Y164.035 E14.31801
G1 X148.77 Y164.04 E14.33651
G1 X6.311 Y164.04 E19.96668
G1 X5.64 Y164.031 E19.99321
G1 X5.106 Y163.984 E20.01439
G1 X4.815 Y163.924 E20.02613
G1 X4.623 Y163.876 E20.03396
G1 X4.114 Y163.707 E20.05515
G1 X3.635 Y163.465 E20.07636
G1 X3.198 Y163.154 E20.09756
G1 X2.812 Y162.782 E20.11875
G1 X2.485 Y162.357 E20.13994
G1 X2.226 Y161.888 E20.16111
G1 X2.038 Y161.385 E20.18234
G1 X1.928 Y160.86 E20.20354
G1 X1.896 Y160.442 E20.2201
G1 X1.882 Y159.586 E20.25394
G1 X1.882 Y159.528 E20.25623
G1 X1.858 Y50.055 E24.58275
G1 X1.858 Y50 E24.58493
G1 X1.868 Y49.333 E24.61129
G1 X1.874 Y49.177 E24.61746
G1 X1.889 Y48.92 E24.62763
G1 X1.96 Y48.389 E24.64881
G1 X2.109 Y47.874 E24.66999
G1 X2.333 Y47.386 E24.69122
G1 X2.627 Y46.938 E24.71239
G1 X2.985 Y46.538 E24.73361
G1 X3.611 Y46.055 E24.76486
G1 X3.726 Y45.985 E24.77018
G1 X4.204 Y45.741 E24.79139
G1 X4.712 Y45.571 E24.81256
G1 X5.24 Y45.478 E24.83375
M204 S3000
G0 F4200 X5.53 Y45.861
M204 S500
G1 F1200 X6.001 Y45.851 E24.85237
G1 X6.069 Y45.85 E24.85505
G1 X183.06 Y45.85 E31.84998
G1 X183.752 Y45.86 E31.87733
G1 X184.256 Y45.908 E31.89734
G1 X184.745 Y46.033 E31.91729
G1 X185.209 Y46.235 E31.93729
G1 X185.617 Y46.493 E31.95636
G1 X185.75 Y46.592 E31.96292
G1 X186.13 Y46.925 E31.98289
G1 X186.453 Y47.314 E32.00287
G1 X186.711 Y47.749 E32.02286
G1 X186.898 Y48.219 E32.04285
G1 X187.008 Y48.712 E32.06281
G1 X187.039 Y49.103 E32.07831
G1 X187.054 Y49.959 E32.11215
G1 X187.054 Y50.015 E32.11436
G1 X187.056 Y90.253 E33.70462
G1 X187.096 Y93.051 E33.81521
G1 X187.211 Y95.768 E33.92269
G1 X187.405 Y98.51 E34.03133
G1 X187.675 Y101.221 E34.139
G1 X188.024 Y103.948 E34.24765
G1 X188.445 Y106.63 E34.35495
G1 X188.952 Y109.357 E34.46457
G1 X189.516 Y111.975 E34.57041
G1 X190.178 Y114.677 E34.68036
G1 X190.901 Y117.303 E34.788
G1 X191.709 Y119.941 E34.89704
G1 X192.584 Y122.536 E35.00527
G1 X193.52 Y125.072 E35.1121
G1 X194.548 Y127.631 E35.2211
G1 X195.647 Y130.16 E35.33007
G1 X196.804 Y132.627 E35.43776
G1 X198.031 Y135.063 E35.54556
G1 X199.339 Y137.486 E35.65438
G1 X200.705 Y139.851 E35.76232
G1 X202.129 Y142.166 E35.86974
G1 X203.639 Y144.472 E35.97867
G1 X205.213 Y146.733 E36.08755
G1 X206.704 Y148.756 E36.18687
G1 X206.773 Y148.853 E36.19158
G1 X206.95 Y149.113 E36.20401
G1 X207.177 Y149.503 E36.22184
G1 X207.32 Y149.794 E36.23466
G1 X207.492 Y150.217 E36.2527
G1 X207.735 Y150.966 E36.28382
G1 X207.852 Y151.458 E36.30381
G1 X207.889 Y151.841 E36.31902
G1 X207.917 Y152.632 E36.3503
G1 X207.919 Y152.732 E36.35425
G1 X207.939 Y157.528 E36.5438
G1 X207.939 Y157.573 E36.54558
G1 X207.932 Y158.279 E36.57348
G1 X207.917 Y158.554 E36.58436
G1 X207.882 Y158.917 E36.59878
G1 X207.8 Y159.392 E36.61783
G1 X207.733 Y159.658 E36.62867
G1 X207.709 Y159.748 E36.63235
G1 X207.622 Y160.055 E36.64496
G1 X207.472 Y160.472 E36.66247
G1 X207.307 Y160.847 E36.67867
G1 X207.041 Y161.332 E36.70053
G1 X206.714 Y161.823 E36.72384
G1 X206.349 Y162.276 E36.74683
G1 X206.038 Y162.597 E36.7645
G1 X205.707 Y162.894 E36.78207
G1 X205.408 Y163.127 E36.79705
G1 X205.25 Y163.243 E36.8048
G1 X205.053 Y163.378 E36.81424
G1 X204.583 Y163.644 E36.83558
G1 X204.329 Y163.761 E36.84663
G1 X204.233 Y163.804 E36.85079
G1 X204.029 Y163.89 E36.85954
G1 X203.672 Y164.016 E36.8745
G1 X203.106 Y164.179 E36.89778
G1 X202.519 Y164.29 E36.92139
G1 X202.221 Y164.318 E36.93322
G1 X202.011 Y164.331 E36.94154
G1 X201.363 Y164.349 E36.96716
G1 X201.274 Y164.35 E36.97067
G1 X189.7 Y164.35 E37.42809
G1 X188.995 Y164.34 E37.45596
G1 X188.852 Y164.334 E37.46162
G1 X188.326 Y164.303 E37.48244
G1 X188.224 Y164.296 E37.48648
G1 X186.368 Y164.127 E37.56014
G1 X186.319 Y164.122 E37.56208
G1 X185.599 Y164.045 E37.5907
G1 X182.892 Y163.835 E37.69801
G1 X180.175 Y163.701 E37.80552
G1 X176.697 Y163.64 E37.94299
G1 X158.816 Y163.64 E38.64967
G1 X158.115 Y163.63 E38.67738
G1 X158.068 Y163.629 E38.67924
G1 X155.156 Y163.544 E38.79437
G1 X152.428 Y163.544 E38.90219
G1 X150.269 Y163.598 E38.98754
G1 X149.317 Y163.633 E39.02519
G1 X149.234 Y163.635 E39.02847
G1 X148.766 Y163.64 E39.04697
G1 X6.316 Y163.64 E44.67679
G1 X5.645 Y163.631 E44.70331
G1 X4.912 Y163.535 E44.73252
G1 X4.72 Y163.487 E44.74035
G1 X4.241 Y163.326 E44.76032
G1 X3.793 Y163.092 E44.78029
G1 X3.387 Y162.79 E44.80029
G1 X3.035 Y162.428 E44.82025
G1 X2.743 Y162.015 E44.84024
G1 X2.521 Y161.561 E44.86021
G1 X2.372 Y161.077 E44.88022
G1 X2.296 Y160.435 E44.90577
G1 X2.282 Y159.579 E44.93961
G1 X2.282 Y159.528 E44.94162
G1 X2.258 Y50.055 E49.26814
G1 X2.258 Y50.006 E49.27008
G1 X2.268 Y49.339 E49.29645
G1 X2.273 Y49.201 E49.3019
G1 X2.288 Y48.944 E49.31208
G1 X2.358 Y48.443 E49.33207
G1 X2.505 Y47.959 E49.35206
G1 X2.727 Y47.505 E49.37203
G1 X3.017 Y47.091 E49.39201
G1 X3.369 Y46.728 E49.41199
G1 X3.819 Y46.397 E49.43407
G1 X3.934 Y46.327 E49.43939
G1 X4.385 Y46.099 E49.45936
G1 X4.867 Y45.945 E49.47936
G1 X5.53 Y45.861 E49.50577
M204 S3000
G1 F3000 E43.50577
G0 F4200 X186.532 Y149.65
M204 S250
;TYPE:SUPPORT
G1 F3000 E49.56814
G1 F1080 X201.787 Y149.65 E50.17104
G1 X202.146 Y149.686 E50.1853
G1 X202.741 Y149.839 E50.20958
G1 X203.122 Y150.019 E50.22623
G1 X203.524 Y150.295 E50.2455
G1 X203.922 Y150.698 E50.26789
G1 X204.146 Y151.019 E50.28336
G1 X204.371 Y151.496 E50.3042
G1 X204.518 Y152.049 E50.32681
G1 X204.542 Y152.38 E50.33993
G1 X204.542 Y158.238 E50.57145
G1 X204.509 Y158.58 E50.58502
G1 X204.354 Y159.151 E50.60841
G1 X204.181 Y159.53 E50.62487
G1 X203.882 Y159.959 E50.64554
G1 X203.553 Y160.287 E50.6639
G1 X203.138 Y160.579 E50.68395
G1 X202.716 Y160.765 E50.70218
G1 X202.171 Y160.921 E50.72458
G1 X201.794 Y160.95 E50.73953
G1 X189.04 Y160.95 E51.24358
G1 X187.759 Y160.851 E51.29436
G1 X187.414 Y160.65 E51.31014
G1 X186.516 Y160.597 E51.34569
G1 X186.532 Y149.65 E51.77833
M204 S3000
G1 F3000 E45.77833
G0 F4200 X192.928 Y155.491
M204 S250
G1 F3000 E51.8407
G1 F1080 X192.82 Y155.74 E51.85142
G1 X192.881 Y156.244 E51.87149
G1 X193.04 Y156.449 E51.88174
G1 X194.798 Y157.534 E51.96339
G1 X195.015 Y157.761 E51.9758
G1 X196.274 Y159.478 E52.05994
G1 X196.515 Y159.6 E52.07062
G1 X197.021 Y159.569 E52.09065
G1 X197.237 Y159.425 E52.10091
G1 X198.574 Y157.567 E52.19138
G1 X200.346 Y156.11 E52.28205
G1 X200.458 Y155.865 E52.29269
G1 X200.417 Y155.364 E52.31256
G1 X200.274 Y155.148 E52.3228
G1 X198.527 Y153.879 E52.40813
G1 X197.07 Y152.128 E52.49816
G1 X196.563 Y151.9 E52.52013
G1 X196.111 Y152.205 E52.54168
G1 X194.864 Y153.924 E52.62561
G1 X192.928 Y155.491 E52.72405
M204 S3000
G0 F4200 X193 Y155.237
M204 S250
G1 F1080 X193 Y149.802 E52.93884
M204 S3000
G0 F4200 X192 Y149.802
M204 S250
G1 F1080 X192 Y160.798 E53.37342
M204 S3000
G0 F4200 X191 Y160.798
M204 S250
G1 F1080 X191 Y149.802 E53.808
M204 S3000
G0 F4200 X190 Y149.802
M204 S250
G1 F1080 X190 Y160.798 E54.24257
M204 S3000
G0 F4200 X189 Y160.794
M204 S250
G1 F1080 X189 Y149.802 E54.67699
M204 S3000
G0 F4200 X188 Y149.802
M204 S250
G1 F1080 X188 Y160.717 E55.10837
M204 S3000
G0 F4200 X187 Y160.472
M204 S250
G1 F1080 X187 Y149.802 E55.53006
M204 S3000
G0 F4200 X186.684 Y150
M204 S250
G1 F1080 X202.726 Y150 E56.16406
M204 S3000
G0 F4200 X203 Y150.13
M204 S250
G1 F1080 X203 Y160.474 E56.57287
M204 S3000
G0 F4200 X203.625 Y160
M204 S250
G1 F1080 X186.669 Y160 E57.243
M204 S3000
G0 F4200 X186.671 Y159
M204 S250
G1 F1080 X195.736 Y159 E57.60126
M204 S3000
G0 F4200 X196 Y159.362
M204 S250
G1 F1080 X196 Y160.798 E57.65801
M204 S3000
G0 F4200 X195 Y160.798
M204 S250
G1 F1080 X195 Y157.998 E57.76867
M204 S3000
G0 F4200 X195.003 Y158
M204 S250
G1 F1080 X186.672 Y158 E58.09792
M204 S3000
G0 F4200 X186.674 Y157
M204 S250
G1 F1080 X193.644 Y157 E58.37339
M204 S3000
G0 F4200 X194 Y157.22
M204 S250
G1 F1080 X194 Y160.798 E58.51479
M204 S3000
G0 F4200 X193 Y160.798
M204 S250
G1 F1080 X193 Y156.603 E58.68059
M204 S3000
G0 F4200 X192.699 Y156
M204 S250
G1 F1080 X186.675 Y156 E58.91866
M204 S3000
G0 F4200 X186.677 Y155
M204 S250
G1 F1080 X193.292 Y155 E59.1801
M204 S3000
G0 F4200 X194 Y154.428
M204 S250
G1 F1080 X194 Y149.802 E59.36292
M204 S3000
G0 F4200 X195 Y149.802
M204 S250
G1 F1080 X195 Y153.479 E59.50824
M204 S3000
G0 F4200 X195.346 Y153
M204 S250
G1 F1080 X186.68 Y153 E59.85073
M204 S3000
G0 F4200 X186.681 Y152
M204 S250
G1 F1080 X196.143 Y152 E60.22468
M204 S3000
G0 F4200 X196 Y152.1
M204 S250
G1 F1080 X196 Y149.802 E60.3155
M204 S3000
G0 F4200 X197 Y149.802
M204 S250
G1 F1080 X197 Y151.93 E60.39961
M204 S3000
G0 F4200 X197.152 Y152
M204 S250
G1 F1080 X204.348 Y152 E60.684
M204 S3000
G0 F4200 X204 Y151.075
M204 S250
G1 F1080 X204 Y159.525 E61.01796
M204 S3000
G0 F4200 X204.237 Y159
M204 S250
G1 F1080 X197.73 Y159 E61.27512
M204 S3000
G0 F4200 X198 Y158.624
M204 S250
G1 F1080 X198 Y160.798 E61.36104
M204 S3000
G0 F4200 X199 Y160.798
M204 S250
G1 F1080 X199 Y157.413 E61.49482
M204 S3000
G0 F4200 X199.503 Y157
M204 S250
G1 F1080 X204.39 Y157 E61.68796
M204 S3000
G0 F4200 X204.39 Y156
M204 S250
G1 F1080 X200.564 Y156 E61.83917
M204 S3000
G0 F4200 X200 Y156.591
M204 S250
G1 F1080 X200 Y160.798 E62.00544
M204 S3000
G0 F4200 X201 Y160.798
M204 S250
G1 F1080 X201 Y149.802 E62.44001
M204 S3000
G0 F4200 X200 Y149.802
M204 S250
G1 F1080 X200 Y154.76 E62.63596
M204 S3000
G0 F4200 X200.329 Y155
M204 S250
G1 F1080 X204.39 Y155 E62.79646
M204 S3000
G0 F4200 X204.39 Y154
M204 S250
G1 F1080 X198.953 Y154 E63.01134
M204 S3000
G0 F4200 X199 Y154.034
M204 S250
G1 F1080 X199 Y149.802 E63.17859
M204 S3000
G0 F4200 X198 Y149.802
M204 S250
G1 F1080 X198 Y153.008 E63.3053
M204 S3000
G0 F4200 X197.992 Y153
M204 S250
G1 F1080 X204.39 Y153 E63.55815
M204 S3000
G1 F3000 E57.55815
G0 F4200 X203.949 Y151
M204 S250
G1 F3000 E63.62052
G1 F1080 X186.683 Y151 E64.30289
M204 S3000
G1 F3000 E58.30289
G0 F4200 X186.678 Y154
M204 S250
G1 F3000 E64.36525
G1 F1080 X194.529 Y154 E64.67554
M204 S3000
G1 F3000 E58.67554
G0 F4200 X198.45 Y158
M204 S250
G1 F3000 E64.7379
G1 F1080 X204.39 Y158 E64.97266
M204 S3000
G1 F3000 E58.97266
G0 F4200 X202 Y160.783
M204 S250
G1 F3000 E65.03502
G1 F1080 X202 Y149.825 E65.46809
M204 S3000
G1 F3000 E59.46809
G0 F4200 X197 Y159.722
M204 S250
G1 F3000 E65.53046
G1 F1080 X197 Y160.798 E65.57298
M204 S3000
G1 F3000 E59.57298
;MESH:PSUCover_60x25.stl
G0 F4200 X76.291 Y75.864
M204 S250
;TYPE:WALL-INNER
G1 F3000 E65.63534
G1 F1080 X76.999 Y75.654 E65.66453
G1 X77.663 Y75.332 E65.6937
G1 X78.265 Y74.889 E65.72323
G1 X78.776 Y74.353 E65.7525
G1 X79.188 Y73.738 E65.78176
G1 X79.487 Y73.056 E65.81119
G1 X79.662 Y72.343 E65.8402
G1 X79.715 Y71.602 E65.86956
G1 X79.631 Y70.859 E65.89912
G1 X79.422 Y70.149 E65.92837
G1 X79.095 Y69.486 E65.95758
G1 X78.657 Y68.888 E65.98688
G1 X78.124 Y68.375 E66.01611
G1 X77.503 Y67.961 E66.04561
G1 X76.825 Y67.664 E66.07486
G1 X76.11 Y67.487 E66.10397
G1 X75.37 Y67.435 E66.13329
G1 X74.626 Y67.518 E66.16288
G1 X73.919 Y67.728 E66.19203
G1 X73.255 Y68.05 E66.22119
G1 X72.653 Y68.492 E66.25071
G1 X72.142 Y69.027 E66.27995
G1 X71.729 Y69.644 E66.30929
G1 X71.437 Y70.308 E66.33796
G1 X71.263 Y70.97 E66.36501
G1 X71.241 Y71.264 E66.37666
G1 X71.212 Y71.67 E66.39275
G1 X71.203 Y71.78 E66.39711
G1 X71.286 Y72.522 E66.42662
G1 X71.448 Y73.074 E66.44935
G1 X71.495 Y73.233 E66.45591
G1 X71.607 Y73.462 E66.46598
G1 X71.809 Y73.87 E66.48397
G1 X71.822 Y73.896 E66.48512
G1 X72.059 Y74.22 E66.50099
G1 X72.26 Y74.494 E66.51442
G1 X72.349 Y74.579 E66.51928
G1 X72.667 Y74.886 E66.53675
G1 X72.793 Y75.007 E66.54365
G1 X73.003 Y75.147 E66.55363
G1 X73.405 Y75.415 E66.57272
G1 X73.414 Y75.421 E66.57315
G1 X73.719 Y75.554 E66.5863
G1 X74.092 Y75.718 E66.60241
